unity/render_random/Assets/square_root_max1.cube
TITLE "cube/square_root_max1.cube"
LUT_3D_SIZE 5
DOMAIN_MIN 0.000000 0.000000 0.000000
DOMAIN_MAX 0.903226 0.903226 0.903226
0.000000 0.000000 0.000000
0.176225 0.000000 0.000000
0.571386 0.000000 0.000000
1.000000 0.000000 0.000000
1.000000 0.000000 0.000000
0.000000 0.176225 0.000000
0.176225 0.176225 0.000000
0.571386 0.176225 0.000000
1.000000 0.176225 0.000000
1.000000 0.176225 0.000000
0.000000 0.571386 0.000000
0.176225 0.571386 0.000000
0.571386 0.571386 0.000000
1.000000 0.571386 0.000000
1.000000 0.571386 0.000000
0.000000 1.000000 0.000000
0.176225 1.000000 0.000000
0.571386 1.000000 0.000000
1.000000 1.000000 0.000000
1.000000 1.000000 0.000000
0.000000 1.000000 0.000000
0.176225 1.000000 0.000000
0.571386 1.000000 0.000000
1.000000 1.000000 0.000000
1.000000 1.000000 0.000000
0.000000 0.000000 0.176225
0.176225 0.000000 0.176225
0.571386 0.000000 0.176225
1.000000 0.000000 0.176225
1.000000 0.000000 0.176225
0.000000 0.176225 0.176225
0.176225 0.176225 0.176225
0.571386 0.176225 0.176225
1.000000 0.176225 0.176225
1.000000 0.176225 0.176225
0.000000 0.571386 0.176225
0.176225 0.571386 0.176225
0.571386 0.571386 0.176225
1.000000 0.571386 0.176225
1.000000 0.571386 0.176225
0.000000 1.000000 0.176225
0.176225 1.000000 0.176225
0.571386 1.000000 0.176225
1.000000 1.000000 0.176225
1.000000 1.000000 0.176225
0.000000 1.000000 0.176225
0.176225 1.000000 0.176225
0.571386 1.000000 0.176225
1.000000 1.000000 0.176225
1.000000 1.000000 0.176225
0.000000 0.000000 0.571386
0.176225 0.000000 0.571386
0.571386 0.000000 0.571386
1.000000 0.000000 0.571386
1.000000 0.000000 0.571386
0.000000 0.176225 0.571386
0.176225 0.176225 0.571386
0.571386 0.176225 0.571386
1.000000 0.176225 0.571386
1.000000 0.176225 0.571386
0.000000 0.571386 0.571386
0.176225 0.571386 0.571386
0.571386 0.571386 0.571386
1.000000 0.571386 0.571386
1.000000 0.571386 0.571386
0.000000 1.000000 0.571386
0.176225 1.000000 0.571386
0.571386 1.000000 0.571386
1.000000 1.000000 0.571386
1.000000 1.000000 0.571386
0.000000 1.000000 0.571386
0.176225 1.000000 0.571386
0.571386 1.000000 0.571386
1.000000 1.000000 0.571386
1.000000 1.000000 0.571386
0.000000 0.000000 1.000000
0.176225 0.000000 1.000000
0.571386 0.000000 1.000000
1.000000 0.000000 1.000000
1.000000 0.000000 1.000000
0.000000 0.176225 1.000000
0.176225 0.176225 1.000000
0.571386 0.176225 1.000000
1.000000 0.176225 1.000000
1.000000 0.176225 1.000000
0.000000 0.571386 1.000000
0.176225 0.571386 1.000000
0.571386 0.571386 1.000000
1.000000 0.571386 1.000000
1.000000 0.571386 1.000000
0.000000 1.000000 1.000000
0.176225 1.000000 1.000000
0.571386 1.000000 1.000000
1.000000 1.000000 1.000000
1.000000 1.000000 1.000000
0.000000 1.000000 1.000000
0.176225 1.000000 1.000000
0.571386 1.000000 1.000000
1.000000 1.000000 1.000000
1.000000 1.000000 1.000000
0.000000 0.000000 1.000000
0.176225 0.000000 1.000000
0.571386 0.000000 1.000000
1.000000 0.000000 1.000000
1.000000 0.000000 1.000000
0.000000 0.176225 1.000000
0.176225 0.176225 1.000000
0.571386 0.176225 1.000000
1.000000 0.176225 1.000000
1.000000 0.176225 1.000000
0.000000 0.571386 1.000000
0.176225 0.571386 1.000000
0.571386 0.571386 1.000000
1.000000 0.571386 1.000000
1.000000 0.571386 1.000000
0.000000 1.000000 1.000000
0.176225 1.000000 1.000000
0.571386 1.000000 1.000000
1.000000 1.000000 1.000000
1.000000 1.000000 1.000000
0.000000 1.000000 1.000000
0.176225 1.000000 1.000000
0.571386 1.000000 1.000000
1.000000 1.000000 1.000000
1.000000 1.000000 1.000000
