unity/render_random/Assets/square_max1.cube
TITLE "cube/square_max1.cube"
LUT_3D_SIZE 5
DOMAIN_MIN 0.000000 0.000000 0.000000
DOMAIN_MAX 0.903226 0.903226 0.903226
0.000000 0.000000 0.000000
0.000964 0.000000 0.000000
0.106590 0.000000 0.000000
1.000000 0.000000 0.000000
1.000000 0.000000 0.000000
0.000000 0.000964 0.000000
0.000964 0.000964 0.000000
0.106590 0.000964 0.000000
1.000000 0.000964 0.000000
1.000000 0.000964 0.000000
0.000000 0.106590 0.000000
0.000964 0.106590 0.000000
0.106590 0.106590 0.000000
1.000000 0.106590 0.000000
1.000000 0.106590 0.000000
0.000000 1.000000 0.000000
0.000964 1.000000 0.000000
0.106590 1.000000 0.000000
1.000000 1.000000 0.000000
1.000000 1.000000 0.000000
0.000000 1.000000 0.000000
0.000964 1.000000 0.000000
0.106590 1.000000 0.000000
1.000000 1.000000 0.000000
1.000000 1.000000 0.000000
0.000000 0.000000 0.000964
0.000964 0.000000 0.000964
0.106590 0.000000 0.000964
1.000000 0.000000 0.000964
1.000000 0.000000 0.000964
0.000000 0.000964 0.000964
0.000964 0.000964 0.000964
0.106590 0.000964 0.000964
1.000000 0.000964 0.000964
1.000000 0.000964 0.000964
0.000000 0.106590 0.000964
0.000964 0.106590 0.000964
0.106590 0.106590 0.000964
1.000000 0.106590 0.000964
1.000000 0.106590 0.000964
0.000000 1.000000 0.000964
0.000964 1.000000 0.000964
0.106590 1.000000 0.000964
1.000000 1.000000 0.000964
1.000000 1.000000 0.000964
0.000000 1.000000 0.000964
0.000964 1.000000 0.000964
0.106590 1.000000 0.000964
1.000000 1.000000 0.000964
1.000000 1.000000 0.000964
0.000000 0.000000 0.106590
0.000964 0.000000 0.106590
0.106590 0.000000 0.106590
1.000000 0.000000 0.106590
1.000000 0.000000 0.106590
0.000000 0.000964 0.106590
0.000964 0.000964 0.106590
0.106590 0.000964 0.106590
1.000000 0.000964 0.106590
1.000000 0.000964 0.106590
0.000000 0.106590 0.106590
0.000964 0.106590 0.106590
0.106590 0.106590 0.106590
1.000000 0.106590 0.106590
1.000000 0.106590 0.106590
0.000000 1.000000 0.106590
0.000964 1.000000 0.106590
0.106590 1.000000 0.106590
1.000000 1.000000 0.106590
1.000000 1.000000 0.106590
0.000000 1.000000 0.106590
0.000964 1.000000 0.106590
0.106590 1.000000 0.106590
1.000000 1.000000 0.106590
1.000000 1.000000 0.106590
0.000000 0.000000 1.000000
0.000964 0.000000 1.000000
0.106590 0.000000 1.000000
1.000000 0.000000 1.000000
1.000000 0.000000 1.000000
0.000000 0.000964 1.000000
0.000964 0.000964 1.000000
0.106590 0.000964 1.000000
1.000000 0.000964 1.000000
1.000000 0.000964 1.000000
0.000000 0.106590 1.000000
0.000964 0.106590 1.000000
0.106590 0.106590 1.000000
1.000000 0.106590 1.000000
1.000000 0.106590 1.000000
0.000000 1.000000 1.000000
0.000964 1.000000 1.000000
0.106590 1.000000 1.000000
1.000000 1.000000 1.000000
1.000000 1.000000 1.000000
0.000000 1.000000 1.000000
0.000964 1.000000 1.000000
0.106590 1.000000 1.000000
1.000000 1.000000 1.000000
1.000000 1.000000 1.000000
0.000000 0.000000 1.000000
0.000964 0.000000 1.000000
0.106590 0.000000 1.000000
1.000000 0.000000 1.000000
1.000000 0.000000 1.000000
0.000000 0.000964 1.000000
0.000964 0.000964 1.000000
0.106590 0.000964 1.000000
1.000000 0.000964 1.000000
1.000000 0.000964 1.000000
0.000000 0.106590 1.000000
0.000964 0.106590 1.000000
0.106590 0.106590 1.000000
1.000000 0.106590 1.000000
1.000000 0.106590 1.000000
0.000000 1.000000 1.000000
0.000964 1.000000 1.000000
0.106590 1.000000 1.000000
1.000000 1.000000 1.000000
1.000000 1.000000 1.000000
0.000000 1.000000 1.000000
0.000964 1.000000 1.000000
0.106590 1.000000 1.000000
1.000000 1.000000 1.000000
1.000000 1.000000 1.000000
