unity/render_random/Assets/square_max1.cube
TITLE "cube/square_max1.cube"
LUT_3D_SIZE 8
DOMAIN_MIN 0.000000 0.000000 0.000000
DOMAIN_MAX 0.903226 0.903226 0.903226
0.000000 0.000000 0.000000
0.000051 0.000000 0.000000
0.002029 0.000000 0.000000
0.030029 0.000000 0.000000
0.366253 0.000000 0.000000
1.000000 0.000000 0.000000
1.000000 0.000000 0.000000
1.000000 0.000000 0.000000
0.000000 0.000051 0.000000
0.000051 0.000051 0.000000
0.002029 0.000051 0.000000
0.030029 0.000051 0.000000
0.366253 0.000051 0.000000
1.000000 0.000051 0.000000
1.000000 0.000051 0.000000
1.000000 0.000051 0.000000
0.000000 0.002029 0.000000
0.000051 0.002029 0.000000
0.002029 0.002029 0.000000
0.030029 0.002029 0.000000
0.366253 0.002029 0.000000
1.000000 0.002029 0.000000
1.000000 0.002029 0.000000
1.000000 0.002029 0.000000
0.000000 0.030029 0.000000
0.000051 0.030029 0.000000
0.002029 0.030029 0.000000
0.030029 0.030029 0.000000
0.366253 0.030029 0.000000
1.000000 0.030029 0.000000
1.000000 0.030029 0.000000
1.000000 0.030029 0.000000
0.000000 0.366253 0.000000
0.000051 0.366253 0.000000
0.002029 0.366253 0.000000
0.030029 0.366253 0.000000
0.366253 0.366253 0.000000
1.000000 0.366253 0.000000
1.000000 0.366253 0.000000
1.000000 0.366253 0.000000
0.000000 1.000000 0.000000
0.000051 1.000000 0.000000
0.002029 1.000000 0.000000
0.030029 1.000000 0.000000
0.366253 1.000000 0.000000
1.000000 1.000000 0.000000
1.000000 1.000000 0.000000
1.000000 1.000000 0.000000
0.000000 1.000000 0.000000
0.000051 1.000000 0.000000
0.002029 1.000000 0.000000
0.030029 1.000000 0.000000
0.366253 1.000000 0.000000
1.000000 1.000000 0.000000
1.000000 1.000000 0.000000
1.000000 1.000000 0.000000
0.000000 1.000000 0.000000
0.000051 1.000000 0.000000
0.002029 1.000000 0.000000
0.030029 1.000000 0.000000
0.366253 1.000000 0.000000
1.000000 1.000000 0.000000
1.000000 1.000000 0.000000
1.000000 1.000000 0.000000
0.000000 0.000000 0.000051
0.000051 0.000000 0.000051
0.002029 0.000000 0.000051
0.030029 0.000000 0.000051
0.366253 0.000000 0.000051
1.000000 0.000000 0.000051
1.000000 0.000000 0.000051
1.000000 0.000000 0.000051
0.000000 0.000051 0.000051
0.000051 0.000051 0.000051
0.002029 0.000051 0.000051
0.030029 0.000051 0.000051
0.366253 0.000051 0.000051
1.000000 0.000051 0.000051
1.000000 0.000051 0.000051
1.000000 0.000051 0.000051
0.000000 0.002029 0.000051
0.000051 0.002029 0.000051
0.002029 0.002029 0.000051
0.030029 0.002029 0.000051
0.366253 0.002029 0.000051
1.000000 0.002029 0.000051
1.000000 0.002029 0.000051
1.000000 0.002029 0.000051
0.000000 0.030029 0.000051
0.000051 0.030029 0.000051
0.002029 0.030029 0.000051
0.030029 0.030029 0.000051
0.366253 0.030029 0.000051
1.000000 0.030029 0.000051
1.000000 0.030029 0.000051
1.000000 0.030029 0.000051
0.000000 0.366253 0.000051
0.000051 0.366253 0.000051
0.002029 0.366253 0.000051
0.030029 0.366253 0.000051
0.366253 0.366253 0.000051
1.000000 0.366253 0.000051
1.000000 0.366253 0.000051
1.000000 0.366253 0.000051
0.000000 1.000000 0.000051
0.000051 1.000000 0.000051
0.002029 1.000000 0.000051
0.030029 1.000000 0.000051
0.366253 1.000000 0.000051
1.000000 1.000000 0.000051
1.000000 1.000000 0.000051
1.000000 1.000000 0.000051
0.000000 1.000000 0.000051
0.000051 1.000000 0.000051
0.002029 1.000000 0.000051
0.030029 1.000000 0.000051
0.366253 1.000000 0.000051
1.000000 1.000000 0.000051
1.000000 1.000000 0.000051
1.000000 1.000000 0.000051
0.000000 1.000000 0.000051
0.000051 1.000000 0.000051
0.002029 1.000000 0.000051
0.030029 1.000000 0.000051
0.366253 1.000000 0.000051
1.000000 1.000000 0.000051
1.000000 1.000000 0.000051
1.000000 1.000000 0.000051
0.000000 0.000000 0.002029
0.000051 0.000000 0.002029
0.002029 0.000000 0.002029
0.030029 0.000000 0.002029
0.366253 0.000000 0.002029
1.000000 0.000000 0.002029
1.000000 0.000000 0.002029
1.000000 0.000000 0.002029
0.000000 0.000051 0.002029
0.000051 0.000051 0.002029
0.002029 0.000051 0.002029
0.030029 0.000051 0.002029
0.366253 0.000051 0.002029
1.000000 0.000051 0.002029
1.000000 0.000051 0.002029
1.000000 0.000051 0.002029
0.000000 0.002029 0.002029
0.000051 0.002029 0.002029
0.002029 0.002029 0.002029
0.030029 0.002029 0.002029
0.366253 0.002029 0.002029
1.000000 0.002029 0.002029
1.000000 0.002029 0.002029
1.000000 0.002029 0.002029
0.000000 0.030029 0.002029
0.000051 0.030029 0.002029
0.002029 0.030029 0.002029
0.030029 0.030029 0.002029
0.366253 0.030029 0.002029
1.000000 0.030029 0.002029
1.000000 0.030029 0.002029
1.000000 0.030029 0.002029
0.000000 0.366253 0.002029
0.000051 0.366253 0.002029
0.002029 0.366253 0.002029
0.030029 0.366253 0.002029
0.366253 0.366253 0.002029
1.000000 0.366253 0.002029
1.000000 0.366253 0.002029
1.000000 0.366253 0.002029
0.000000 1.000000 0.002029
0.000051 1.000000 0.002029
0.002029 1.000000 0.002029
0.030029 1.000000 0.002029
0.366253 1.000000 0.002029
1.000000 1.000000 0.002029
1.000000 1.000000 0.002029
1.000000 1.000000 0.002029
0.000000 1.000000 0.002029
0.000051 1.000000 0.002029
0.002029 1.000000 0.002029
0.030029 1.000000 0.002029
0.366253 1.000000 0.002029
1.000000 1.000000 0.002029
1.000000 1.000000 0.002029
1.000000 1.000000 0.002029
0.000000 1.000000 0.002029
0.000051 1.000000 0.002029
0.002029 1.000000 0.002029
0.030029 1.000000 0.002029
0.366253 1.000000 0.002029
1.000000 1.000000 0.002029
1.000000 1.000000 0.002029
1.000000 1.000000 0.002029
0.000000 0.000000 0.030029
0.000051 0.000000 0.030029
0.002029 0.000000 0.030029
0.030029 0.000000 0.030029
0.366253 0.000000 0.030029
1.000000 0.000000 0.030029
1.000000 0.000000 0.030029
1.000000 0.000000 0.030029
0.000000 0.000051 0.030029
0.000051 0.000051 0.030029
0.002029 0.000051 0.030029
0.030029 0.000051 0.030029
0.366253 0.000051 0.030029
1.000000 0.000051 0.030029
1.000000 0.000051 0.030029
1.000000 0.000051 0.030029
0.000000 0.002029 0.030029
0.000051 0.002029 0.030029
0.002029 0.002029 0.030029
0.030029 0.002029 0.030029
0.366253 0.002029 0.030029
1.000000 0.002029 0.030029
1.000000 0.002029 0.030029
1.000000 0.002029 0.030029
0.000000 0.030029 0.030029
0.000051 0.030029 0.030029
0.002029 0.030029 0.030029
0.030029 0.030029 0.030029
0.366253 0.030029 0.030029
1.000000 0.030029 0.030029
1.000000 0.030029 0.030029
1.000000 0.030029 0.030029
0.000000 0.366253 0.030029
0.000051 0.366253 0.030029
0.002029 0.366253 0.030029
0.030029 0.366253 0.030029
0.366253 0.366253 0.030029
1.000000 0.366253 0.030029
1.000000 0.366253 0.030029
1.000000 0.366253 0.030029
0.000000 1.000000 0.030029
0.000051 1.000000 0.030029
0.002029 1.000000 0.030029
0.030029 1.000000 0.030029
0.366253 1.000000 0.030029
1.000000 1.000000 0.030029
1.000000 1.000000 0.030029
1.000000 1.000000 0.030029
0.000000 1.000000 0.030029
0.000051 1.000000 0.030029
0.002029 1.000000 0.030029
0.030029 1.000000 0.030029
0.366253 1.000000 0.030029
1.000000 1.000000 0.030029
1.000000 1.000000 0.030029
1.000000 1.000000 0.030029
0.000000 1.000000 0.030029
0.000051 1.000000 0.030029
0.002029 1.000000 0.030029
0.030029 1.000000 0.030029
0.366253 1.000000 0.030029
1.000000 1.000000 0.030029
1.000000 1.000000 0.030029
1.000000 1.000000 0.030029
0.000000 0.000000 0.366253
0.000051 0.000000 0.366253
0.002029 0.000000 0.366253
0.030029 0.000000 0.366253
0.366253 0.000000 0.366253
1.000000 0.000000 0.366253
1.000000 0.000000 0.366253
1.000000 0.000000 0.366253
0.000000 0.000051 0.366253
0.000051 0.000051 0.366253
0.002029 0.000051 0.366253
0.030029 0.000051 0.366253
0.366253 0.000051 0.366253
1.000000 0.000051 0.366253
1.000000 0.000051 0.366253
1.000000 0.000051 0.366253
0.000000 0.002029 0.366253
0.000051 0.002029 0.366253
0.002029 0.002029 0.366253
0.030029 0.002029 0.366253
0.366253 0.002029 0.366253
1.000000 0.002029 0.366253
1.000000 0.002029 0.366253
1.000000 0.002029 0.366253
0.000000 0.030029 0.366253
0.000051 0.030029 0.366253
0.002029 0.030029 0.366253
0.030029 0.030029 0.366253
0.366253 0.030029 0.366253
1.000000 0.030029 0.366253
1.000000 0.030029 0.366253
1.000000 0.030029 0.366253
0.000000 0.366253 0.366253
0.000051 0.366253 0.366253
0.002029 0.366253 0.366253
0.030029 0.366253 0.366253
0.366253 0.366253 0.366253
1.000000 0.366253 0.366253
1.000000 0.366253 0.366253
1.000000 0.366253 0.366253
0.000000 1.000000 0.366253
0.000051 1.000000 0.366253
0.002029 1.000000 0.366253
0.030029 1.000000 0.366253
0.366253 1.000000 0.366253
1.000000 1.000000 0.366253
1.000000 1.000000 0.366253
1.000000 1.000000 0.366253
0.000000 1.000000 0.366253
0.000051 1.000000 0.366253
0.002029 1.000000 0.366253
0.030029 1.000000 0.366253
0.366253 1.000000 0.366253
1.000000 1.000000 0.366253
1.000000 1.000000 0.366253
1.000000 1.000000 0.366253
0.000000 1.000000 0.366253
0.000051 1.000000 0.366253
0.002029 1.000000 0.366253
0.030029 1.000000 0.366253
0.366253 1.000000 0.366253
1.000000 1.000000 0.366253
1.000000 1.000000 0.366253
1.000000 1.000000 0.366253
0.000000 0.000000 1.000000
0.000051 0.000000 1.000000
0.002029 0.000000 1.000000
0.030029 0.000000 1.000000
0.366253 0.000000 1.000000
1.000000 0.000000 1.000000
1.000000 0.000000 1.000000
1.000000 0.000000 1.000000
0.000000 0.000051 1.000000
0.000051 0.000051 1.000000
0.002029 0.000051 1.000000
0.030029 0.000051 1.000000
0.366253 0.000051 1.000000
1.000000 0.000051 1.000000
1.000000 0.000051 1.000000
1.000000 0.000051 1.000000
0.000000 0.002029 1.000000
0.000051 0.002029 1.000000
0.002029 0.002029 1.000000
0.030029 0.002029 1.000000
0.366253 0.002029 1.000000
1.000000 0.002029 1.000000
1.000000 0.002029 1.000000
1.000000 0.002029 1.000000
0.000000 0.030029 1.000000
0.000051 0.030029 1.000000
0.002029 0.030029 1.000000
0.030029 0.030029 1.000000
0.366253 0.030029 1.000000
1.000000 0.030029 1.000000
1.000000 0.030029 1.000000
1.000000 0.030029 1.000000
0.000000 0.366253 1.000000
0.000051 0.366253 1.000000
0.002029 0.366253 1.000000
0.030029 0.366253 1.000000
0.366253 0.366253 1.000000
1.000000 0.366253 1.000000
1.000000 0.366253 1.000000
1.000000 0.366253 1.000000
0.000000 1.000000 1.000000
0.000051 1.000000 1.000000
0.002029 1.000000 1.000000
0.030029 1.000000 1.000000
0.366253 1.000000 1.000000
1.000000 1.000000 1.000000
1.000000 1.000000 1.000000
1.000000 1.000000 1.000000
0.000000 1.000000 1.000000
0.000051 1.000000 1.000000
0.002029 1.000000 1.000000
0.030029 1.000000 1.000000
0.366253 1.000000 1.000000
1.000000 1.000000 1.000000
1.000000 1.000000 1.000000
1.000000 1.000000 1.000000
0.000000 1.000000 1.000000
0.000051 1.000000 1.000000
0.002029 1.000000 1.000000
0.030029 1.000000 1.000000
0.366253 1.000000 1.000000
1.000000 1.000000 1.000000
1.000000 1.000000 1.000000
1.000000 1.000000 1.000000
0.000000 0.000000 1.000000
0.000051 0.000000 1.000000
0.002029 0.000000 1.000000
0.030029 0.000000 1.000000
0.366253 0.000000 1.000000
1.000000 0.000000 1.000000
1.000000 0.000000 1.000000
1.000000 0.000000 1.000000
0.000000 0.000051 1.000000
0.000051 0.000051 1.000000
0.002029 0.000051 1.000000
0.030029 0.000051 1.000000
0.366253 0.000051 1.000000
1.000000 0.000051 1.000000
1.000000 0.000051 1.000000
1.000000 0.000051 1.000000
0.000000 0.002029 1.000000
0.000051 0.002029 1.000000
0.002029 0.002029 1.000000
0.030029 0.002029 1.000000
0.366253 0.002029 1.000000
1.000000 0.002029 1.000000
1.000000 0.002029 1.000000
1.000000 0.002029 1.000000
0.000000 0.030029 1.000000
0.000051 0.030029 1.000000
0.002029 0.030029 1.000000
0.030029 0.030029 1.000000
0.366253 0.030029 1.000000
1.000000 0.030029 1.000000
1.000000 0.030029 1.000000
1.000000 0.030029 1.000000
0.000000 0.366253 1.000000
0.000051 0.366253 1.000000
0.002029 0.366253 1.000000
0.030029 0.366253 1.000000
0.366253 0.366253 1.000000
1.000000 0.366253 1.000000
1.000000 0.366253 1.000000
1.000000 0.366253 1.000000
0.000000 1.000000 1.000000
0.000051 1.000000 1.000000
0.002029 1.000000 1.000000
0.030029 1.000000 1.000000
0.366253 1.000000 1.000000
1.000000 1.000000 1.000000
1.000000 1.000000 1.000000
1.000000 1.000000 1.000000
0.000000 1.000000 1.000000
0.000051 1.000000 1.000000
0.002029 1.000000 1.000000
0.030029 1.000000 1.000000
0.366253 1.000000 1.000000
1.000000 1.000000 1.000000
1.000000 1.000000 1.000000
1.000000 1.000000 1.000000
0.000000 1.000000 1.000000
0.000051 1.000000 1.000000
0.002029 1.000000 1.000000
0.030029 1.000000 1.000000
0.366253 1.000000 1.000000
1.000000 1.000000 1.000000
1.000000 1.000000 1.000000
1.000000 1.000000 1.000000
0.000000 0.000000 1.000000
0.000051 0.000000 1.000000
0.002029 0.000000 1.000000
0.030029 0.000000 1.000000
0.366253 0.000000 1.000000
1.000000 0.000000 1.000000
1.000000 0.000000 1.000000
1.000000 0.000000 1.000000
0.000000 0.000051 1.000000
0.000051 0.000051 1.000000
0.002029 0.000051 1.000000
0.030029 0.000051 1.000000
0.366253 0.000051 1.000000
1.000000 0.000051 1.000000
1.000000 0.000051 1.000000
1.000000 0.000051 1.000000
0.000000 0.002029 1.000000
0.000051 0.002029 1.000000
0.002029 0.002029 1.000000
0.030029 0.002029 1.000000
0.366253 0.002029 1.000000
1.000000 0.002029 1.000000
1.000000 0.002029 1.000000
1.000000 0.002029 1.000000
0.000000 0.030029 1.000000
0.000051 0.030029 1.000000
0.002029 0.030029 1.000000
0.030029 0.030029 1.000000
0.366253 0.030029 1.000000
1.000000 0.030029 1.000000
1.000000 0.030029 1.000000
1.000000 0.030029 1.000000
0.000000 0.366253 1.000000
0.000051 0.366253 1.000000
0.002029 0.366253 1.000000
0.030029 0.366253 1.000000
0.366253 0.366253 1.000000
1.000000 0.366253 1.000000
1.000000 0.366253 1.000000
1.000000 0.366253 1.000000
0.000000 1.000000 1.000000
0.000051 1.000000 1.000000
0.002029 1.000000 1.000000
0.030029 1.000000 1.000000
0.366253 1.000000 1.000000
1.000000 1.000000 1.000000
1.000000 1.000000 1.000000
1.000000 1.000000 1.000000
0.000000 1.000000 1.000000
0.000051 1.000000 1.000000
0.002029 1.000000 1.000000
0.030029 1.000000 1.000000
0.366253 1.000000 1.000000
1.000000 1.000000 1.000000
1.000000 1.000000 1.000000
1.000000 1.000000 1.000000
0.000000 1.000000 1.000000
0.000051 1.000000 1.000000
0.002029 1.000000 1.000000
0.030029 1.000000 1.000000
0.366253 1.000000 1.000000
1.000000 1.000000 1.000000
1.000000 1.000000 1.000000
1.000000 1.000000 1.000000
