unity/render_random/Assets/square_max1.cube
TITLE "cube/square_max1.cube"
LUT_3D_SIZE 32
DOMAIN_MIN 0.0 0.0 0.0
DOMAIN_MAX 1.0 1.0 1.0
0.000000 0.000000 0.000000
0.000000 0.000000 0.000000
0.000000 0.000000 0.000000
0.000008 0.000000 0.000000
0.000051 0.000000 0.000000
0.000162 0.000000 0.000000
0.000421 0.000000 0.000000
0.000964 0.000000 0.000000
0.002029 0.000000 0.000000
0.004133 0.000000 0.000000
0.008144 0.000000 0.000000
0.015742 0.000000 0.000000
0.030029 0.000000 0.000000
0.056233 0.000000 0.000000
0.106590 0.000000 0.000000
0.195306 0.000000 0.000000
0.366253 0.000000 0.000000
0.674402 0.000000 0.000000
1.218463 0.000000 0.000000
1.000000 0.000000 0.000000
1.000000 0.000000 0.000000
1.000000 0.000000 0.000000
1.000000 0.000000 0.000000
1.000000 0.000000 0.000000
1.000000 0.000000 0.000000
1.000000 0.000000 0.000000
1.000000 0.000000 0.000000
1.000000 0.000000 0.000000
1.000000 0.000000 0.000000
1.000000 0.000000 0.000000
1.000000 0.000000 0.000000
1.000000 0.000000 0.000000
0.000000 0.000000 0.000000
0.000000 0.000000 0.000000
0.000000 0.000000 0.000000
0.000008 0.000000 0.000000
0.000051 0.000000 0.000000
0.000162 0.000000 0.000000
0.000421 0.000000 0.000000
0.000964 0.000000 0.000000
0.002029 0.000000 0.000000
0.004133 0.000000 0.000000
0.008144 0.000000 0.000000
0.015742 0.000000 0.000000
0.030029 0.000000 0.000000
0.056233 0.000000 0.000000
0.106590 0.000000 0.000000
0.195306 0.000000 0.000000
0.366253 0.000000 0.000000
0.674402 0.000000 0.000000
1.218463 0.000000 0.000000
1.000000 0.000000 0.000000
1.000000 0.000000 0.000000
1.000000 0.000000 0.000000
1.000000 0.000000 0.000000
1.000000 0.000000 0.000000
1.000000 0.000000 0.000000
1.000000 0.000000 0.000000
1.000000 0.000000 0.000000
1.000000 0.000000 0.000000
1.000000 0.000000 0.000000
1.000000 0.000000 0.000000
1.000000 0.000000 0.000000
1.000000 0.000000 0.000000
0.000000 0.000000 0.000000
0.000000 0.000000 0.000000
0.000000 0.000000 0.000000
0.000008 0.000000 0.000000
0.000051 0.000000 0.000000
0.000162 0.000000 0.000000
0.000421 0.000000 0.000000
0.000964 0.000000 0.000000
0.002029 0.000000 0.000000
0.004133 0.000000 0.000000
0.008144 0.000000 0.000000
0.015742 0.000000 0.000000
0.030029 0.000000 0.000000
0.056233 0.000000 0.000000
0.106590 0.000000 0.000000
0.195306 0.000000 0.000000
0.366253 0.000000 0.000000
0.674402 0.000000 0.000000
1.218463 0.000000 0.000000
1.000000 0.000000 0.000000
1.000000 0.000000 0.000000
1.000000 0.000000 0.000000
1.000000 0.000000 0.000000
1.000000 0.000000 0.000000
1.000000 0.000000 0.000000
1.000000 0.000000 0.000000
1.000000 0.000000 0.000000
1.000000 0.000000 0.000000
1.000000 0.000000 0.000000
1.000000 0.000000 0.000000
1.000000 0.000000 0.000000
1.000000 0.000000 0.000000
0.000000 0.000008 0.000000
0.000000 0.000008 0.000000
0.000000 0.000008 0.000000
0.000008 0.000008 0.000000
0.000051 0.000008 0.000000
0.000162 0.000008 0.000000
0.000421 0.000008 0.000000
0.000964 0.000008 0.000000
0.002029 0.000008 0.000000
0.004133 0.000008 0.000000
0.008144 0.000008 0.000000
0.015742 0.000008 0.000000
0.030029 0.000008 0.000000
0.056233 0.000008 0.000000
0.106590 0.000008 0.000000
0.195306 0.000008 0.000000
0.366253 0.000008 0.000000
0.674402 0.000008 0.000000
1.218463 0.000008 0.000000
1.000000 0.000008 0.000000
1.000000 0.000008 0.000000
1.000000 0.000008 0.000000
1.000000 0.000008 0.000000
1.000000 0.000008 0.000000
1.000000 0.000008 0.000000
1.000000 0.000008 0.000000
1.000000 0.000008 0.000000
1.000000 0.000008 0.000000
1.000000 0.000008 0.000000
1.000000 0.000008 0.000000
1.000000 0.000008 0.000000
1.000000 0.000008 0.000000
0.000000 0.000051 0.000000
0.000000 0.000051 0.000000
0.000000 0.000051 0.000000
0.000008 0.000051 0.000000
0.000051 0.000051 0.000000
0.000162 0.000051 0.000000
0.000421 0.000051 0.000000
0.000964 0.000051 0.000000
0.002029 0.000051 0.000000
0.004133 0.000051 0.000000
0.008144 0.000051 0.000000
0.015742 0.000051 0.000000
0.030029 0.000051 0.000000
0.056233 0.000051 0.000000
0.106590 0.000051 0.000000
0.195306 0.000051 0.000000
0.366253 0.000051 0.000000
0.674402 0.000051 0.000000
1.218463 0.000051 0.000000
1.000000 0.000051 0.000000
1.000000 0.000051 0.000000
1.000000 0.000051 0.000000
1.000000 0.000051 0.000000
1.000000 0.000051 0.000000
1.000000 0.000051 0.000000
1.000000 0.000051 0.000000
1.000000 0.000051 0.000000
1.000000 0.000051 0.000000
1.000000 0.000051 0.000000
1.000000 0.000051 0.000000
1.000000 0.000051 0.000000
1.000000 0.000051 0.000000
0.000000 0.000162 0.000000
0.000000 0.000162 0.000000
0.000000 0.000162 0.000000
0.000008 0.000162 0.000000
0.000051 0.000162 0.000000
0.000162 0.000162 0.000000
0.000421 0.000162 0.000000
0.000964 0.000162 0.000000
0.002029 0.000162 0.000000
0.004133 0.000162 0.000000
0.008144 0.000162 0.000000
0.015742 0.000162 0.000000
0.030029 0.000162 0.000000
0.056233 0.000162 0.000000
0.106590 0.000162 0.000000
0.195306 0.000162 0.000000
0.366253 0.000162 0.000000
0.674402 0.000162 0.000000
1.218463 0.000162 0.000000
1.000000 0.000162 0.000000
1.000000 0.000162 0.000000
1.000000 0.000162 0.000000
1.000000 0.000162 0.000000
1.000000 0.000162 0.000000
1.000000 0.000162 0.000000
1.000000 0.000162 0.000000
1.000000 0.000162 0.000000
1.000000 0.000162 0.000000
1.000000 0.000162 0.000000
1.000000 0.000162 0.000000
1.000000 0.000162 0.000000
1.000000 0.000162 0.000000
0.000000 0.000421 0.000000
0.000000 0.000421 0.000000
0.000000 0.000421 0.000000
0.000008 0.000421 0.000000
0.000051 0.000421 0.000000
0.000162 0.000421 0.000000
0.000421 0.000421 0.000000
0.000964 0.000421 0.000000
0.002029 0.000421 0.000000
0.004133 0.000421 0.000000
0.008144 0.000421 0.000000
0.015742 0.000421 0.000000
0.030029 0.000421 0.000000
0.056233 0.000421 0.000000
0.106590 0.000421 0.000000
0.195306 0.000421 0.000000
0.366253 0.000421 0.000000
0.674402 0.000421 0.000000
1.218463 0.000421 0.000000
1.000000 0.000421 0.000000
1.000000 0.000421 0.000000
1.000000 0.000421 0.000000
1.000000 0.000421 0.000000
1.000000 0.000421 0.000000
1.000000 0.000421 0.000000
1.000000 0.000421 0.000000
1.000000 0.000421 0.000000
1.000000 0.000421 0.000000
1.000000 0.000421 0.000000
1.000000 0.000421 0.000000
1.000000 0.000421 0.000000
1.000000 0.000421 0.000000
0.000000 0.000964 0.000000
0.000000 0.000964 0.000000
0.000000 0.000964 0.000000
0.000008 0.000964 0.000000
0.000051 0.000964 0.000000
0.000162 0.000964 0.000000
0.000421 0.000964 0.000000
0.000964 0.000964 0.000000
0.002029 0.000964 0.000000
0.004133 0.000964 0.000000
0.008144 0.000964 0.000000
0.015742 0.000964 0.000000
0.030029 0.000964 0.000000
0.056233 0.000964 0.000000
0.106590 0.000964 0.000000
0.195306 0.000964 0.000000
0.366253 0.000964 0.000000
0.674402 0.000964 0.000000
1.218463 0.000964 0.000000
1.000000 0.000964 0.000000
1.000000 0.000964 0.000000
1.000000 0.000964 0.000000
1.000000 0.000964 0.000000
1.000000 0.000964 0.000000
1.000000 0.000964 0.000000
1.000000 0.000964 0.000000
1.000000 0.000964 0.000000
1.000000 0.000964 0.000000
1.000000 0.000964 0.000000
1.000000 0.000964 0.000000
1.000000 0.000964 0.000000
1.000000 0.000964 0.000000
0.000000 0.002029 0.000000
0.000000 0.002029 0.000000
0.000000 0.002029 0.000000
0.000008 0.002029 0.000000
0.000051 0.002029 0.000000
0.000162 0.002029 0.000000
0.000421 0.002029 0.000000
0.000964 0.002029 0.000000
0.002029 0.002029 0.000000
0.004133 0.002029 0.000000
0.008144 0.002029 0.000000
0.015742 0.002029 0.000000
0.030029 0.002029 0.000000
0.056233 0.002029 0.000000
0.106590 0.002029 0.000000
0.195306 0.002029 0.000000
0.366253 0.002029 0.000000
0.674402 0.002029 0.000000
1.218463 0.002029 0.000000
1.000000 0.002029 0.000000
1.000000 0.002029 0.000000
1.000000 0.002029 0.000000
1.000000 0.002029 0.000000
1.000000 0.002029 0.000000
1.000000 0.002029 0.000000
1.000000 0.002029 0.000000
1.000000 0.002029 0.000000
1.000000 0.002029 0.000000
1.000000 0.002029 0.000000
1.000000 0.002029 0.000000
1.000000 0.002029 0.000000
1.000000 0.002029 0.000000
0.000000 0.004133 0.000000
0.000000 0.004133 0.000000
0.000000 0.004133 0.000000
0.000008 0.004133 0.000000
0.000051 0.004133 0.000000
0.000162 0.004133 0.000000
0.000421 0.004133 0.000000
0.000964 0.004133 0.000000
0.002029 0.004133 0.000000
0.004133 0.004133 0.000000
0.008144 0.004133 0.000000
0.015742 0.004133 0.000000
0.030029 0.004133 0.000000
0.056233 0.004133 0.000000
0.106590 0.004133 0.000000
0.195306 0.004133 0.000000
0.366253 0.004133 0.000000
0.674402 0.004133 0.000000
1.218463 0.004133 0.000000
1.000000 0.004133 0.000000
1.000000 0.004133 0.000000
1.000000 0.004133 0.000000
1.000000 0.004133 0.000000
1.000000 0.004133 0.000000
1.000000 0.004133 0.000000
1.000000 0.004133 0.000000
1.000000 0.004133 0.000000
1.000000 0.004133 0.000000
1.000000 0.004133 0.000000
1.000000 0.004133 0.000000
1.000000 0.004133 0.000000
1.000000 0.004133 0.000000
0.000000 0.008144 0.000000
0.000000 0.008144 0.000000
0.000000 0.008144 0.000000
0.000008 0.008144 0.000000
0.000051 0.008144 0.000000
0.000162 0.008144 0.000000
0.000421 0.008144 0.000000
0.000964 0.008144 0.000000
0.002029 0.008144 0.000000
0.004133 0.008144 0.000000
0.008144 0.008144 0.000000
0.015742 0.008144 0.000000
0.030029 0.008144 0.000000
0.056233 0.008144 0.000000
0.106590 0.008144 0.000000
0.195306 0.008144 0.000000
0.366253 0.008144 0.000000
0.674402 0.008144 0.000000
1.218463 0.008144 0.000000
1.000000 0.008144 0.000000
1.000000 0.008144 0.000000
1.000000 0.008144 0.000000
1.000000 0.008144 0.000000
1.000000 0.008144 0.000000
1.000000 0.008144 0.000000
1.000000 0.008144 0.000000
1.000000 0.008144 0.000000
1.000000 0.008144 0.000000
1.000000 0.008144 0.000000
1.000000 0.008144 0.000000
1.000000 0.008144 0.000000
1.000000 0.008144 0.000000
0.000000 0.015742 0.000000
0.000000 0.015742 0.000000
0.000000 0.015742 0.000000
0.000008 0.015742 0.000000
0.000051 0.015742 0.000000
0.000162 0.015742 0.000000
0.000421 0.015742 0.000000
0.000964 0.015742 0.000000
0.002029 0.015742 0.000000
0.004133 0.015742 0.000000
0.008144 0.015742 0.000000
0.015742 0.015742 0.000000
0.030029 0.015742 0.000000
0.056233 0.015742 0.000000
0.106590 0.015742 0.000000
0.195306 0.015742 0.000000
0.366253 0.015742 0.000000
0.674402 0.015742 0.000000
1.218463 0.015742 0.000000
1.000000 0.015742 0.000000
1.000000 0.015742 0.000000
1.000000 0.015742 0.000000
1.000000 0.015742 0.000000
1.000000 0.015742 0.000000
1.000000 0.015742 0.000000
1.000000 0.015742 0.000000
1.000000 0.015742 0.000000
1.000000 0.015742 0.000000
1.000000 0.015742 0.000000
1.000000 0.015742 0.000000
1.000000 0.015742 0.000000
1.000000 0.015742 0.000000
0.000000 0.030029 0.000000
0.000000 0.030029 0.000000
0.000000 0.030029 0.000000
0.000008 0.030029 0.000000
0.000051 0.030029 0.000000
0.000162 0.030029 0.000000
0.000421 0.030029 0.000000
0.000964 0.030029 0.000000
0.002029 0.030029 0.000000
0.004133 0.030029 0.000000
0.008144 0.030029 0.000000
0.015742 0.030029 0.000000
0.030029 0.030029 0.000000
0.056233 0.030029 0.000000
0.106590 0.030029 0.000000
0.195306 0.030029 0.000000
0.366253 0.030029 0.000000
0.674402 0.030029 0.000000
1.218463 0.030029 0.000000
1.000000 0.030029 0.000000
1.000000 0.030029 0.000000
1.000000 0.030029 0.000000
1.000000 0.030029 0.000000
1.000000 0.030029 0.000000
1.000000 0.030029 0.000000
1.000000 0.030029 0.000000
1.000000 0.030029 0.000000
1.000000 0.030029 0.000000
1.000000 0.030029 0.000000
1.000000 0.030029 0.000000
1.000000 0.030029 0.000000
1.000000 0.030029 0.000000
0.000000 0.056233 0.000000
0.000000 0.056233 0.000000
0.000000 0.056233 0.000000
0.000008 0.056233 0.000000
0.000051 0.056233 0.000000
0.000162 0.056233 0.000000
0.000421 0.056233 0.000000
0.000964 0.056233 0.000000
0.002029 0.056233 0.000000
0.004133 0.056233 0.000000
0.008144 0.056233 0.000000
0.015742 0.056233 0.000000
0.030029 0.056233 0.000000
0.056233 0.056233 0.000000
0.106590 0.056233 0.000000
0.195306 0.056233 0.000000
0.366253 0.056233 0.000000
0.674402 0.056233 0.000000
1.218463 0.056233 0.000000
1.000000 0.056233 0.000000
1.000000 0.056233 0.000000
1.000000 0.056233 0.000000
1.000000 0.056233 0.000000
1.000000 0.056233 0.000000
1.000000 0.056233 0.000000
1.000000 0.056233 0.000000
1.000000 0.056233 0.000000
1.000000 0.056233 0.000000
1.000000 0.056233 0.000000
1.000000 0.056233 0.000000
1.000000 0.056233 0.000000
1.000000 0.056233 0.000000
0.000000 0.106590 0.000000
0.000000 0.106590 0.000000
0.000000 0.106590 0.000000
0.000008 0.106590 0.000000
0.000051 0.106590 0.000000
0.000162 0.106590 0.000000
0.000421 0.106590 0.000000
0.000964 0.106590 0.000000
0.002029 0.106590 0.000000
0.004133 0.106590 0.000000
0.008144 0.106590 0.000000
0.015742 0.106590 0.000000
0.030029 0.106590 0.000000
0.056233 0.106590 0.000000
0.106590 0.106590 0.000000
0.195306 0.106590 0.000000
0.366253 0.106590 0.000000
0.674402 0.106590 0.000000
1.218463 0.106590 0.000000
1.000000 0.106590 0.000000
1.000000 0.106590 0.000000
1.000000 0.106590 0.000000
1.000000 0.106590 0.000000
1.000000 0.106590 0.000000
1.000000 0.106590 0.000000
1.000000 0.106590 0.000000
1.000000 0.106590 0.000000
1.000000 0.106590 0.000000
1.000000 0.106590 0.000000
1.000000 0.106590 0.000000
1.000000 0.106590 0.000000
1.000000 0.106590 0.000000
0.000000 0.195306 0.000000
0.000000 0.195306 0.000000
0.000000 0.195306 0.000000
0.000008 0.195306 0.000000
0.000051 0.195306 0.000000
0.000162 0.195306 0.000000
0.000421 0.195306 0.000000
0.000964 0.195306 0.000000
0.002029 0.195306 0.000000
0.004133 0.195306 0.000000
0.008144 0.195306 0.000000
0.015742 0.195306 0.000000
0.030029 0.195306 0.000000
0.056233 0.195306 0.000000
0.106590 0.195306 0.000000
0.195306 0.195306 0.000000
0.366253 0.195306 0.000000
0.674402 0.195306 0.000000
1.218463 0.195306 0.000000
1.000000 0.195306 0.000000
1.000000 0.195306 0.000000
1.000000 0.195306 0.000000
1.000000 0.195306 0.000000
1.000000 0.195306 0.000000
1.000000 0.195306 0.000000
1.000000 0.195306 0.000000
1.000000 0.195306 0.000000
1.000000 0.195306 0.000000
1.000000 0.195306 0.000000
1.000000 0.195306 0.000000
1.000000 0.195306 0.000000
1.000000 0.195306 0.000000
0.000000 0.366253 0.000000
0.000000 0.366253 0.000000
0.000000 0.366253 0.000000
0.000008 0.366253 0.000000
0.000051 0.366253 0.000000
0.000162 0.366253 0.000000
0.000421 0.366253 0.000000
0.000964 0.366253 0.000000
0.002029 0.366253 0.000000
0.004133 0.366253 0.000000
0.008144 0.366253 0.000000
0.015742 0.366253 0.000000
0.030029 0.366253 0.000000
0.056233 0.366253 0.000000
0.106590 0.366253 0.000000
0.195306 0.366253 0.000000
0.366253 0.366253 0.000000
0.674402 0.366253 0.000000
1.218463 0.366253 0.000000
1.000000 0.366253 0.000000
1.000000 0.366253 0.000000
1.000000 0.366253 0.000000
1.000000 0.366253 0.000000
1.000000 0.366253 0.000000
1.000000 0.366253 0.000000
1.000000 0.366253 0.000000
1.000000 0.366253 0.000000
1.000000 0.366253 0.000000
1.000000 0.366253 0.000000
1.000000 0.366253 0.000000
1.000000 0.366253 0.000000
1.000000 0.366253 0.000000
0.000000 0.674402 0.000000
0.000000 0.674402 0.000000
0.000000 0.674402 0.000000
0.000008 0.674402 0.000000
0.000051 0.674402 0.000000
0.000162 0.674402 0.000000
0.000421 0.674402 0.000000
0.000964 0.674402 0.000000
0.002029 0.674402 0.000000
0.004133 0.674402 0.000000
0.008144 0.674402 0.000000
0.015742 0.674402 0.000000
0.030029 0.674402 0.000000
0.056233 0.674402 0.000000
0.106590 0.674402 0.000000
0.195306 0.674402 0.000000
0.366253 0.674402 0.000000
0.674402 0.674402 0.000000
1.218463 0.674402 0.000000
1.000000 0.674402 0.000000
1.000000 0.674402 0.000000
1.000000 0.674402 0.000000
1.000000 0.674402 0.000000
1.000000 0.674402 0.000000
1.000000 0.674402 0.000000
1.000000 0.674402 0.000000
1.000000 0.674402 0.000000
1.000000 0.674402 0.000000
1.000000 0.674402 0.000000
1.000000 0.674402 0.000000
1.000000 0.674402 0.000000
1.000000 0.674402 0.000000
0.000000 1.218463 0.000000
0.000000 1.218463 0.000000
0.000000 1.218463 0.000000
0.000008 1.218463 0.000000
0.000051 1.218463 0.000000
0.000162 1.218463 0.000000
0.000421 1.218463 0.000000
0.000964 1.218463 0.000000
0.002029 1.218463 0.000000
0.004133 1.218463 0.000000
0.008144 1.218463 0.000000
0.015742 1.218463 0.000000
0.030029 1.218463 0.000000
0.056233 1.218463 0.000000
0.106590 1.218463 0.000000
0.195306 1.218463 0.000000
0.366253 1.218463 0.000000
0.674402 1.218463 0.000000
1.218463 1.218463 0.000000
1.000000 1.218463 0.000000
1.000000 1.218463 0.000000
1.000000 1.218463 0.000000
1.000000 1.218463 0.000000
1.000000 1.218463 0.000000
1.000000 1.218463 0.000000
1.000000 1.218463 0.000000
1.000000 1.218463 0.000000
1.000000 1.218463 0.000000
1.000000 1.218463 0.000000
1.000000 1.218463 0.000000
1.000000 1.218463 0.000000
1.000000 1.218463 0.000000
0.000000 1.000000 0.000000
0.000000 1.000000 0.000000
0.000000 1.000000 0.000000
0.000008 1.000000 0.000000
0.000051 1.000000 0.000000
0.000162 1.000000 0.000000
0.000421 1.000000 0.000000
0.000964 1.000000 0.000000
0.002029 1.000000 0.000000
0.004133 1.000000 0.000000
0.008144 1.000000 0.000000
0.015742 1.000000 0.000000
0.030029 1.000000 0.000000
0.056233 1.000000 0.000000
0.106590 1.000000 0.000000
0.195306 1.000000 0.000000
0.366253 1.000000 0.000000
0.674402 1.000000 0.000000
1.218463 1.000000 0.000000
1.000000 1.000000 0.000000
1.000000 1.000000 0.000000
1.000000 1.000000 0.000000
1.000000 1.000000 0.000000
1.000000 1.000000 0.000000
1.000000 1.000000 0.000000
1.000000 1.000000 0.000000
1.000000 1.000000 0.000000
1.000000 1.000000 0.000000
1.000000 1.000000 0.000000
1.000000 1.000000 0.000000
1.000000 1.000000 0.000000
1.000000 1.000000 0.000000
0.000000 1.000000 0.000000
0.000000 1.000000 0.000000
0.000000 1.000000 0.000000
0.000008 1.000000 0.000000
0.000051 1.000000 0.000000
0.000162 1.000000 0.000000
0.000421 1.000000 0.000000
0.000964 1.000000 0.000000
0.002029 1.000000 0.000000
0.004133 1.000000 0.000000
0.008144 1.000000 0.000000
0.015742 1.000000 0.000000
0.030029 1.000000 0.000000
0.056233 1.000000 0.000000
0.106590 1.000000 0.000000
0.195306 1.000000 0.000000
0.366253 1.000000 0.000000
0.674402 1.000000 0.000000
1.218463 1.000000 0.000000
1.000000 1.000000 0.000000
1.000000 1.000000 0.000000
1.000000 1.000000 0.000000
1.000000 1.000000 0.000000
1.000000 1.000000 0.000000
1.000000 1.000000 0.000000
1.000000 1.000000 0.000000
1.000000 1.000000 0.000000
1.000000 1.000000 0.000000
1.000000 1.000000 0.000000
1.000000 1.000000 0.000000
1.000000 1.000000 0.000000
1.000000 1.000000 0.000000
0.000000 1.000000 0.000000
0.000000 1.000000 0.000000
0.000000 1.000000 0.000000
0.000008 1.000000 0.000000
0.000051 1.000000 0.000000
0.000162 1.000000 0.000000
0.000421 1.000000 0.000000
0.000964 1.000000 0.000000
0.002029 1.000000 0.000000
0.004133 1.000000 0.000000
0.008144 1.000000 0.000000
0.015742 1.000000 0.000000
0.030029 1.000000 0.000000
0.056233 1.000000 0.000000
0.106590 1.000000 0.000000
0.195306 1.000000 0.000000
0.366253 1.000000 0.000000
0.674402 1.000000 0.000000
1.218463 1.000000 0.000000
1.000000 1.000000 0.000000
1.000000 1.000000 0.000000
1.000000 1.000000 0.000000
1.000000 1.000000 0.000000
1.000000 1.000000 0.000000
1.000000 1.000000 0.000000
1.000000 1.000000 0.000000
1.000000 1.000000 0.000000
1.000000 1.000000 0.000000
1.000000 1.000000 0.000000
1.000000 1.000000 0.000000
1.000000 1.000000 0.000000
1.000000 1.000000 0.000000
0.000000 1.000000 0.000000
0.000000 1.000000 0.000000
0.000000 1.000000 0.000000
0.000008 1.000000 0.000000
0.000051 1.000000 0.000000
0.000162 1.000000 0.000000
0.000421 1.000000 0.000000
0.000964 1.000000 0.000000
0.002029 1.000000 0.000000
0.004133 1.000000 0.000000
0.008144 1.000000 0.000000
0.015742 1.000000 0.000000
0.030029 1.000000 0.000000
0.056233 1.000000 0.000000
0.106590 1.000000 0.000000
0.195306 1.000000 0.000000
0.366253 1.000000 0.000000
0.674402 1.000000 0.000000
1.218463 1.000000 0.000000
1.000000 1.000000 0.000000
1.000000 1.000000 0.000000
1.000000 1.000000 0.000000
1.000000 1.000000 0.000000
1.000000 1.000000 0.000000
1.000000 1.000000 0.000000
1.000000 1.000000 0.000000
1.000000 1.000000 0.000000
1.000000 1.000000 0.000000
1.000000 1.000000 0.000000
1.000000 1.000000 0.000000
1.000000 1.000000 0.000000
1.000000 1.000000 0.000000
0.000000 1.000000 0.000000
0.000000 1.000000 0.000000
0.000000 1.000000 0.000000
0.000008 1.000000 0.000000
0.000051 1.000000 0.000000
0.000162 1.000000 0.000000
0.000421 1.000000 0.000000
0.000964 1.000000 0.000000
0.002029 1.000000 0.000000
0.004133 1.000000 0.000000
0.008144 1.000000 0.000000
0.015742 1.000000 0.000000
0.030029 1.000000 0.000000
0.056233 1.000000 0.000000
0.106590 1.000000 0.000000
0.195306 1.000000 0.000000
0.366253 1.000000 0.000000
0.674402 1.000000 0.000000
1.218463 1.000000 0.000000
1.000000 1.000000 0.000000
1.000000 1.000000 0.000000
1.000000 1.000000 0.000000
1.000000 1.000000 0.000000
1.000000 1.000000 0.000000
1.000000 1.000000 0.000000
1.000000 1.000000 0.000000
1.000000 1.000000 0.000000
1.000000 1.000000 0.000000
1.000000 1.000000 0.000000
1.000000 1.000000 0.000000
1.000000 1.000000 0.000000
1.000000 1.000000 0.000000
0.000000 1.000000 0.000000
0.000000 1.000000 0.000000
0.000000 1.000000 0.000000
0.000008 1.000000 0.000000
0.000051 1.000000 0.000000
0.000162 1.000000 0.000000
0.000421 1.000000 0.000000
0.000964 1.000000 0.000000
0.002029 1.000000 0.000000
0.004133 1.000000 0.000000
0.008144 1.000000 0.000000
0.015742 1.000000 0.000000
0.030029 1.000000 0.000000
0.056233 1.000000 0.000000
0.106590 1.000000 0.000000
0.195306 1.000000 0.000000
0.366253 1.000000 0.000000
0.674402 1.000000 0.000000
1.218463 1.000000 0.000000
1.000000 1.000000 0.000000
1.000000 1.000000 0.000000
1.000000 1.000000 0.000000
1.000000 1.000000 0.000000
1.000000 1.000000 0.000000
1.000000 1.000000 0.000000
1.000000 1.000000 0.000000
1.000000 1.000000 0.000000
1.000000 1.000000 0.000000
1.000000 1.000000 0.000000
1.000000 1.000000 0.000000
1.000000 1.000000 0.000000
1.000000 1.000000 0.000000
0.000000 1.000000 0.000000
0.000000 1.000000 0.000000
0.000000 1.000000 0.000000
0.000008 1.000000 0.000000
0.000051 1.000000 0.000000
0.000162 1.000000 0.000000
0.000421 1.000000 0.000000
0.000964 1.000000 0.000000
0.002029 1.000000 0.000000
0.004133 1.000000 0.000000
0.008144 1.000000 0.000000
0.015742 1.000000 0.000000
0.030029 1.000000 0.000000
0.056233 1.000000 0.000000
0.106590 1.000000 0.000000
0.195306 1.000000 0.000000
0.366253 1.000000 0.000000
0.674402 1.000000 0.000000
1.218463 1.000000 0.000000
1.000000 1.000000 0.000000
1.000000 1.000000 0.000000
1.000000 1.000000 0.000000
1.000000 1.000000 0.000000
1.000000 1.000000 0.000000
1.000000 1.000000 0.000000
1.000000 1.000000 0.000000
1.000000 1.000000 0.000000
1.000000 1.000000 0.000000
1.000000 1.000000 0.000000
1.000000 1.000000 0.000000
1.000000 1.000000 0.000000
1.000000 1.000000 0.000000
0.000000 1.000000 0.000000
0.000000 1.000000 0.000000
0.000000 1.000000 0.000000
0.000008 1.000000 0.000000
0.000051 1.000000 0.000000
0.000162 1.000000 0.000000
0.000421 1.000000 0.000000
0.000964 1.000000 0.000000
0.002029 1.000000 0.000000
0.004133 1.000000 0.000000
0.008144 1.000000 0.000000
0.015742 1.000000 0.000000
0.030029 1.000000 0.000000
0.056233 1.000000 0.000000
0.106590 1.000000 0.000000
0.195306 1.000000 0.000000
0.366253 1.000000 0.000000
0.674402 1.000000 0.000000
1.218463 1.000000 0.000000
1.000000 1.000000 0.000000
1.000000 1.000000 0.000000
1.000000 1.000000 0.000000
1.000000 1.000000 0.000000
1.000000 1.000000 0.000000
1.000000 1.000000 0.000000
1.000000 1.000000 0.000000
1.000000 1.000000 0.000000
1.000000 1.000000 0.000000
1.000000 1.000000 0.000000
1.000000 1.000000 0.000000
1.000000 1.000000 0.000000
1.000000 1.000000 0.000000
0.000000 1.000000 0.000000
0.000000 1.000000 0.000000
0.000000 1.000000 0.000000
0.000008 1.000000 0.000000
0.000051 1.000000 0.000000
0.000162 1.000000 0.000000
0.000421 1.000000 0.000000
0.000964 1.000000 0.000000
0.002029 1.000000 0.000000
0.004133 1.000000 0.000000
0.008144 1.000000 0.000000
0.015742 1.000000 0.000000
0.030029 1.000000 0.000000
0.056233 1.000000 0.000000
0.106590 1.000000 0.000000
0.195306 1.000000 0.000000
0.366253 1.000000 0.000000
0.674402 1.000000 0.000000
1.218463 1.000000 0.000000
1.000000 1.000000 0.000000
1.000000 1.000000 0.000000
