unity/render_random/Assets/square_root_max1.cube
TITLE "cube/square_root_max1.cube"
LUT_3D_SIZE 8
DOMAIN_MIN 0.000000 0.000000 0.000000
DOMAIN_MAX 0.903226 0.903226 0.903226
0.000000 0.000000 0.000000
0.084621 0.000000 0.000000
0.212236 0.000000 0.000000
0.416279 0.000000 0.000000
0.777938 0.000000 0.000000
1.000000 0.000000 0.000000
1.000000 0.000000 0.000000
1.000000 0.000000 0.000000
0.000000 0.084621 0.000000
0.084621 0.084621 0.000000
0.212236 0.084621 0.000000
0.416279 0.084621 0.000000
0.777938 0.084621 0.000000
1.000000 0.084621 0.000000
1.000000 0.084621 0.000000
1.000000 0.084621 0.000000
0.000000 0.212236 0.000000
0.084621 0.212236 0.000000
0.212236 0.212236 0.000000
0.416279 0.212236 0.000000
0.777938 0.212236 0.000000
1.000000 0.212236 0.000000
1.000000 0.212236 0.000000
1.000000 0.212236 0.000000
0.000000 0.416279 0.000000
0.084621 0.416279 0.000000
0.212236 0.416279 0.000000
0.416279 0.416279 0.000000
0.777938 0.416279 0.000000
1.000000 0.416279 0.000000
1.000000 0.416279 0.000000
1.000000 0.416279 0.000000
0.000000 0.777938 0.000000
0.084621 0.777938 0.000000
0.212236 0.777938 0.000000
0.416279 0.777938 0.000000
0.777938 0.777938 0.000000
1.000000 0.777938 0.000000
1.000000 0.777938 0.000000
1.000000 0.777938 0.000000
0.000000 1.000000 0.000000
0.084621 1.000000 0.000000
0.212236 1.000000 0.000000
0.416279 1.000000 0.000000
0.777938 1.000000 0.000000
1.000000 1.000000 0.000000
1.000000 1.000000 0.000000
1.000000 1.000000 0.000000
0.000000 1.000000 0.000000
0.084621 1.000000 0.000000
0.212236 1.000000 0.000000
0.416279 1.000000 0.000000
0.777938 1.000000 0.000000
1.000000 1.000000 0.000000
1.000000 1.000000 0.000000
1.000000 1.000000 0.000000
0.000000 1.000000 0.000000
0.084621 1.000000 0.000000
0.212236 1.000000 0.000000
0.416279 1.000000 0.000000
0.777938 1.000000 0.000000
1.000000 1.000000 0.000000
1.000000 1.000000 0.000000
1.000000 1.000000 0.000000
0.000000 0.000000 0.084621
0.084621 0.000000 0.084621
0.212236 0.000000 0.084621
0.416279 0.000000 0.084621
0.777938 0.000000 0.084621
1.000000 0.000000 0.084621
1.000000 0.000000 0.084621
1.000000 0.000000 0.084621
0.000000 0.084621 0.084621
0.084621 0.084621 0.084621
0.212236 0.084621 0.084621
0.416279 0.084621 0.084621
0.777938 0.084621 0.084621
1.000000 0.084621 0.084621
1.000000 0.084621 0.084621
1.000000 0.084621 0.084621
0.000000 0.212236 0.084621
0.084621 0.212236 0.084621
0.212236 0.212236 0.084621
0.416279 0.212236 0.084621
0.777938 0.212236 0.084621
1.000000 0.212236 0.084621
1.000000 0.212236 0.084621
1.000000 0.212236 0.084621
0.000000 0.416279 0.084621
0.084621 0.416279 0.084621
0.212236 0.416279 0.084621
0.416279 0.416279 0.084621
0.777938 0.416279 0.084621
1.000000 0.416279 0.084621
1.000000 0.416279 0.084621
1.000000 0.416279 0.084621
0.000000 0.777938 0.084621
0.084621 0.777938 0.084621
0.212236 0.777938 0.084621
0.416279 0.777938 0.084621
0.777938 0.777938 0.084621
1.000000 0.777938 0.084621
1.000000 0.777938 0.084621
1.000000 0.777938 0.084621
0.000000 1.000000 0.084621
0.084621 1.000000 0.084621
0.212236 1.000000 0.084621
0.416279 1.000000 0.084621
0.777938 1.000000 0.084621
1.000000 1.000000 0.084621
1.000000 1.000000 0.084621
1.000000 1.000000 0.084621
0.000000 1.000000 0.084621
0.084621 1.000000 0.084621
0.212236 1.000000 0.084621
0.416279 1.000000 0.084621
0.777938 1.000000 0.084621
1.000000 1.000000 0.084621
1.000000 1.000000 0.084621
1.000000 1.000000 0.084621
0.000000 1.000000 0.084621
0.084621 1.000000 0.084621
0.212236 1.000000 0.084621
0.416279 1.000000 0.084621
0.777938 1.000000 0.084621
1.000000 1.000000 0.084621
1.000000 1.000000 0.084621
1.000000 1.000000 0.084621
0.000000 0.000000 0.212236
0.084621 0.000000 0.212236
0.212236 0.000000 0.212236
0.416279 0.000000 0.212236
0.777938 0.000000 0.212236
1.000000 0.000000 0.212236
1.000000 0.000000 0.212236
1.000000 0.000000 0.212236
0.000000 0.084621 0.212236
0.084621 0.084621 0.212236
0.212236 0.084621 0.212236
0.416279 0.084621 0.212236
0.777938 0.084621 0.212236
1.000000 0.084621 0.212236
1.000000 0.084621 0.212236
1.000000 0.084621 0.212236
0.000000 0.212236 0.212236
0.084621 0.212236 0.212236
0.212236 0.212236 0.212236
0.416279 0.212236 0.212236
0.777938 0.212236 0.212236
1.000000 0.212236 0.212236
1.000000 0.212236 0.212236
1.000000 0.212236 0.212236
0.000000 0.416279 0.212236
0.084621 0.416279 0.212236
0.212236 0.416279 0.212236
0.416279 0.416279 0.212236
0.777938 0.416279 0.212236
1.000000 0.416279 0.212236
1.000000 0.416279 0.212236
1.000000 0.416279 0.212236
0.000000 0.777938 0.212236
0.084621 0.777938 0.212236
0.212236 0.777938 0.212236
0.416279 0.777938 0.212236
0.777938 0.777938 0.212236
1.000000 0.777938 0.212236
1.000000 0.777938 0.212236
1.000000 0.777938 0.212236
0.000000 1.000000 0.212236
0.084621 1.000000 0.212236
0.212236 1.000000 0.212236
0.416279 1.000000 0.212236
0.777938 1.000000 0.212236
1.000000 1.000000 0.212236
1.000000 1.000000 0.212236
1.000000 1.000000 0.212236
0.000000 1.000000 0.212236
0.084621 1.000000 0.212236
0.212236 1.000000 0.212236
0.416279 1.000000 0.212236
0.777938 1.000000 0.212236
1.000000 1.000000 0.212236
1.000000 1.000000 0.212236
1.000000 1.000000 0.212236
0.000000 1.000000 0.212236
0.084621 1.000000 0.212236
0.212236 1.000000 0.212236
0.416279 1.000000 0.212236
0.777938 1.000000 0.212236
1.000000 1.000000 0.212236
1.000000 1.000000 0.212236
1.000000 1.000000 0.212236
0.000000 0.000000 0.416279
0.084621 0.000000 0.416279
0.212236 0.000000 0.416279
0.416279 0.000000 0.416279
0.777938 0.000000 0.416279
1.000000 0.000000 0.416279
1.000000 0.000000 0.416279
1.000000 0.000000 0.416279
0.000000 0.084621 0.416279
0.084621 0.084621 0.416279
0.212236 0.084621 0.416279
0.416279 0.084621 0.416279
0.777938 0.084621 0.416279
1.000000 0.084621 0.416279
1.000000 0.084621 0.416279
1.000000 0.084621 0.416279
0.000000 0.212236 0.416279
0.084621 0.212236 0.416279
0.212236 0.212236 0.416279
0.416279 0.212236 0.416279
0.777938 0.212236 0.416279
1.000000 0.212236 0.416279
1.000000 0.212236 0.416279
1.000000 0.212236 0.416279
0.000000 0.416279 0.416279
0.084621 0.416279 0.416279
0.212236 0.416279 0.416279
0.416279 0.416279 0.416279
0.777938 0.416279 0.416279
1.000000 0.416279 0.416279
1.000000 0.416279 0.416279
1.000000 0.416279 0.416279
0.000000 0.777938 0.416279
0.084621 0.777938 0.416279
0.212236 0.777938 0.416279
0.416279 0.777938 0.416279
0.777938 0.777938 0.416279
1.000000 0.777938 0.416279
1.000000 0.777938 0.416279
1.000000 0.777938 0.416279
0.000000 1.000000 0.416279
0.084621 1.000000 0.416279
0.212236 1.000000 0.416279
0.416279 1.000000 0.416279
0.777938 1.000000 0.416279
1.000000 1.000000 0.416279
1.000000 1.000000 0.416279
1.000000 1.000000 0.416279
0.000000 1.000000 0.416279
0.084621 1.000000 0.416279
0.212236 1.000000 0.416279
0.416279 1.000000 0.416279
0.777938 1.000000 0.416279
1.000000 1.000000 0.416279
1.000000 1.000000 0.416279
1.000000 1.000000 0.416279
0.000000 1.000000 0.416279
0.084621 1.000000 0.416279
0.212236 1.000000 0.416279
0.416279 1.000000 0.416279
0.777938 1.000000 0.416279
1.000000 1.000000 0.416279
1.000000 1.000000 0.416279
1.000000 1.000000 0.416279
0.000000 0.000000 0.777938
0.084621 0.000000 0.777938
0.212236 0.000000 0.777938
0.416279 0.000000 0.777938
0.777938 0.000000 0.777938
1.000000 0.000000 0.777938
1.000000 0.000000 0.777938
1.000000 0.000000 0.777938
0.000000 0.084621 0.777938
0.084621 0.084621 0.777938
0.212236 0.084621 0.777938
0.416279 0.084621 0.777938
0.777938 0.084621 0.777938
1.000000 0.084621 0.777938
1.000000 0.084621 0.777938
1.000000 0.084621 0.777938
0.000000 0.212236 0.777938
0.084621 0.212236 0.777938
0.212236 0.212236 0.777938
0.416279 0.212236 0.777938
0.777938 0.212236 0.777938
1.000000 0.212236 0.777938
1.000000 0.212236 0.777938
1.000000 0.212236 0.777938
0.000000 0.416279 0.777938
0.084621 0.416279 0.777938
0.212236 0.416279 0.777938
0.416279 0.416279 0.777938
0.777938 0.416279 0.777938
1.000000 0.416279 0.777938
1.000000 0.416279 0.777938
1.000000 0.416279 0.777938
0.000000 0.777938 0.777938
0.084621 0.777938 0.777938
0.212236 0.777938 0.777938
0.416279 0.777938 0.777938
0.777938 0.777938 0.777938
1.000000 0.777938 0.777938
1.000000 0.777938 0.777938
1.000000 0.777938 0.777938
0.000000 1.000000 0.777938
0.084621 1.000000 0.777938
0.212236 1.000000 0.777938
0.416279 1.000000 0.777938
0.777938 1.000000 0.777938
1.000000 1.000000 0.777938
1.000000 1.000000 0.777938
1.000000 1.000000 0.777938
0.000000 1.000000 0.777938
0.084621 1.000000 0.777938
0.212236 1.000000 0.777938
0.416279 1.000000 0.777938
0.777938 1.000000 0.777938
1.000000 1.000000 0.777938
1.000000 1.000000 0.777938
1.000000 1.000000 0.777938
0.000000 1.000000 0.777938
0.084621 1.000000 0.777938
0.212236 1.000000 0.777938
0.416279 1.000000 0.777938
0.777938 1.000000 0.777938
1.000000 1.000000 0.777938
1.000000 1.000000 0.777938
1.000000 1.000000 0.777938
0.000000 0.000000 1.000000
0.084621 0.000000 1.000000
0.212236 0.000000 1.000000
0.416279 0.000000 1.000000
0.777938 0.000000 1.000000
1.000000 0.000000 1.000000
1.000000 0.000000 1.000000
1.000000 0.000000 1.000000
0.000000 0.084621 1.000000
0.084621 0.084621 1.000000
0.212236 0.084621 1.000000
0.416279 0.084621 1.000000
0.777938 0.084621 1.000000
1.000000 0.084621 1.000000
1.000000 0.084621 1.000000
1.000000 0.084621 1.000000
0.000000 0.212236 1.000000
0.084621 0.212236 1.000000
0.212236 0.212236 1.000000
0.416279 0.212236 1.000000
0.777938 0.212236 1.000000
1.000000 0.212236 1.000000
1.000000 0.212236 1.000000
1.000000 0.212236 1.000000
0.000000 0.416279 1.000000
0.084621 0.416279 1.000000
0.212236 0.416279 1.000000
0.416279 0.416279 1.000000
0.777938 0.416279 1.000000
1.000000 0.416279 1.000000
1.000000 0.416279 1.000000
1.000000 0.416279 1.000000
0.000000 0.777938 1.000000
0.084621 0.777938 1.000000
0.212236 0.777938 1.000000
0.416279 0.777938 1.000000
0.777938 0.777938 1.000000
1.000000 0.777938 1.000000
1.000000 0.777938 1.000000
1.000000 0.777938 1.000000
0.000000 1.000000 1.000000
0.084621 1.000000 1.000000
0.212236 1.000000 1.000000
0.416279 1.000000 1.000000
0.777938 1.000000 1.000000
1.000000 1.000000 1.000000
1.000000 1.000000 1.000000
1.000000 1.000000 1.000000
0.000000 1.000000 1.000000
0.084621 1.000000 1.000000
0.212236 1.000000 1.000000
0.416279 1.000000 1.000000
0.777938 1.000000 1.000000
1.000000 1.000000 1.000000
1.000000 1.000000 1.000000
1.000000 1.000000 1.000000
0.000000 1.000000 1.000000
0.084621 1.000000 1.000000
0.212236 1.000000 1.000000
0.416279 1.000000 1.000000
0.777938 1.000000 1.000000
1.000000 1.000000 1.000000
1.000000 1.000000 1.000000
1.000000 1.000000 1.000000
0.000000 0.000000 1.000000
0.084621 0.000000 1.000000
0.212236 0.000000 1.000000
0.416279 0.000000 1.000000
0.777938 0.000000 1.000000
1.000000 0.000000 1.000000
1.000000 0.000000 1.000000
1.000000 0.000000 1.000000
0.000000 0.084621 1.000000
0.084621 0.084621 1.000000
0.212236 0.084621 1.000000
0.416279 0.084621 1.000000
0.777938 0.084621 1.000000
1.000000 0.084621 1.000000
1.000000 0.084621 1.000000
1.000000 0.084621 1.000000
0.000000 0.212236 1.000000
0.084621 0.212236 1.000000
0.212236 0.212236 1.000000
0.416279 0.212236 1.000000
0.777938 0.212236 1.000000
1.000000 0.212236 1.000000
1.000000 0.212236 1.000000
1.000000 0.212236 1.000000
0.000000 0.416279 1.000000
0.084621 0.416279 1.000000
0.212236 0.416279 1.000000
0.416279 0.416279 1.000000
0.777938 0.416279 1.000000
1.000000 0.416279 1.000000
1.000000 0.416279 1.000000
1.000000 0.416279 1.000000
0.000000 0.777938 1.000000
0.084621 0.777938 1.000000
0.212236 0.777938 1.000000
0.416279 0.777938 1.000000
0.777938 0.777938 1.000000
1.000000 0.777938 1.000000
1.000000 0.777938 1.000000
1.000000 0.777938 1.000000
0.000000 1.000000 1.000000
0.084621 1.000000 1.000000
0.212236 1.000000 1.000000
0.416279 1.000000 1.000000
0.777938 1.000000 1.000000
1.000000 1.000000 1.000000
1.000000 1.000000 1.000000
1.000000 1.000000 1.000000
0.000000 1.000000 1.000000
0.084621 1.000000 1.000000
0.212236 1.000000 1.000000
0.416279 1.000000 1.000000
0.777938 1.000000 1.000000
1.000000 1.000000 1.000000
1.000000 1.000000 1.000000
1.000000 1.000000 1.000000
0.000000 1.000000 1.000000
0.084621 1.000000 1.000000
0.212236 1.000000 1.000000
0.416279 1.000000 1.000000
0.777938 1.000000 1.000000
1.000000 1.000000 1.000000
1.000000 1.000000 1.000000
1.000000 1.000000 1.000000
0.000000 0.000000 1.000000
0.084621 0.000000 1.000000
0.212236 0.000000 1.000000
0.416279 0.000000 1.000000
0.777938 0.000000 1.000000
1.000000 0.000000 1.000000
1.000000 0.000000 1.000000
1.000000 0.000000 1.000000
0.000000 0.084621 1.000000
0.084621 0.084621 1.000000
0.212236 0.084621 1.000000
0.416279 0.084621 1.000000
0.777938 0.084621 1.000000
1.000000 0.084621 1.000000
1.000000 0.084621 1.000000
1.000000 0.084621 1.000000
0.000000 0.212236 1.000000
0.084621 0.212236 1.000000
0.212236 0.212236 1.000000
0.416279 0.212236 1.000000
0.777938 0.212236 1.000000
1.000000 0.212236 1.000000
1.000000 0.212236 1.000000
1.000000 0.212236 1.000000
0.000000 0.416279 1.000000
0.084621 0.416279 1.000000
0.212236 0.416279 1.000000
0.416279 0.416279 1.000000
0.777938 0.416279 1.000000
1.000000 0.416279 1.000000
1.000000 0.416279 1.000000
1.000000 0.416279 1.000000
0.000000 0.777938 1.000000
0.084621 0.777938 1.000000
0.212236 0.777938 1.000000
0.416279 0.777938 1.000000
0.777938 0.777938 1.000000
1.000000 0.777938 1.000000
1.000000 0.777938 1.000000
1.000000 0.777938 1.000000
0.000000 1.000000 1.000000
0.084621 1.000000 1.000000
0.212236 1.000000 1.000000
0.416279 1.000000 1.000000
0.777938 1.000000 1.000000
1.000000 1.000000 1.000000
1.000000 1.000000 1.000000
1.000000 1.000000 1.000000
0.000000 1.000000 1.000000
0.084621 1.000000 1.000000
0.212236 1.000000 1.000000
0.416279 1.000000 1.000000
0.777938 1.000000 1.000000
1.000000 1.000000 1.000000
1.000000 1.000000 1.000000
1.000000 1.000000 1.000000
0.000000 1.000000 1.000000
0.084621 1.000000 1.000000
0.212236 1.000000 1.000000
0.416279 1.000000 1.000000
0.777938 1.000000 1.000000
1.000000 1.000000 1.000000
1.000000 1.000000 1.000000
1.000000 1.000000 1.000000
