unity/render_random/Assets/square_root_max1.cube
TITLE "cube/square_root_max1.cube"
LUT_3D_SIZE 32
DOMAIN_MIN 0.0 0.0 0.0
DOMAIN_MAX 1.0 1.0 1.0
0.000000 0.000000 0.000000
0.000032 0.000000 0.000000
0.000100 0.000000 0.000000
0.053896 0.000000 0.000000
0.084621 0.000000 0.000000
0.112837 0.000000 0.000000
0.143262 0.000000 0.000000
0.176225 0.000000 0.000000
0.212236 0.000000 0.000000
0.253550 0.000000 0.000000
0.300409 0.000000 0.000000
0.354212 0.000000 0.000000
0.416279 0.000000 0.000000
0.486965 0.000000 0.000000
0.571386 0.000000 0.000000
0.664781 0.000000 0.000000
0.777938 0.000000 0.000000
0.906212 0.000000 0.000000
1.050638 0.000000 0.000000
1.000000 0.000000 0.000000
1.000000 0.000000 0.000000
1.000000 0.000000 0.000000
1.000000 0.000000 0.000000
1.000000 0.000000 0.000000
1.000000 0.000000 0.000000
1.000000 0.000000 0.000000
1.000000 0.000000 0.000000
1.000000 0.000000 0.000000
1.000000 0.000000 0.000000
1.000000 0.000000 0.000000
1.000000 0.000000 0.000000
1.000000 0.000000 0.000000
0.000000 0.000032 0.000000
0.000032 0.000032 0.000000
0.000100 0.000032 0.000000
0.053896 0.000032 0.000000
0.084621 0.000032 0.000000
0.112837 0.000032 0.000000
0.143262 0.000032 0.000000
0.176225 0.000032 0.000000
0.212236 0.000032 0.000000
0.253550 0.000032 0.000000
0.300409 0.000032 0.000000
0.354212 0.000032 0.000000
0.416279 0.000032 0.000000
0.486965 0.000032 0.000000
0.571386 0.000032 0.000000
0.664781 0.000032 0.000000
0.777938 0.000032 0.000000
0.906212 0.000032 0.000000
1.050638 0.000032 0.000000
1.000000 0.000032 0.000000
1.000000 0.000032 0.000000
1.000000 0.000032 0.000000
1.000000 0.000032 0.000000
1.000000 0.000032 0.000000
1.000000 0.000032 0.000000
1.000000 0.000032 0.000000
1.000000 0.000032 0.000000
1.000000 0.000032 0.000000
1.000000 0.000032 0.000000
1.000000 0.000032 0.000000
1.000000 0.000032 0.000000
1.000000 0.000032 0.000000
0.000000 0.000100 0.000000
0.000032 0.000100 0.000000
0.000100 0.000100 0.000000
0.053896 0.000100 0.000000
0.084621 0.000100 0.000000
0.112837 0.000100 0.000000
0.143262 0.000100 0.000000
0.176225 0.000100 0.000000
0.212236 0.000100 0.000000
0.253550 0.000100 0.000000
0.300409 0.000100 0.000000
0.354212 0.000100 0.000000
0.416279 0.000100 0.000000
0.486965 0.000100 0.000000
0.571386 0.000100 0.000000
0.664781 0.000100 0.000000
0.777938 0.000100 0.000000
0.906212 0.000100 0.000000
1.050638 0.000100 0.000000
1.000000 0.000100 0.000000
1.000000 0.000100 0.000000
1.000000 0.000100 0.000000
1.000000 0.000100 0.000000
1.000000 0.000100 0.000000
1.000000 0.000100 0.000000
1.000000 0.000100 0.000000
1.000000 0.000100 0.000000
1.000000 0.000100 0.000000
1.000000 0.000100 0.000000
1.000000 0.000100 0.000000
1.000000 0.000100 0.000000
1.000000 0.000100 0.000000
0.000000 0.053896 0.000000
0.000032 0.053896 0.000000
0.000100 0.053896 0.000000
0.053896 0.053896 0.000000
0.084621 0.053896 0.000000
0.112837 0.053896 0.000000
0.143262 0.053896 0.000000
0.176225 0.053896 0.000000
0.212236 0.053896 0.000000
0.253550 0.053896 0.000000
0.300409 0.053896 0.000000
0.354212 0.053896 0.000000
0.416279 0.053896 0.000000
0.486965 0.053896 0.000000
0.571386 0.053896 0.000000
0.664781 0.053896 0.000000
0.777938 0.053896 0.000000
0.906212 0.053896 0.000000
1.050638 0.053896 0.000000
1.000000 0.053896 0.000000
1.000000 0.053896 0.000000
1.000000 0.053896 0.000000
1.000000 0.053896 0.000000
1.000000 0.053896 0.000000
1.000000 0.053896 0.000000
1.000000 0.053896 0.000000
1.000000 0.053896 0.000000
1.000000 0.053896 0.000000
1.000000 0.053896 0.000000
1.000000 0.053896 0.000000
1.000000 0.053896 0.000000
1.000000 0.053896 0.000000
0.000000 0.084621 0.000000
0.000032 0.084621 0.000000
0.000100 0.084621 0.000000
0.053896 0.084621 0.000000
0.084621 0.084621 0.000000
0.112837 0.084621 0.000000
0.143262 0.084621 0.000000
0.176225 0.084621 0.000000
0.212236 0.084621 0.000000
0.253550 0.084621 0.000000
0.300409 0.084621 0.000000
0.354212 0.084621 0.000000
0.416279 0.084621 0.000000
0.486965 0.084621 0.000000
0.571386 0.084621 0.000000
0.664781 0.084621 0.000000
0.777938 0.084621 0.000000
0.906212 0.084621 0.000000
1.050638 0.084621 0.000000
1.000000 0.084621 0.000000
1.000000 0.084621 0.000000
1.000000 0.084621 0.000000
1.000000 0.084621 0.000000
1.000000 0.084621 0.000000
1.000000 0.084621 0.000000
1.000000 0.084621 0.000000
1.000000 0.084621 0.000000
1.000000 0.084621 0.000000
1.000000 0.084621 0.000000
1.000000 0.084621 0.000000
1.000000 0.084621 0.000000
1.000000 0.084621 0.000000
0.000000 0.112837 0.000000
0.000032 0.112837 0.000000
0.000100 0.112837 0.000000
0.053896 0.112837 0.000000
0.084621 0.112837 0.000000
0.112837 0.112837 0.000000
0.143262 0.112837 0.000000
0.176225 0.112837 0.000000
0.212236 0.112837 0.000000
0.253550 0.112837 0.000000
0.300409 0.112837 0.000000
0.354212 0.112837 0.000000
0.416279 0.112837 0.000000
0.486965 0.112837 0.000000
0.571386 0.112837 0.000000
0.664781 0.112837 0.000000
0.777938 0.112837 0.000000
0.906212 0.112837 0.000000
1.050638 0.112837 0.000000
1.000000 0.112837 0.000000
1.000000 0.112837 0.000000
1.000000 0.112837 0.000000
1.000000 0.112837 0.000000
1.000000 0.112837 0.000000
1.000000 0.112837 0.000000
1.000000 0.112837 0.000000
1.000000 0.112837 0.000000
1.000000 0.112837 0.000000
1.000000 0.112837 0.000000
1.000000 0.112837 0.000000
1.000000 0.112837 0.000000
1.000000 0.112837 0.000000
0.000000 0.143262 0.000000
0.000032 0.143262 0.000000
0.000100 0.143262 0.000000
0.053896 0.143262 0.000000
0.084621 0.143262 0.000000
0.112837 0.143262 0.000000
0.143262 0.143262 0.000000
0.176225 0.143262 0.000000
0.212236 0.143262 0.000000
0.253550 0.143262 0.000000
0.300409 0.143262 0.000000
0.354212 0.143262 0.000000
0.416279 0.143262 0.000000
0.486965 0.143262 0.000000
0.571386 0.143262 0.000000
0.664781 0.143262 0.000000
0.777938 0.143262 0.000000
0.906212 0.143262 0.000000
1.050638 0.143262 0.000000
1.000000 0.143262 0.000000
1.000000 0.143262 0.000000
1.000000 0.143262 0.000000
1.000000 0.143262 0.000000
1.000000 0.143262 0.000000
1.000000 0.143262 0.000000
1.000000 0.143262 0.000000
1.000000 0.143262 0.000000
1.000000 0.143262 0.000000
1.000000 0.143262 0.000000
1.000000 0.143262 0.000000
1.000000 0.143262 0.000000
1.000000 0.143262 0.000000
0.000000 0.176225 0.000000
0.000032 0.176225 0.000000
0.000100 0.176225 0.000000
0.053896 0.176225 0.000000
0.084621 0.176225 0.000000
0.112837 0.176225 0.000000
0.143262 0.176225 0.000000
0.176225 0.176225 0.000000
0.212236 0.176225 0.000000
0.253550 0.176225 0.000000
0.300409 0.176225 0.000000
0.354212 0.176225 0.000000
0.416279 0.176225 0.000000
0.486965 0.176225 0.000000
0.571386 0.176225 0.000000
0.664781 0.176225 0.000000
0.777938 0.176225 0.000000
0.906212 0.176225 0.000000
1.050638 0.176225 0.000000
1.000000 0.176225 0.000000
1.000000 0.176225 0.000000
1.000000 0.176225 0.000000
1.000000 0.176225 0.000000
1.000000 0.176225 0.000000
1.000000 0.176225 0.000000
1.000000 0.176225 0.000000
1.000000 0.176225 0.000000
1.000000 0.176225 0.000000
1.000000 0.176225 0.000000
1.000000 0.176225 0.000000
1.000000 0.176225 0.000000
1.000000 0.176225 0.000000
0.000000 0.212236 0.000000
0.000032 0.212236 0.000000
0.000100 0.212236 0.000000
0.053896 0.212236 0.000000
0.084621 0.212236 0.000000
0.112837 0.212236 0.000000
0.143262 0.212236 0.000000
0.176225 0.212236 0.000000
0.212236 0.212236 0.000000
0.253550 0.212236 0.000000
0.300409 0.212236 0.000000
0.354212 0.212236 0.000000
0.416279 0.212236 0.000000
0.486965 0.212236 0.000000
0.571386 0.212236 0.000000
0.664781 0.212236 0.000000
0.777938 0.212236 0.000000
0.906212 0.212236 0.000000
1.050638 0.212236 0.000000
1.000000 0.212236 0.000000
1.000000 0.212236 0.000000
1.000000 0.212236 0.000000
1.000000 0.212236 0.000000
1.000000 0.212236 0.000000
1.000000 0.212236 0.000000
1.000000 0.212236 0.000000
1.000000 0.212236 0.000000
1.000000 0.212236 0.000000
1.000000 0.212236 0.000000
1.000000 0.212236 0.000000
1.000000 0.212236 0.000000
1.000000 0.212236 0.000000
0.000000 0.253550 0.000000
0.000032 0.253550 0.000000
0.000100 0.253550 0.000000
0.053896 0.253550 0.000000
0.084621 0.253550 0.000000
0.112837 0.253550 0.000000
0.143262 0.253550 0.000000
0.176225 0.253550 0.000000
0.212236 0.253550 0.000000
0.253550 0.253550 0.000000
0.300409 0.253550 0.000000
0.354212 0.253550 0.000000
0.416279 0.253550 0.000000
0.486965 0.253550 0.000000
0.571386 0.253550 0.000000
0.664781 0.253550 0.000000
0.777938 0.253550 0.000000
0.906212 0.253550 0.000000
1.050638 0.253550 0.000000
1.000000 0.253550 0.000000
1.000000 0.253550 0.000000
1.000000 0.253550 0.000000
1.000000 0.253550 0.000000
1.000000 0.253550 0.000000
1.000000 0.253550 0.000000
1.000000 0.253550 0.000000
1.000000 0.253550 0.000000
1.000000 0.253550 0.000000
1.000000 0.253550 0.000000
1.000000 0.253550 0.000000
1.000000 0.253550 0.000000
1.000000 0.253550 0.000000
0.000000 0.300409 0.000000
0.000032 0.300409 0.000000
0.000100 0.300409 0.000000
0.053896 0.300409 0.000000
0.084621 0.300409 0.000000
0.112837 0.300409 0.000000
0.143262 0.300409 0.000000
0.176225 0.300409 0.000000
0.212236 0.300409 0.000000
0.253550 0.300409 0.000000
0.300409 0.300409 0.000000
0.354212 0.300409 0.000000
0.416279 0.300409 0.000000
0.486965 0.300409 0.000000
0.571386 0.300409 0.000000
0.664781 0.300409 0.000000
0.777938 0.300409 0.000000
0.906212 0.300409 0.000000
1.050638 0.300409 0.000000
1.000000 0.300409 0.000000
1.000000 0.300409 0.000000
1.000000 0.300409 0.000000
1.000000 0.300409 0.000000
1.000000 0.300409 0.000000
1.000000 0.300409 0.000000
1.000000 0.300409 0.000000
1.000000 0.300409 0.000000
1.000000 0.300409 0.000000
1.000000 0.300409 0.000000
1.000000 0.300409 0.000000
1.000000 0.300409 0.000000
1.000000 0.300409 0.000000
0.000000 0.354212 0.000000
0.000032 0.354212 0.000000
0.000100 0.354212 0.000000
0.053896 0.354212 0.000000
0.084621 0.354212 0.000000
0.112837 0.354212 0.000000
0.143262 0.354212 0.000000
0.176225 0.354212 0.000000
0.212236 0.354212 0.000000
0.253550 0.354212 0.000000
0.300409 0.354212 0.000000
0.354212 0.354212 0.000000
0.416279 0.354212 0.000000
0.486965 0.354212 0.000000
0.571386 0.354212 0.000000
0.664781 0.354212 0.000000
0.777938 0.354212 0.000000
0.906212 0.354212 0.000000
1.050638 0.354212 0.000000
1.000000 0.354212 0.000000
1.000000 0.354212 0.000000
1.000000 0.354212 0.000000
1.000000 0.354212 0.000000
1.000000 0.354212 0.000000
1.000000 0.354212 0.000000
1.000000 0.354212 0.000000
1.000000 0.354212 0.000000
1.000000 0.354212 0.000000
1.000000 0.354212 0.000000
1.000000 0.354212 0.000000
1.000000 0.354212 0.000000
1.000000 0.354212 0.000000
0.000000 0.416279 0.000000
0.000032 0.416279 0.000000
0.000100 0.416279 0.000000
0.053896 0.416279 0.000000
0.084621 0.416279 0.000000
0.112837 0.416279 0.000000
0.143262 0.416279 0.000000
0.176225 0.416279 0.000000
0.212236 0.416279 0.000000
0.253550 0.416279 0.000000
0.300409 0.416279 0.000000
0.354212 0.416279 0.000000
0.416279 0.416279 0.000000
0.486965 0.416279 0.000000
0.571386 0.416279 0.000000
0.664781 0.416279 0.000000
0.777938 0.416279 0.000000
0.906212 0.416279 0.000000
1.050638 0.416279 0.000000
1.000000 0.416279 0.000000
1.000000 0.416279 0.000000
1.000000 0.416279 0.000000
1.000000 0.416279 0.000000
1.000000 0.416279 0.000000
1.000000 0.416279 0.000000
1.000000 0.416279 0.000000
1.000000 0.416279 0.000000
1.000000 0.416279 0.000000
1.000000 0.416279 0.000000
1.000000 0.416279 0.000000
1.000000 0.416279 0.000000
1.000000 0.416279 0.000000
0.000000 0.486965 0.000000
0.000032 0.486965 0.000000
0.000100 0.486965 0.000000
0.053896 0.486965 0.000000
0.084621 0.486965 0.000000
0.112837 0.486965 0.000000
0.143262 0.486965 0.000000
0.176225 0.486965 0.000000
0.212236 0.486965 0.000000
0.253550 0.486965 0.000000
0.300409 0.486965 0.000000
0.354212 0.486965 0.000000
0.416279 0.486965 0.000000
0.486965 0.486965 0.000000
0.571386 0.486965 0.000000
0.664781 0.486965 0.000000
0.777938 0.486965 0.000000
0.906212 0.486965 0.000000
1.050638 0.486965 0.000000
1.000000 0.486965 0.000000
1.000000 0.486965 0.000000
1.000000 0.486965 0.000000
1.000000 0.486965 0.000000
1.000000 0.486965 0.000000
1.000000 0.486965 0.000000
1.000000 0.486965 0.000000
1.000000 0.486965 0.000000
1.000000 0.486965 0.000000
1.000000 0.486965 0.000000
1.000000 0.486965 0.000000
1.000000 0.486965 0.000000
1.000000 0.486965 0.000000
0.000000 0.571386 0.000000
0.000032 0.571386 0.000000
0.000100 0.571386 0.000000
0.053896 0.571386 0.000000
0.084621 0.571386 0.000000
0.112837 0.571386 0.000000
0.143262 0.571386 0.000000
0.176225 0.571386 0.000000
0.212236 0.571386 0.000000
0.253550 0.571386 0.000000
0.300409 0.571386 0.000000
0.354212 0.571386 0.000000
0.416279 0.571386 0.000000
0.486965 0.571386 0.000000
0.571386 0.571386 0.000000
0.664781 0.571386 0.000000
0.777938 0.571386 0.000000
0.906212 0.571386 0.000000
1.050638 0.571386 0.000000
1.000000 0.571386 0.000000
1.000000 0.571386 0.000000
1.000000 0.571386 0.000000
1.000000 0.571386 0.000000
1.000000 0.571386 0.000000
1.000000 0.571386 0.000000
1.000000 0.571386 0.000000
1.000000 0.571386 0.000000
1.000000 0.571386 0.000000
1.000000 0.571386 0.000000
1.000000 0.571386 0.000000
1.000000 0.571386 0.000000
1.000000 0.571386 0.000000
0.000000 0.664781 0.000000
0.000032 0.664781 0.000000
0.000100 0.664781 0.000000
0.053896 0.664781 0.000000
0.084621 0.664781 0.000000
0.112837 0.664781 0.000000
0.143262 0.664781 0.000000
0.176225 0.664781 0.000000
0.212236 0.664781 0.000000
0.253550 0.664781 0.000000
0.300409 0.664781 0.000000
0.354212 0.664781 0.000000
0.416279 0.664781 0.000000
0.486965 0.664781 0.000000
0.571386 0.664781 0.000000
0.664781 0.664781 0.000000
0.777938 0.664781 0.000000
0.906212 0.664781 0.000000
1.050638 0.664781 0.000000
1.000000 0.664781 0.000000
1.000000 0.664781 0.000000
1.000000 0.664781 0.000000
1.000000 0.664781 0.000000
1.000000 0.664781 0.000000
1.000000 0.664781 0.000000
1.000000 0.664781 0.000000
1.000000 0.664781 0.000000
1.000000 0.664781 0.000000
1.000000 0.664781 0.000000
1.000000 0.664781 0.000000
1.000000 0.664781 0.000000
1.000000 0.664781 0.000000
0.000000 0.777938 0.000000
0.000032 0.777938 0.000000
0.000100 0.777938 0.000000
0.053896 0.777938 0.000000
0.084621 0.777938 0.000000
0.112837 0.777938 0.000000
0.143262 0.777938 0.000000
0.176225 0.777938 0.000000
0.212236 0.777938 0.000000
0.253550 0.777938 0.000000
0.300409 0.777938 0.000000
0.354212 0.777938 0.000000
0.416279 0.777938 0.000000
0.486965 0.777938 0.000000
0.571386 0.777938 0.000000
0.664781 0.777938 0.000000
0.777938 0.777938 0.000000
0.906212 0.777938 0.000000
1.050638 0.777938 0.000000
1.000000 0.777938 0.000000
1.000000 0.777938 0.000000
1.000000 0.777938 0.000000
1.000000 0.777938 0.000000
1.000000 0.777938 0.000000
1.000000 0.777938 0.000000
1.000000 0.777938 0.000000
1.000000 0.777938 0.000000
1.000000 0.777938 0.000000
1.000000 0.777938 0.000000
1.000000 0.777938 0.000000
1.000000 0.777938 0.000000
1.000000 0.777938 0.000000
0.000000 0.906212 0.000000
0.000032 0.906212 0.000000
0.000100 0.906212 0.000000
0.053896 0.906212 0.000000
0.084621 0.906212 0.000000
0.112837 0.906212 0.000000
0.143262 0.906212 0.000000
0.176225 0.906212 0.000000
0.212236 0.906212 0.000000
0.253550 0.906212 0.000000
0.300409 0.906212 0.000000
0.354212 0.906212 0.000000
0.416279 0.906212 0.000000
0.486965 0.906212 0.000000
0.571386 0.906212 0.000000
0.664781 0.906212 0.000000
0.777938 0.906212 0.000000
0.906212 0.906212 0.000000
1.050638 0.906212 0.000000
1.000000 0.906212 0.000000
1.000000 0.906212 0.000000
1.000000 0.906212 0.000000
1.000000 0.906212 0.000000
1.000000 0.906212 0.000000
1.000000 0.906212 0.000000
1.000000 0.906212 0.000000
1.000000 0.906212 0.000000
1.000000 0.906212 0.000000
1.000000 0.906212 0.000000
1.000000 0.906212 0.000000
1.000000 0.906212 0.000000
1.000000 0.906212 0.000000
0.000000 1.050638 0.000000
0.000032 1.050638 0.000000
0.000100 1.050638 0.000000
0.053896 1.050638 0.000000
0.084621 1.050638 0.000000
0.112837 1.050638 0.000000
0.143262 1.050638 0.000000
0.176225 1.050638 0.000000
0.212236 1.050638 0.000000
0.253550 1.050638 0.000000
0.300409 1.050638 0.000000
0.354212 1.050638 0.000000
0.416279 1.050638 0.000000
0.486965 1.050638 0.000000
0.571386 1.050638 0.000000
0.664781 1.050638 0.000000
0.777938 1.050638 0.000000
0.906212 1.050638 0.000000
1.050638 1.050638 0.000000
1.000000 1.050638 0.000000
1.000000 1.050638 0.000000
1.000000 1.050638 0.000000
1.000000 1.050638 0.000000
1.000000 1.050638 0.000000
1.000000 1.050638 0.000000
1.000000 1.050638 0.000000
1.000000 1.050638 0.000000
1.000000 1.050638 0.000000
1.000000 1.050638 0.000000
1.000000 1.050638 0.000000
1.000000 1.050638 0.000000
1.000000 1.050638 0.000000
0.000000 1.000000 0.000000
0.000032 1.000000 0.000000
0.000100 1.000000 0.000000
0.053896 1.000000 0.000000
0.084621 1.000000 0.000000
0.112837 1.000000 0.000000
0.143262 1.000000 0.000000
0.176225 1.000000 0.000000
0.212236 1.000000 0.000000
0.253550 1.000000 0.000000
0.300409 1.000000 0.000000
0.354212 1.000000 0.000000
0.416279 1.000000 0.000000
0.486965 1.000000 0.000000
0.571386 1.000000 0.000000
0.664781 1.000000 0.000000
0.777938 1.000000 0.000000
0.906212 1.000000 0.000000
1.050638 1.000000 0.000000
1.000000 1.000000 0.000000
1.000000 1.000000 0.000000
1.000000 1.000000 0.000000
1.000000 1.000000 0.000000
1.000000 1.000000 0.000000
1.000000 1.000000 0.000000
1.000000 1.000000 0.000000
1.000000 1.000000 0.000000
1.000000 1.000000 0.000000
1.000000 1.000000 0.000000
1.000000 1.000000 0.000000
1.000000 1.000000 0.000000
1.000000 1.000000 0.000000
0.000000 1.000000 0.000000
0.000032 1.000000 0.000000
0.000100 1.000000 0.000000
0.053896 1.000000 0.000000
0.084621 1.000000 0.000000
0.112837 1.000000 0.000000
0.143262 1.000000 0.000000
0.176225 1.000000 0.000000
0.212236 1.000000 0.000000
0.253550 1.000000 0.000000
0.300409 1.000000 0.000000
0.354212 1.000000 0.000000
0.416279 1.000000 0.000000
0.486965 1.000000 0.000000
0.571386 1.000000 0.000000
0.664781 1.000000 0.000000
0.777938 1.000000 0.000000
0.906212 1.000000 0.000000
1.050638 1.000000 0.000000
1.000000 1.000000 0.000000
1.000000 1.000000 0.000000
1.000000 1.000000 0.000000
1.000000 1.000000 0.000000
1.000000 1.000000 0.000000
1.000000 1.000000 0.000000
1.000000 1.000000 0.000000
1.000000 1.000000 0.000000
1.000000 1.000000 0.000000
1.000000 1.000000 0.000000
1.000000 1.000000 0.000000
1.000000 1.000000 0.000000
1.000000 1.000000 0.000000
0.000000 1.000000 0.000000
0.000032 1.000000 0.000000
0.000100 1.000000 0.000000
0.053896 1.000000 0.000000
0.084621 1.000000 0.000000
0.112837 1.000000 0.000000
0.143262 1.000000 0.000000
0.176225 1.000000 0.000000
0.212236 1.000000 0.000000
0.253550 1.000000 0.000000
0.300409 1.000000 0.000000
0.354212 1.000000 0.000000
0.416279 1.000000 0.000000
0.486965 1.000000 0.000000
0.571386 1.000000 0.000000
0.664781 1.000000 0.000000
0.777938 1.000000 0.000000
0.906212 1.000000 0.000000
1.050638 1.000000 0.000000
1.000000 1.000000 0.000000
1.000000 1.000000 0.000000
1.000000 1.000000 0.000000
1.000000 1.000000 0.000000
1.000000 1.000000 0.000000
1.000000 1.000000 0.000000
1.000000 1.000000 0.000000
1.000000 1.000000 0.000000
1.000000 1.000000 0.000000
1.000000 1.000000 0.000000
1.000000 1.000000 0.000000
1.000000 1.000000 0.000000
1.000000 1.000000 0.000000
0.000000 1.000000 0.000000
0.000032 1.000000 0.000000
0.000100 1.000000 0.000000
0.053896 1.000000 0.000000
0.084621 1.000000 0.000000
0.112837 1.000000 0.000000
0.143262 1.000000 0.000000
0.176225 1.000000 0.000000
0.212236 1.000000 0.000000
0.253550 1.000000 0.000000
0.300409 1.000000 0.000000
0.354212 1.000000 0.000000
0.416279 1.000000 0.000000
0.486965 1.000000 0.000000
0.571386 1.000000 0.000000
0.664781 1.000000 0.000000
0.777938 1.000000 0.000000
0.906212 1.000000 0.000000
1.050638 1.000000 0.000000
1.000000 1.000000 0.000000
1.000000 1.000000 0.000000
1.000000 1.000000 0.000000
1.000000 1.000000 0.000000
1.000000 1.000000 0.000000
1.000000 1.000000 0.000000
1.000000 1.000000 0.000000
1.000000 1.000000 0.000000
1.000000 1.000000 0.000000
1.000000 1.000000 0.000000
1.000000 1.000000 0.000000
1.000000 1.000000 0.000000
1.000000 1.000000 0.000000
0.000000 1.000000 0.000000
0.000032 1.000000 0.000000
0.000100 1.000000 0.000000
0.053896 1.000000 0.000000
0.084621 1.000000 0.000000
0.112837 1.000000 0.000000
0.143262 1.000000 0.000000
0.176225 1.000000 0.000000
0.212236 1.000000 0.000000
0.253550 1.000000 0.000000
0.300409 1.000000 0.000000
0.354212 1.000000 0.000000
0.416279 1.000000 0.000000
0.486965 1.000000 0.000000
0.571386 1.000000 0.000000
0.664781 1.000000 0.000000
0.777938 1.000000 0.000000
0.906212 1.000000 0.000000
1.050638 1.000000 0.000000
1.000000 1.000000 0.000000
1.000000 1.000000 0.000000
1.000000 1.000000 0.000000
1.000000 1.000000 0.000000
1.000000 1.000000 0.000000
1.000000 1.000000 0.000000
1.000000 1.000000 0.000000
1.000000 1.000000 0.000000
1.000000 1.000000 0.000000
1.000000 1.000000 0.000000
1.000000 1.000000 0.000000
1.000000 1.000000 0.000000
1.000000 1.000000 0.000000
0.000000 1.000000 0.000000
0.000032 1.000000 0.000000
0.000100 1.000000 0.000000
0.053896 1.000000 0.000000
0.084621 1.000000 0.000000
0.112837 1.000000 0.000000
0.143262 1.000000 0.000000
0.176225 1.000000 0.000000
0.212236 1.000000 0.000000
0.253550 1.000000 0.000000
0.300409 1.000000 0.000000
0.354212 1.000000 0.000000
0.416279 1.000000 0.000000
0.486965 1.000000 0.000000
0.571386 1.000000 0.000000
0.664781 1.000000 0.000000
0.777938 1.000000 0.000000
0.906212 1.000000 0.000000
1.050638 1.000000 0.000000
1.000000 1.000000 0.000000
1.000000 1.000000 0.000000
1.000000 1.000000 0.000000
1.000000 1.000000 0.000000
1.000000 1.000000 0.000000
1.000000 1.000000 0.000000
1.000000 1.000000 0.000000
1.000000 1.000000 0.000000
1.000000 1.000000 0.000000
1.000000 1.000000 0.000000
1.000000 1.000000 0.000000
1.000000 1.000000 0.000000
1.000000 1.000000 0.000000
0.000000 1.000000 0.000000
0.000032 1.000000 0.000000
0.000100 1.000000 0.000000
0.053896 1.000000 0.000000
0.084621 1.000000 0.000000
0.112837 1.000000 0.000000
0.143262 1.000000 0.000000
0.176225 1.000000 0.000000
0.212236 1.000000 0.000000
0.253550 1.000000 0.000000
0.300409 1.000000 0.000000
0.354212 1.000000 0.000000
0.416279 1.000000 0.000000
0.486965 1.000000 0.000000
0.571386 1.000000 0.000000
0.664781 1.000000 0.000000
0.777938 1.000000 0.000000
0.906212 1.000000 0.000000
1.050638 1.000000 0.000000
1.000000 1.000000 0.000000
1.000000 1.000000 0.000000
1.000000 1.000000 0.000000
1.000000 1.000000 0.000000
1.000000 1.000000 0.000000
1.000000 1.000000 0.000000
1.000000 1.000000 0.000000
1.000000 1.000000 0.000000
1.000000 1.000000 0.000000
1.000000 1.000000 0.000000
1.000000 1.000000 0.000000
1.000000 1.000000 0.000000
1.000000 1.000000 0.000000
0.000000 1.000000 0.000000
0.000032 1.000000 0.000000
0.000100 1.000000 0.000000
0.053896 1.000000 0.000000
0.084621 1.000000 0.000000
0.112837 1.000000 0.000000
0.143262 1.000000 0.000000
0.176225 1.000000 0.000000
0.212236 1.000000 0.000000
0.253550 1.000000 0.000000
0.300409 1.000000 0.000000
0.354212 1.000000 0.000000
0.416279 1.000000 0.000000
0.486965 1.000000 0.000000
0.571386 1.000000 0.000000
0.664781 1.000000 0.000000
0.777938 1.000000 0.000000
0.906212 1.000000 0.000000
1.050638 1.000000 0.000000
1.000000 1.000000 0.000000
1.000000 1.000000 0.000000
1.000000 1.000000 0.000000
1.000000 1.000000 0.000000
1.000000 1.000000 0.000000
1.000000 1.000000 0.000000
1.000000 1.000000 0.000000
1.000000 1.000000 0.000000
1.000000 1.000000 0.000000
1.000000 1.000000 0.000000
1.000000 1.000000 0.000000
1.000000 1.000000 0.000000
1.000000 1.000000 0.000000
0.000000 1.000000 0.000000
0.000032 1.000000 0.000000
0.000100 1.000000 0.000000
0.053896 1.000000 0.000000
0.084621 1.000000 0.000000
0.112837 1.000000 0.000000
0.143262 1.000000 0.000000
0.176225 1.000000 0.000000
0.212236 1.000000 0.000000
0.253550 1.000000 0.000000
0.300409 1.000000 0.000000
0.354212 1.000000 0.000000
0.416279 1.000000 0.000000
0.486965 1.000000 0.000000
0.571386 1.000000 0.000000
0.664781 1.000000 0.000000
0.777938 1.000000 0.000000
0.906212 1.000000 0.000000
1.050638 1.000000 0.000000
1.000000 1.000000 0.000000
1.000000 1.000000 0.000000
