python-previous/3 - create cube files/cube files/linear_max1.cube
TITLE "cube/linear_max1.cube"
LUT_3D_SIZE 32
DOMAIN_MIN 0.0 0.0 0.0
DOMAIN_MAX 1.0 1.0 1.0
0.000000 0.000000 0.000000
0.000000 0.000000 0.000000
0.000000 0.000000 0.000000
0.002849 0.000000 0.000000
0.007196 0.000000 0.000000
0.012740 0.000000 0.000000
0.020550 0.000000 0.000000
0.031000 0.000000 0.000000
0.045020 0.000000 0.000000
0.064150 0.000000 0.000000
0.090180 0.000000 0.000000
0.125300 0.000000 0.000000
0.173000 0.000000 0.000000
0.237200 0.000000 0.000000
0.326000 0.000000 0.000000
0.442500 0.000000 0.000000
0.604300 0.000000 0.000000
0.821400 0.000000 0.000000
1.104000 0.000000 0.000000
1.000000 0.000000 0.000000
1.000000 0.000000 0.000000
1.000000 0.000000 0.000000
1.000000 0.000000 0.000000
1.000000 0.000000 0.000000
1.000000 0.000000 0.000000
1.000000 0.000000 0.000000
1.000000 0.000000 0.000000
1.000000 0.000000 0.000000
1.000000 0.000000 0.000000
1.000000 0.000000 0.000000
1.000000 0.000000 0.000000
1.000000 0.000000 0.000000
0.000000 0.000000 0.000000
0.000000 0.000000 0.000000
0.000000 0.000000 0.000000
0.002849 0.000000 0.000000
0.007196 0.000000 0.000000
0.012740 0.000000 0.000000
0.020550 0.000000 0.000000
0.031000 0.000000 0.000000
0.045020 0.000000 0.000000
0.064150 0.000000 0.000000
0.090180 0.000000 0.000000
0.125300 0.000000 0.000000
0.173000 0.000000 0.000000
0.237200 0.000000 0.000000
0.326000 0.000000 0.000000
0.442500 0.000000 0.000000
0.604300 0.000000 0.000000
0.821400 0.000000 0.000000
1.104000 0.000000 0.000000
1.000000 0.000000 0.000000
1.000000 0.000000 0.000000
1.000000 0.000000 0.000000
1.000000 0.000000 0.000000
1.000000 0.000000 0.000000
1.000000 0.000000 0.000000
1.000000 0.000000 0.000000
1.000000 0.000000 0.000000
1.000000 0.000000 0.000000
1.000000 0.000000 0.000000
1.000000 0.000000 0.000000
1.000000 0.000000 0.000000
1.000000 0.000000 0.000000
0.000000 0.000000 0.000000
0.000000 0.000000 0.000000
0.000000 0.000000 0.000000
0.002849 0.000000 0.000000
0.007196 0.000000 0.000000
0.012740 0.000000 0.000000
0.020550 0.000000 0.000000
0.031000 0.000000 0.000000
0.045020 0.000000 0.000000
0.064150 0.000000 0.000000
0.090180 0.000000 0.000000
0.125300 0.000000 0.000000
0.173000 0.000000 0.000000
0.237200 0.000000 0.000000
0.326000 0.000000 0.000000
0.442500 0.000000 0.000000
0.604300 0.000000 0.000000
0.821400 0.000000 0.000000
1.104000 0.000000 0.000000
1.000000 0.000000 0.000000
1.000000 0.000000 0.000000
1.000000 0.000000 0.000000
1.000000 0.000000 0.000000
1.000000 0.000000 0.000000
1.000000 0.000000 0.000000
1.000000 0.000000 0.000000
1.000000 0.000000 0.000000
1.000000 0.000000 0.000000
1.000000 0.000000 0.000000
1.000000 0.000000 0.000000
1.000000 0.000000 0.000000
1.000000 0.000000 0.000000
0.000000 0.002849 0.000000
0.000000 0.002849 0.000000
0.000000 0.002849 0.000000
0.002849 0.002849 0.000000
0.007196 0.002849 0.000000
0.012740 0.002849 0.000000
0.020550 0.002849 0.000000
0.031000 0.002849 0.000000
0.045020 0.002849 0.000000
0.064150 0.002849 0.000000
0.090180 0.002849 0.000000
0.125300 0.002849 0.000000
0.173000 0.002849 0.000000
0.237200 0.002849 0.000000
0.326000 0.002849 0.000000
0.442500 0.002849 0.000000
0.604300 0.002849 0.000000
0.821400 0.002849 0.000000
1.104000 0.002849 0.000000
1.000000 0.002849 0.000000
1.000000 0.002849 0.000000
1.000000 0.002849 0.000000
1.000000 0.002849 0.000000
1.000000 0.002849 0.000000
1.000000 0.002849 0.000000
1.000000 0.002849 0.000000
1.000000 0.002849 0.000000
1.000000 0.002849 0.000000
1.000000 0.002849 0.000000
1.000000 0.002849 0.000000
1.000000 0.002849 0.000000
1.000000 0.002849 0.000000
0.000000 0.007196 0.000000
0.000000 0.007196 0.000000
0.000000 0.007196 0.000000
0.002849 0.007196 0.000000
0.007196 0.007196 0.000000
0.012740 0.007196 0.000000
0.020550 0.007196 0.000000
0.031000 0.007196 0.000000
0.045020 0.007196 0.000000
0.064150 0.007196 0.000000
0.090180 0.007196 0.000000
0.125300 0.007196 0.000000
0.173000 0.007196 0.000000
0.237200 0.007196 0.000000
0.326000 0.007196 0.000000
0.442500 0.007196 0.000000
0.604300 0.007196 0.000000
0.821400 0.007196 0.000000
1.104000 0.007196 0.000000
1.000000 0.007196 0.000000
1.000000 0.007196 0.000000
1.000000 0.007196 0.000000
1.000000 0.007196 0.000000
1.000000 0.007196 0.000000
1.000000 0.007196 0.000000
1.000000 0.007196 0.000000
1.000000 0.007196 0.000000
1.000000 0.007196 0.000000
1.000000 0.007196 0.000000
1.000000 0.007196 0.000000
1.000000 0.007196 0.000000
1.000000 0.007196 0.000000
0.000000 0.012740 0.000000
0.000000 0.012740 0.000000
0.000000 0.012740 0.000000
0.002849 0.012740 0.000000
0.007196 0.012740 0.000000
0.012740 0.012740 0.000000
0.020550 0.012740 0.000000
0.031000 0.012740 0.000000
0.045020 0.012740 0.000000
0.064150 0.012740 0.000000
0.090180 0.012740 0.000000
0.125300 0.012740 0.000000
0.173000 0.012740 0.000000
0.237200 0.012740 0.000000
0.326000 0.012740 0.000000
0.442500 0.012740 0.000000
0.604300 0.012740 0.000000
0.821400 0.012740 0.000000
1.104000 0.012740 0.000000
1.000000 0.012740 0.000000
1.000000 0.012740 0.000000
1.000000 0.012740 0.000000
1.000000 0.012740 0.000000
1.000000 0.012740 0.000000
1.000000 0.012740 0.000000
1.000000 0.012740 0.000000
1.000000 0.012740 0.000000
1.000000 0.012740 0.000000
1.000000 0.012740 0.000000
1.000000 0.012740 0.000000
1.000000 0.012740 0.000000
1.000000 0.012740 0.000000
0.000000 0.020550 0.000000
0.000000 0.020550 0.000000
0.000000 0.020550 0.000000
0.002849 0.020550 0.000000
0.007196 0.020550 0.000000
0.012740 0.020550 0.000000
0.020550 0.020550 0.000000
0.031000 0.020550 0.000000
0.045020 0.020550 0.000000
0.064150 0.020550 0.000000
0.090180 0.020550 0.000000
0.125300 0.020550 0.000000
0.173000 0.020550 0.000000
0.237200 0.020550 0.000000
0.326000 0.020550 0.000000
0.442500 0.020550 0.000000
0.604300 0.020550 0.000000
0.821400 0.020550 0.000000
1.104000 0.020550 0.000000
1.000000 0.020550 0.000000
1.000000 0.020550 0.000000
1.000000 0.020550 0.000000
1.000000 0.020550 0.000000
1.000000 0.020550 0.000000
1.000000 0.020550 0.000000
1.000000 0.020550 0.000000
1.000000 0.020550 0.000000
1.000000 0.020550 0.000000
1.000000 0.020550 0.000000
1.000000 0.020550 0.000000
1.000000 0.020550 0.000000
1.000000 0.020550 0.000000
0.000000 0.031000 0.000000
0.000000 0.031000 0.000000
0.000000 0.031000 0.000000
0.002849 0.031000 0.000000
0.007196 0.031000 0.000000
0.012740 0.031000 0.000000
0.020550 0.031000 0.000000
0.031000 0.031000 0.000000
0.045020 0.031000 0.000000
0.064150 0.031000 0.000000
0.090180 0.031000 0.000000
0.125300 0.031000 0.000000
0.173000 0.031000 0.000000
0.237200 0.031000 0.000000
0.326000 0.031000 0.000000
0.442500 0.031000 0.000000
0.604300 0.031000 0.000000
0.821400 0.031000 0.000000
1.104000 0.031000 0.000000
1.000000 0.031000 0.000000
1.000000 0.031000 0.000000
1.000000 0.031000 0.000000
1.000000 0.031000 0.000000
1.000000 0.031000 0.000000
1.000000 0.031000 0.000000
1.000000 0.031000 0.000000
1.000000 0.031000 0.000000
1.000000 0.031000 0.000000
1.000000 0.031000 0.000000
1.000000 0.031000 0.000000
1.000000 0.031000 0.000000
1.000000 0.031000 0.000000
0.000000 0.045020 0.000000
0.000000 0.045020 0.000000
0.000000 0.045020 0.000000
0.002849 0.045020 0.000000
0.007196 0.045020 0.000000
0.012740 0.045020 0.000000
0.020550 0.045020 0.000000
0.031000 0.045020 0.000000
0.045020 0.045020 0.000000
0.064150 0.045020 0.000000
0.090180 0.045020 0.000000
0.125300 0.045020 0.000000
0.173000 0.045020 0.000000
0.237200 0.045020 0.000000
0.326000 0.045020 0.000000
0.442500 0.045020 0.000000
0.604300 0.045020 0.000000
0.821400 0.045020 0.000000
1.104000 0.045020 0.000000
1.000000 0.045020 0.000000
1.000000 0.045020 0.000000
1.000000 0.045020 0.000000
1.000000 0.045020 0.000000
1.000000 0.045020 0.000000
1.000000 0.045020 0.000000
1.000000 0.045020 0.000000
1.000000 0.045020 0.000000
1.000000 0.045020 0.000000
1.000000 0.045020 0.000000
1.000000 0.045020 0.000000
1.000000 0.045020 0.000000
1.000000 0.045020 0.000000
0.000000 0.064150 0.000000
0.000000 0.064150 0.000000
0.000000 0.064150 0.000000
0.002849 0.064150 0.000000
0.007196 0.064150 0.000000
0.012740 0.064150 0.000000
0.020550 0.064150 0.000000
0.031000 0.064150 0.000000
0.045020 0.064150 0.000000
0.064150 0.064150 0.000000
0.090180 0.064150 0.000000
0.125300 0.064150 0.000000
0.173000 0.064150 0.000000
0.237200 0.064150 0.000000
0.326000 0.064150 0.000000
0.442500 0.064150 0.000000
0.604300 0.064150 0.000000
0.821400 0.064150 0.000000
1.104000 0.064150 0.000000
1.000000 0.064150 0.000000
1.000000 0.064150 0.000000
1.000000 0.064150 0.000000
1.000000 0.064150 0.000000
1.000000 0.064150 0.000000
1.000000 0.064150 0.000000
1.000000 0.064150 0.000000
1.000000 0.064150 0.000000
1.000000 0.064150 0.000000
1.000000 0.064150 0.000000
1.000000 0.064150 0.000000
1.000000 0.064150 0.000000
1.000000 0.064150 0.000000
0.000000 0.090180 0.000000
0.000000 0.090180 0.000000
0.000000 0.090180 0.000000
0.002849 0.090180 0.000000
0.007196 0.090180 0.000000
0.012740 0.090180 0.000000
0.020550 0.090180 0.000000
0.031000 0.090180 0.000000
0.045020 0.090180 0.000000
0.064150 0.090180 0.000000
0.090180 0.090180 0.000000
0.125300 0.090180 0.000000
0.173000 0.090180 0.000000
0.237200 0.090180 0.000000
0.326000 0.090180 0.000000
0.442500 0.090180 0.000000
0.604300 0.090180 0.000000
0.821400 0.090180 0.000000
1.104000 0.090180 0.000000
1.000000 0.090180 0.000000
1.000000 0.090180 0.000000
1.000000 0.090180 0.000000
1.000000 0.090180 0.000000
1.000000 0.090180 0.000000
1.000000 0.090180 0.000000
1.000000 0.090180 0.000000
1.000000 0.090180 0.000000
1.000000 0.090180 0.000000
1.000000 0.090180 0.000000
1.000000 0.090180 0.000000
1.000000 0.090180 0.000000
1.000000 0.090180 0.000000
0.000000 0.125300 0.000000
0.000000 0.125300 0.000000
0.000000 0.125300 0.000000
0.002849 0.125300 0.000000
0.007196 0.125300 0.000000
0.012740 0.125300 0.000000
0.020550 0.125300 0.000000
0.031000 0.125300 0.000000
0.045020 0.125300 0.000000
0.064150 0.125300 0.000000
0.090180 0.125300 0.000000
0.125300 0.125300 0.000000
0.173000 0.125300 0.000000
0.237200 0.125300 0.000000
0.326000 0.125300 0.000000
0.442500 0.125300 0.000000
0.604300 0.125300 0.000000
0.821400 0.125300 0.000000
1.104000 0.125300 0.000000
1.000000 0.125300 0.000000
1.000000 0.125300 0.000000
1.000000 0.125300 0.000000
1.000000 0.125300 0.000000
1.000000 0.125300 0.000000
1.000000 0.125300 0.000000
1.000000 0.125300 0.000000
1.000000 0.125300 0.000000
1.000000 0.125300 0.000000
1.000000 0.125300 0.000000
1.000000 0.125300 0.000000
1.000000 0.125300 0.000000
1.000000 0.125300 0.000000
0.000000 0.173000 0.000000
0.000000 0.173000 0.000000
0.000000 0.173000 0.000000
0.002849 0.173000 0.000000
0.007196 0.173000 0.000000
0.012740 0.173000 0.000000
0.020550 0.173000 0.000000
0.031000 0.173000 0.000000
0.045020 0.173000 0.000000
0.064150 0.173000 0.000000
0.090180 0.173000 0.000000
0.125300 0.173000 0.000000
0.173000 0.173000 0.000000
0.237200 0.173000 0.000000
0.326000 0.173000 0.000000
0.442500 0.173000 0.000000
0.604300 0.173000 0.000000
0.821400 0.173000 0.000000
1.104000 0.173000 0.000000
1.000000 0.173000 0.000000
1.000000 0.173000 0.000000
1.000000 0.173000 0.000000
1.000000 0.173000 0.000000
1.000000 0.173000 0.000000
1.000000 0.173000 0.000000
1.000000 0.173000 0.000000
1.000000 0.173000 0.000000
1.000000 0.173000 0.000000
1.000000 0.173000 0.000000
1.000000 0.173000 0.000000
1.000000 0.173000 0.000000
1.000000 0.173000 0.000000
0.000000 0.237200 0.000000
0.000000 0.237200 0.000000
0.000000 0.237200 0.000000
0.002849 0.237200 0.000000
0.007196 0.237200 0.000000
0.012740 0.237200 0.000000
0.020550 0.237200 0.000000
0.031000 0.237200 0.000000
0.045020 0.237200 0.000000
0.064150 0.237200 0.000000
0.090180 0.237200 0.000000
0.125300 0.237200 0.000000
0.173000 0.237200 0.000000
0.237200 0.237200 0.000000
0.326000 0.237200 0.000000
0.442500 0.237200 0.000000
0.604300 0.237200 0.000000
0.821400 0.237200 0.000000
1.104000 0.237200 0.000000
1.000000 0.237200 0.000000
1.000000 0.237200 0.000000
1.000000 0.237200 0.000000
1.000000 0.237200 0.000000
1.000000 0.237200 0.000000
1.000000 0.237200 0.000000
1.000000 0.237200 0.000000
1.000000 0.237200 0.000000
1.000000 0.237200 0.000000
1.000000 0.237200 0.000000
1.000000 0.237200 0.000000
1.000000 0.237200 0.000000
1.000000 0.237200 0.000000
0.000000 0.326000 0.000000
0.000000 0.326000 0.000000
0.000000 0.326000 0.000000
0.002849 0.326000 0.000000
0.007196 0.326000 0.000000
0.012740 0.326000 0.000000
0.020550 0.326000 0.000000
0.031000 0.326000 0.000000
0.045020 0.326000 0.000000
0.064150 0.326000 0.000000
0.090180 0.326000 0.000000
0.125300 0.326000 0.000000
0.173000 0.326000 0.000000
0.237200 0.326000 0.000000
0.326000 0.326000 0.000000
0.442500 0.326000 0.000000
0.604300 0.326000 0.000000
0.821400 0.326000 0.000000
1.104000 0.326000 0.000000
1.000000 0.326000 0.000000
1.000000 0.326000 0.000000
1.000000 0.326000 0.000000
1.000000 0.326000 0.000000
1.000000 0.326000 0.000000
1.000000 0.326000 0.000000
1.000000 0.326000 0.000000
1.000000 0.326000 0.000000
1.000000 0.326000 0.000000
1.000000 0.326000 0.000000
1.000000 0.326000 0.000000
1.000000 0.326000 0.000000
1.000000 0.326000 0.000000
0.000000 0.442500 0.000000
0.000000 0.442500 0.000000
0.000000 0.442500 0.000000
0.002849 0.442500 0.000000
0.007196 0.442500 0.000000
0.012740 0.442500 0.000000
0.020550 0.442500 0.000000
0.031000 0.442500 0.000000
0.045020 0.442500 0.000000
0.064150 0.442500 0.000000
0.090180 0.442500 0.000000
0.125300 0.442500 0.000000
0.173000 0.442500 0.000000
0.237200 0.442500 0.000000
0.326000 0.442500 0.000000
0.442500 0.442500 0.000000
0.604300 0.442500 0.000000
0.821400 0.442500 0.000000
1.104000 0.442500 0.000000
1.000000 0.442500 0.000000
1.000000 0.442500 0.000000
1.000000 0.442500 0.000000
1.000000 0.442500 0.000000
1.000000 0.442500 0.000000
1.000000 0.442500 0.000000
1.000000 0.442500 0.000000
1.000000 0.442500 0.000000
1.000000 0.442500 0.000000
1.000000 0.442500 0.000000
1.000000 0.442500 0.000000
1.000000 0.442500 0.000000
1.000000 0.442500 0.000000
0.000000 0.604300 0.000000
0.000000 0.604300 0.000000
0.000000 0.604300 0.000000
0.002849 0.604300 0.000000
0.007196 0.604300 0.000000
0.012740 0.604300 0.000000
0.020550 0.604300 0.000000
0.031000 0.604300 0.000000
0.045020 0.604300 0.000000
0.064150 0.604300 0.000000
0.090180 0.604300 0.000000
0.125300 0.604300 0.000000
0.173000 0.604300 0.000000
0.237200 0.604300 0.000000
0.326000 0.604300 0.000000
0.442500 0.604300 0.000000
0.604300 0.604300 0.000000
0.821400 0.604300 0.000000
1.104000 0.604300 0.000000
1.000000 0.604300 0.000000
1.000000 0.604300 0.000000
1.000000 0.604300 0.000000
1.000000 0.604300 0.000000
1.000000 0.604300 0.000000
1.000000 0.604300 0.000000
1.000000 0.604300 0.000000
1.000000 0.604300 0.000000
1.000000 0.604300 0.000000
1.000000 0.604300 0.000000
1.000000 0.604300 0.000000
1.000000 0.604300 0.000000
1.000000 0.604300 0.000000
0.000000 0.821400 0.000000
0.000000 0.821400 0.000000
0.000000 0.821400 0.000000
0.002849 0.821400 0.000000
0.007196 0.821400 0.000000
0.012740 0.821400 0.000000
0.020550 0.821400 0.000000
0.031000 0.821400 0.000000
0.045020 0.821400 0.000000
0.064150 0.821400 0.000000
0.090180 0.821400 0.000000
0.125300 0.821400 0.000000
0.173000 0.821400 0.000000
0.237200 0.821400 0.000000
0.326000 0.821400 0.000000
0.442500 0.821400 0.000000
0.604300 0.821400 0.000000
0.821400 0.821400 0.000000
1.104000 0.821400 0.000000
1.000000 0.821400 0.000000
1.000000 0.821400 0.000000
1.000000 0.821400 0.000000
1.000000 0.821400 0.000000
1.000000 0.821400 0.000000
1.000000 0.821400 0.000000
1.000000 0.821400 0.000000
1.000000 0.821400 0.000000
1.000000 0.821400 0.000000
1.000000 0.821400 0.000000
1.000000 0.821400 0.000000
1.000000 0.821400 0.000000
1.000000 0.821400 0.000000
0.000000 1.104000 0.000000
0.000000 1.104000 0.000000
0.000000 1.104000 0.000000
0.002849 1.104000 0.000000
0.007196 1.104000 0.000000
0.012740 1.104000 0.000000
0.020550 1.104000 0.000000
0.031000 1.104000 0.000000
0.045020 1.104000 0.000000
0.064150 1.104000 0.000000
0.090180 1.104000 0.000000
0.125300 1.104000 0.000000
0.173000 1.104000 0.000000
0.237200 1.104000 0.000000
0.326000 1.104000 0.000000
0.442500 1.104000 0.000000
0.604300 1.104000 0.000000
0.821400 1.104000 0.000000
1.104000 1.104000 0.000000
1.000000 1.104000 0.000000
1.000000 1.104000 0.000000
1.000000 1.104000 0.000000
1.000000 1.104000 0.000000
1.000000 1.104000 0.000000
1.000000 1.104000 0.000000
1.000000 1.104000 0.000000
1.000000 1.104000 0.000000
1.000000 1.104000 0.000000
1.000000 1.104000 0.000000
1.000000 1.104000 0.000000
1.000000 1.104000 0.000000
1.000000 1.104000 0.000000
0.000000 1.000000 0.000000
0.000000 1.000000 0.000000
0.000000 1.000000 0.000000
0.002849 1.000000 0.000000
0.007196 1.000000 0.000000
0.012740 1.000000 0.000000
0.020550 1.000000 0.000000
0.031000 1.000000 0.000000
0.045020 1.000000 0.000000
0.064150 1.000000 0.000000
0.090180 1.000000 0.000000
0.125300 1.000000 0.000000
0.173000 1.000000 0.000000
0.237200 1.000000 0.000000
0.326000 1.000000 0.000000
0.442500 1.000000 0.000000
0.604300 1.000000 0.000000
0.821400 1.000000 0.000000
1.104000 1.000000 0.000000
1.000000 1.000000 0.000000
1.000000 1.000000 0.000000
1.000000 1.000000 0.000000
1.000000 1.000000 0.000000
1.000000 1.000000 0.000000
1.000000 1.000000 0.000000
1.000000 1.000000 0.000000
1.000000 1.000000 0.000000
1.000000 1.000000 0.000000
1.000000 1.000000 0.000000
1.000000 1.000000 0.000000
1.000000 1.000000 0.000000
1.000000 1.000000 0.000000
0.000000 1.000000 0.000000
0.000000 1.000000 0.000000
0.000000 1.000000 0.000000
0.002849 1.000000 0.000000
0.007196 1.000000 0.000000
0.012740 1.000000 0.000000
0.020550 1.000000 0.000000
0.031000 1.000000 0.000000
0.045020 1.000000 0.000000
0.064150 1.000000 0.000000
0.090180 1.000000 0.000000
0.125300 1.000000 0.000000
0.173000 1.000000 0.000000
0.237200 1.000000 0.000000
0.326000 1.000000 0.000000
0.442500 1.000000 0.000000
0.604300 1.000000 0.000000
0.821400 1.000000 0.000000
1.104000 1.000000 0.000000
1.000000 1.000000 0.000000
1.000000 1.000000 0.000000
1.000000 1.000000 0.000000
1.000000 1.000000 0.000000
1.000000 1.000000 0.000000
1.000000 1.000000 0.000000
1.000000 1.000000 0.000000
1.000000 1.000000 0.000000
1.000000 1.000000 0.000000
1.000000 1.000000 0.000000
1.000000 1.000000 0.000000
1.000000 1.000000 0.000000
1.000000 1.000000 0.000000
0.000000 1.000000 0.000000
0.000000 1.000000 0.000000
0.000000 1.000000 0.000000
0.002849 1.000000 0.000000
0.007196 1.000000 0.000000
0.012740 1.000000 0.000000
0.020550 1.000000 0.000000
0.031000 1.000000 0.000000
0.045020 1.000000 0.000000
0.064150 1.000000 0.000000
0.090180 1.000000 0.000000
0.125300 1.000000 0.000000
0.173000 1.000000 0.000000
0.237200 1.000000 0.000000
0.326000 1.000000 0.000000
0.442500 1.000000 0.000000
0.604300 1.000000 0.000000
0.821400 1.000000 0.000000
1.104000 1.000000 0.000000
1.000000 1.000000 0.000000
1.000000 1.000000 0.000000
1.000000 1.000000 0.000000
1.000000 1.000000 0.000000
1.000000 1.000000 0.000000
1.000000 1.000000 0.000000
1.000000 1.000000 0.000000
1.000000 1.000000 0.000000
1.000000 1.000000 0.000000
1.000000 1.000000 0.000000
1.000000 1.000000 0.000000
1.000000 1.000000 0.000000
1.000000 1.000000 0.000000
0.000000 1.000000 0.000000
0.000000 1.000000 0.000000
0.000000 1.000000 0.000000
0.002849 1.000000 0.000000
0.007196 1.000000 0.000000
0.012740 1.000000 0.000000
0.020550 1.000000 0.000000
0.031000 1.000000 0.000000
0.045020 1.000000 0.000000
0.064150 1.000000 0.000000
0.090180 1.000000 0.000000
0.125300 1.000000 0.000000
0.173000 1.000000 0.000000
0.237200 1.000000 0.000000
0.326000 1.000000 0.000000
0.442500 1.000000 0.000000
0.604300 1.000000 0.000000
0.821400 1.000000 0.000000
1.104000 1.000000 0.000000
1.000000 1.000000 0.000000
1.000000 1.000000 0.000000
1.000000 1.000000 0.000000
1.000000 1.000000 0.000000
1.000000 1.000000 0.000000
1.000000 1.000000 0.000000
1.000000 1.000000 0.000000
1.000000 1.000000 0.000000
1.000000 1.000000 0.000000
1.000000 1.000000 0.000000
1.000000 1.000000 0.000000
1.000000 1.000000 0.000000
1.000000 1.000000 0.000000
0.000000 1.000000 0.000000
0.000000 1.000000 0.000000
0.000000 1.000000 0.000000
0.002849 1.000000 0.000000
0.007196 1.000000 0.000000
0.012740 1.000000 0.000000
0.020550 1.000000 0.000000
0.031000 1.000000 0.000000
0.045020 1.000000 0.000000
0.064150 1.000000 0.000000
0.090180 1.000000 0.000000
0.125300 1.000000 0.000000
0.173000 1.000000 0.000000
0.237200 1.000000 0.000000
0.326000 1.000000 0.000000
0.442500 1.000000 0.000000
0.604300 1.000000 0.000000
0.821400 1.000000 0.000000
1.104000 1.000000 0.000000
1.000000 1.000000 0.000000
1.000000 1.000000 0.000000
1.000000 1.000000 0.000000
1.000000 1.000000 0.000000
1.000000 1.000000 0.000000
1.000000 1.000000 0.000000
1.000000 1.000000 0.000000
1.000000 1.000000 0.000000
1.000000 1.000000 0.000000
1.000000 1.000000 0.000000
1.000000 1.000000 0.000000
1.000000 1.000000 0.000000
1.000000 1.000000 0.000000
0.000000 1.000000 0.000000
0.000000 1.000000 0.000000
0.000000 1.000000 0.000000
0.002849 1.000000 0.000000
0.007196 1.000000 0.000000
0.012740 1.000000 0.000000
0.020550 1.000000 0.000000
0.031000 1.000000 0.000000
0.045020 1.000000 0.000000
0.064150 1.000000 0.000000
0.090180 1.000000 0.000000
0.125300 1.000000 0.000000
0.173000 1.000000 0.000000
0.237200 1.000000 0.000000
0.326000 1.000000 0.000000
0.442500 1.000000 0.000000
0.604300 1.000000 0.000000
0.821400 1.000000 0.000000
1.104000 1.000000 0.000000
1.000000 1.000000 0.000000
1.000000 1.000000 0.000000
1.000000 1.000000 0.000000
1.000000 1.000000 0.000000
1.000000 1.000000 0.000000
1.000000 1.000000 0.000000
1.000000 1.000000 0.000000
1.000000 1.000000 0.000000
1.000000 1.000000 0.000000
1.000000 1.000000 0.000000
1.000000 1.000000 0.000000
1.000000 1.000000 0.000000
1.000000 1.000000 0.000000
0.000000 1.000000 0.000000
0.000000 1.000000 0.000000
0.000000 1.000000 0.000000
0.002849 1.000000 0.000000
0.007196 1.000000 0.000000
0.012740 1.000000 0.000000
0.020550 1.000000 0.000000
0.031000 1.000000 0.000000
0.045020 1.000000 0.000000
0.064150 1.000000 0.000000
0.090180 1.000000 0.000000
0.125300 1.000000 0.000000
0.173000 1.000000 0.000000
0.237200 1.000000 0.000000
0.326000 1.000000 0.000000
0.442500 1.000000 0.000000
0.604300 1.000000 0.000000
0.821400 1.000000 0.000000
1.104000 1.000000 0.000000
1.000000 1.000000 0.000000
1.000000 1.000000 0.000000
1.000000 1.000000 0.000000
1.000000 1.000000 0.000000
1.000000 1.000000 0.000000
1.000000 1.000000 0.000000
1.000000 1.000000 0.000000
1.000000 1.000000 0.000000
1.000000 1.000000 0.000000
1.000000 1.000000 0.000000
1.000000 1.000000 0.000000
1.000000 1.000000 0.000000
1.000000 1.000000 0.000000
0.000000 1.000000 0.000000
0.000000 1.000000 0.000000
0.000000 1.000000 0.000000
0.002849 1.000000 0.000000
0.007196 1.000000 0.000000
0.012740 1.000000 0.000000
0.020550 1.000000 0.000000
0.031000 1.000000 0.000000
0.045020 1.000000 0.000000
0.064150 1.000000 0.000000
0.090180 1.000000 0.000000
0.125300 1.000000 0.000000
0.173000 1.000000 0.000000
0.237200 1.000000 0.000000
0.326000 1.000000 0.000000
0.442500 1.000000 0.000000
0.604300 1.000000 0.000000
0.821400 1.000000 0.000000
1.104000 1.000000 0.000000
1.000000 1.000000 0.000000
1.000000 1.000000 0.000000
1.000000 1.000000 0.000000
1.000000 1.000000 0.000000
1.000000 1.000000 0.000000
1.000000 1.000000 0.000000
1.000000 1.000000 0.000000
1.000000 1.000000 0.000000
1.000000 1.000000 0.000000
1.000000 1.000000 0.000000
1.000000 1.000000 0.000000
1.000000 1.000000 0.000000
1.000000 1.000000 0.000000
0.000000 1.000000 0.000000
0.000000 1.000000 0.000000
0.000000 1.000000 0.000000
0.002849 1.000000 0.000000
0.007196 1.000000 0.000000
0.012740 1.000000 0.000000
0.020550 1.000000 0.000000
0.031000 1.000000 0.000000
0.045020 1.000000 0.000000
0.064150 1.000000 0.000000
0.090180 1.000000 0.000000
0.125300 1.000000 0.000000
0.173000 1.000000 0.000000
0.237200 1.000000 0.000000
0.326000 1.000000 0.000000
0.442500 1.000000 0.000000
0.604300 1.000000 0.000000
0.821400 1.000000 0.000000
1.104000 1.000000 0.000000
1.000000 1.000000 0.000000
1.000000 1.000000 0.000000
