python-previous/3 - create cube files/cube files/linear_max1.cube
TITLE "cube/linear_max1.cube"
LUT_3D_SIZE 8
DOMAIN_MIN 0.000000 0.000000 0.000000
DOMAIN_MAX 0.903226 0.903226 0.903226
0.000000 0.000000 0.000000
0.007196 0.000000 0.000000
0.045020 0.000000 0.000000
0.173000 0.000000 0.000000
0.604300 0.000000 0.000000
1.000000 0.000000 0.000000
1.000000 0.000000 0.000000
1.000000 0.000000 0.000000
0.000000 0.007196 0.000000
0.007196 0.007196 0.000000
0.045020 0.007196 0.000000
0.173000 0.007196 0.000000
0.604300 0.007196 0.000000
1.000000 0.007196 0.000000
1.000000 0.007196 0.000000
1.000000 0.007196 0.000000
0.000000 0.045020 0.000000
0.007196 0.045020 0.000000
0.045020 0.045020 0.000000
0.173000 0.045020 0.000000
0.604300 0.045020 0.000000
1.000000 0.045020 0.000000
1.000000 0.045020 0.000000
1.000000 0.045020 0.000000
0.000000 0.173000 0.000000
0.007196 0.173000 0.000000
0.045020 0.173000 0.000000
0.173000 0.173000 0.000000
0.604300 0.173000 0.000000
1.000000 0.173000 0.000000
1.000000 0.173000 0.000000
1.000000 0.173000 0.000000
0.000000 0.604300 0.000000
0.007196 0.604300 0.000000
0.045020 0.604300 0.000000
0.173000 0.604300 0.000000
0.604300 0.604300 0.000000
1.000000 0.604300 0.000000
1.000000 0.604300 0.000000
1.000000 0.604300 0.000000
0.000000 1.000000 0.000000
0.007196 1.000000 0.000000
0.045020 1.000000 0.000000
0.173000 1.000000 0.000000
0.604300 1.000000 0.000000
1.000000 1.000000 0.000000
1.000000 1.000000 0.000000
1.000000 1.000000 0.000000
0.000000 1.000000 0.000000
0.007196 1.000000 0.000000
0.045020 1.000000 0.000000
0.173000 1.000000 0.000000
0.604300 1.000000 0.000000
1.000000 1.000000 0.000000
1.000000 1.000000 0.000000
1.000000 1.000000 0.000000
0.000000 1.000000 0.000000
0.007196 1.000000 0.000000
0.045020 1.000000 0.000000
0.173000 1.000000 0.000000
0.604300 1.000000 0.000000
1.000000 1.000000 0.000000
1.000000 1.000000 0.000000
1.000000 1.000000 0.000000
0.000000 0.000000 0.007196
0.007196 0.000000 0.007196
0.045020 0.000000 0.007196
0.173000 0.000000 0.007196
0.604300 0.000000 0.007196
1.000000 0.000000 0.007196
1.000000 0.000000 0.007196
1.000000 0.000000 0.007196
0.000000 0.007196 0.007196
0.007196 0.007196 0.007196
0.045020 0.007196 0.007196
0.173000 0.007196 0.007196
0.604300 0.007196 0.007196
1.000000 0.007196 0.007196
1.000000 0.007196 0.007196
1.000000 0.007196 0.007196
0.000000 0.045020 0.007196
0.007196 0.045020 0.007196
0.045020 0.045020 0.007196
0.173000 0.045020 0.007196
0.604300 0.045020 0.007196
1.000000 0.045020 0.007196
1.000000 0.045020 0.007196
1.000000 0.045020 0.007196
0.000000 0.173000 0.007196
0.007196 0.173000 0.007196
0.045020 0.173000 0.007196
0.173000 0.173000 0.007196
0.604300 0.173000 0.007196
1.000000 0.173000 0.007196
1.000000 0.173000 0.007196
1.000000 0.173000 0.007196
0.000000 0.604300 0.007196
0.007196 0.604300 0.007196
0.045020 0.604300 0.007196
0.173000 0.604300 0.007196
0.604300 0.604300 0.007196
1.000000 0.604300 0.007196
1.000000 0.604300 0.007196
1.000000 0.604300 0.007196
0.000000 1.000000 0.007196
0.007196 1.000000 0.007196
0.045020 1.000000 0.007196
0.173000 1.000000 0.007196
0.604300 1.000000 0.007196
1.000000 1.000000 0.007196
1.000000 1.000000 0.007196
1.000000 1.000000 0.007196
0.000000 1.000000 0.007196
0.007196 1.000000 0.007196
0.045020 1.000000 0.007196
0.173000 1.000000 0.007196
0.604300 1.000000 0.007196
1.000000 1.000000 0.007196
1.000000 1.000000 0.007196
1.000000 1.000000 0.007196
0.000000 1.000000 0.007196
0.007196 1.000000 0.007196
0.045020 1.000000 0.007196
0.173000 1.000000 0.007196
0.604300 1.000000 0.007196
1.000000 1.000000 0.007196
1.000000 1.000000 0.007196
1.000000 1.000000 0.007196
0.000000 0.000000 0.045020
0.007196 0.000000 0.045020
0.045020 0.000000 0.045020
0.173000 0.000000 0.045020
0.604300 0.000000 0.045020
1.000000 0.000000 0.045020
1.000000 0.000000 0.045020
1.000000 0.000000 0.045020
0.000000 0.007196 0.045020
0.007196 0.007196 0.045020
0.045020 0.007196 0.045020
0.173000 0.007196 0.045020
0.604300 0.007196 0.045020
1.000000 0.007196 0.045020
1.000000 0.007196 0.045020
1.000000 0.007196 0.045020
0.000000 0.045020 0.045020
0.007196 0.045020 0.045020
0.045020 0.045020 0.045020
0.173000 0.045020 0.045020
0.604300 0.045020 0.045020
1.000000 0.045020 0.045020
1.000000 0.045020 0.045020
1.000000 0.045020 0.045020
0.000000 0.173000 0.045020
0.007196 0.173000 0.045020
0.045020 0.173000 0.045020
0.173000 0.173000 0.045020
0.604300 0.173000 0.045020
1.000000 0.173000 0.045020
1.000000 0.173000 0.045020
1.000000 0.173000 0.045020
0.000000 0.604300 0.045020
0.007196 0.604300 0.045020
0.045020 0.604300 0.045020
0.173000 0.604300 0.045020
0.604300 0.604300 0.045020
1.000000 0.604300 0.045020
1.000000 0.604300 0.045020
1.000000 0.604300 0.045020
0.000000 1.000000 0.045020
0.007196 1.000000 0.045020
0.045020 1.000000 0.045020
0.173000 1.000000 0.045020
0.604300 1.000000 0.045020
1.000000 1.000000 0.045020
1.000000 1.000000 0.045020
1.000000 1.000000 0.045020
0.000000 1.000000 0.045020
0.007196 1.000000 0.045020
0.045020 1.000000 0.045020
0.173000 1.000000 0.045020
0.604300 1.000000 0.045020
1.000000 1.000000 0.045020
1.000000 1.000000 0.045020
1.000000 1.000000 0.045020
0.000000 1.000000 0.045020
0.007196 1.000000 0.045020
0.045020 1.000000 0.045020
0.173000 1.000000 0.045020
0.604300 1.000000 0.045020
1.000000 1.000000 0.045020
1.000000 1.000000 0.045020
1.000000 1.000000 0.045020
0.000000 0.000000 0.173000
0.007196 0.000000 0.173000
0.045020 0.000000 0.173000
0.173000 0.000000 0.173000
0.604300 0.000000 0.173000
1.000000 0.000000 0.173000
1.000000 0.000000 0.173000
1.000000 0.000000 0.173000
0.000000 0.007196 0.173000
0.007196 0.007196 0.173000
0.045020 0.007196 0.173000
0.173000 0.007196 0.173000
0.604300 0.007196 0.173000
1.000000 0.007196 0.173000
1.000000 0.007196 0.173000
1.000000 0.007196 0.173000
0.000000 0.045020 0.173000
0.007196 0.045020 0.173000
0.045020 0.045020 0.173000
0.173000 0.045020 0.173000
0.604300 0.045020 0.173000
1.000000 0.045020 0.173000
1.000000 0.045020 0.173000
1.000000 0.045020 0.173000
0.000000 0.173000 0.173000
0.007196 0.173000 0.173000
0.045020 0.173000 0.173000
0.173000 0.173000 0.173000
0.604300 0.173000 0.173000
1.000000 0.173000 0.173000
1.000000 0.173000 0.173000
1.000000 0.173000 0.173000
0.000000 0.604300 0.173000
0.007196 0.604300 0.173000
0.045020 0.604300 0.173000
0.173000 0.604300 0.173000
0.604300 0.604300 0.173000
1.000000 0.604300 0.173000
1.000000 0.604300 0.173000
1.000000 0.604300 0.173000
0.000000 1.000000 0.173000
0.007196 1.000000 0.173000
0.045020 1.000000 0.173000
0.173000 1.000000 0.173000
0.604300 1.000000 0.173000
1.000000 1.000000 0.173000
1.000000 1.000000 0.173000
1.000000 1.000000 0.173000
0.000000 1.000000 0.173000
0.007196 1.000000 0.173000
0.045020 1.000000 0.173000
0.173000 1.000000 0.173000
0.604300 1.000000 0.173000
1.000000 1.000000 0.173000
1.000000 1.000000 0.173000
1.000000 1.000000 0.173000
0.000000 1.000000 0.173000
0.007196 1.000000 0.173000
0.045020 1.000000 0.173000
0.173000 1.000000 0.173000
0.604300 1.000000 0.173000
1.000000 1.000000 0.173000
1.000000 1.000000 0.173000
1.000000 1.000000 0.173000
0.000000 0.000000 0.604300
0.007196 0.000000 0.604300
0.045020 0.000000 0.604300
0.173000 0.000000 0.604300
0.604300 0.000000 0.604300
1.000000 0.000000 0.604300
1.000000 0.000000 0.604300
1.000000 0.000000 0.604300
0.000000 0.007196 0.604300
0.007196 0.007196 0.604300
0.045020 0.007196 0.604300
0.173000 0.007196 0.604300
0.604300 0.007196 0.604300
1.000000 0.007196 0.604300
1.000000 0.007196 0.604300
1.000000 0.007196 0.604300
0.000000 0.045020 0.604300
0.007196 0.045020 0.604300
0.045020 0.045020 0.604300
0.173000 0.045020 0.604300
0.604300 0.045020 0.604300
1.000000 0.045020 0.604300
1.000000 0.045020 0.604300
1.000000 0.045020 0.604300
0.000000 0.173000 0.604300
0.007196 0.173000 0.604300
0.045020 0.173000 0.604300
0.173000 0.173000 0.604300
0.604300 0.173000 0.604300
1.000000 0.173000 0.604300
1.000000 0.173000 0.604300
1.000000 0.173000 0.604300
0.000000 0.604300 0.604300
0.007196 0.604300 0.604300
0.045020 0.604300 0.604300
0.173000 0.604300 0.604300
0.604300 0.604300 0.604300
1.000000 0.604300 0.604300
1.000000 0.604300 0.604300
1.000000 0.604300 0.604300
0.000000 1.000000 0.604300
0.007196 1.000000 0.604300
0.045020 1.000000 0.604300
0.173000 1.000000 0.604300
0.604300 1.000000 0.604300
1.000000 1.000000 0.604300
1.000000 1.000000 0.604300
1.000000 1.000000 0.604300
0.000000 1.000000 0.604300
0.007196 1.000000 0.604300
0.045020 1.000000 0.604300
0.173000 1.000000 0.604300
0.604300 1.000000 0.604300
1.000000 1.000000 0.604300
1.000000 1.000000 0.604300
1.000000 1.000000 0.604300
0.000000 1.000000 0.604300
0.007196 1.000000 0.604300
0.045020 1.000000 0.604300
0.173000 1.000000 0.604300
0.604300 1.000000 0.604300
1.000000 1.000000 0.604300
1.000000 1.000000 0.604300
1.000000 1.000000 0.604300
0.000000 0.000000 1.000000
0.007196 0.000000 1.000000
0.045020 0.000000 1.000000
0.173000 0.000000 1.000000
0.604300 0.000000 1.000000
1.000000 0.000000 1.000000
1.000000 0.000000 1.000000
1.000000 0.000000 1.000000
0.000000 0.007196 1.000000
0.007196 0.007196 1.000000
0.045020 0.007196 1.000000
0.173000 0.007196 1.000000
0.604300 0.007196 1.000000
1.000000 0.007196 1.000000
1.000000 0.007196 1.000000
1.000000 0.007196 1.000000
0.000000 0.045020 1.000000
0.007196 0.045020 1.000000
0.045020 0.045020 1.000000
0.173000 0.045020 1.000000
0.604300 0.045020 1.000000
1.000000 0.045020 1.000000
1.000000 0.045020 1.000000
1.000000 0.045020 1.000000
0.000000 0.173000 1.000000
0.007196 0.173000 1.000000
0.045020 0.173000 1.000000
0.173000 0.173000 1.000000
0.604300 0.173000 1.000000
1.000000 0.173000 1.000000
1.000000 0.173000 1.000000
1.000000 0.173000 1.000000
0.000000 0.604300 1.000000
0.007196 0.604300 1.000000
0.045020 0.604300 1.000000
0.173000 0.604300 1.000000
0.604300 0.604300 1.000000
1.000000 0.604300 1.000000
1.000000 0.604300 1.000000
1.000000 0.604300 1.000000
0.000000 1.000000 1.000000
0.007196 1.000000 1.000000
0.045020 1.000000 1.000000
0.173000 1.000000 1.000000
0.604300 1.000000 1.000000
1.000000 1.000000 1.000000
1.000000 1.000000 1.000000
1.000000 1.000000 1.000000
0.000000 1.000000 1.000000
0.007196 1.000000 1.000000
0.045020 1.000000 1.000000
0.173000 1.000000 1.000000
0.604300 1.000000 1.000000
1.000000 1.000000 1.000000
1.000000 1.000000 1.000000
1.000000 1.000000 1.000000
0.000000 1.000000 1.000000
0.007196 1.000000 1.000000
0.045020 1.000000 1.000000
0.173000 1.000000 1.000000
0.604300 1.000000 1.000000
1.000000 1.000000 1.000000
1.000000 1.000000 1.000000
1.000000 1.000000 1.000000
0.000000 0.000000 1.000000
0.007196 0.000000 1.000000
0.045020 0.000000 1.000000
0.173000 0.000000 1.000000
0.604300 0.000000 1.000000
1.000000 0.000000 1.000000
1.000000 0.000000 1.000000
1.000000 0.000000 1.000000
0.000000 0.007196 1.000000
0.007196 0.007196 1.000000
0.045020 0.007196 1.000000
0.173000 0.007196 1.000000
0.604300 0.007196 1.000000
1.000000 0.007196 1.000000
1.000000 0.007196 1.000000
1.000000 0.007196 1.000000
0.000000 0.045020 1.000000
0.007196 0.045020 1.000000
0.045020 0.045020 1.000000
0.173000 0.045020 1.000000
0.604300 0.045020 1.000000
1.000000 0.045020 1.000000
1.000000 0.045020 1.000000
1.000000 0.045020 1.000000
0.000000 0.173000 1.000000
0.007196 0.173000 1.000000
0.045020 0.173000 1.000000
0.173000 0.173000 1.000000
0.604300 0.173000 1.000000
1.000000 0.173000 1.000000
1.000000 0.173000 1.000000
1.000000 0.173000 1.000000
0.000000 0.604300 1.000000
0.007196 0.604300 1.000000
0.045020 0.604300 1.000000
0.173000 0.604300 1.000000
0.604300 0.604300 1.000000
1.000000 0.604300 1.000000
1.000000 0.604300 1.000000
1.000000 0.604300 1.000000
0.000000 1.000000 1.000000
0.007196 1.000000 1.000000
0.045020 1.000000 1.000000
0.173000 1.000000 1.000000
0.604300 1.000000 1.000000
1.000000 1.000000 1.000000
1.000000 1.000000 1.000000
1.000000 1.000000 1.000000
0.000000 1.000000 1.000000
0.007196 1.000000 1.000000
0.045020 1.000000 1.000000
0.173000 1.000000 1.000000
0.604300 1.000000 1.000000
1.000000 1.000000 1.000000
1.000000 1.000000 1.000000
1.000000 1.000000 1.000000
0.000000 1.000000 1.000000
0.007196 1.000000 1.000000
0.045020 1.000000 1.000000
0.173000 1.000000 1.000000
0.604300 1.000000 1.000000
1.000000 1.000000 1.000000
1.000000 1.000000 1.000000
1.000000 1.000000 1.000000
0.000000 0.000000 1.000000
0.007196 0.000000 1.000000
0.045020 0.000000 1.000000
0.173000 0.000000 1.000000
0.604300 0.000000 1.000000
1.000000 0.000000 1.000000
1.000000 0.000000 1.000000
1.000000 0.000000 1.000000
0.000000 0.007196 1.000000
0.007196 0.007196 1.000000
0.045020 0.007196 1.000000
0.173000 0.007196 1.000000
0.604300 0.007196 1.000000
1.000000 0.007196 1.000000
1.000000 0.007196 1.000000
1.000000 0.007196 1.000000
0.000000 0.045020 1.000000
0.007196 0.045020 1.000000
0.045020 0.045020 1.000000
0.173000 0.045020 1.000000
0.604300 0.045020 1.000000
1.000000 0.045020 1.000000
1.000000 0.045020 1.000000
1.000000 0.045020 1.000000
0.000000 0.173000 1.000000
0.007196 0.173000 1.000000
0.045020 0.173000 1.000000
0.173000 0.173000 1.000000
0.604300 0.173000 1.000000
1.000000 0.173000 1.000000
1.000000 0.173000 1.000000
1.000000 0.173000 1.000000
0.000000 0.604300 1.000000
0.007196 0.604300 1.000000
0.045020 0.604300 1.000000
0.173000 0.604300 1.000000
0.604300 0.604300 1.000000
1.000000 0.604300 1.000000
1.000000 0.604300 1.000000
1.000000 0.604300 1.000000
0.000000 1.000000 1.000000
0.007196 1.000000 1.000000
0.045020 1.000000 1.000000
0.173000 1.000000 1.000000
0.604300 1.000000 1.000000
1.000000 1.000000 1.000000
1.000000 1.000000 1.000000
1.000000 1.000000 1.000000
0.000000 1.000000 1.000000
0.007196 1.000000 1.000000
0.045020 1.000000 1.000000
0.173000 1.000000 1.000000
0.604300 1.000000 1.000000
1.000000 1.000000 1.000000
1.000000 1.000000 1.000000
1.000000 1.000000 1.000000
0.000000 1.000000 1.000000
0.007196 1.000000 1.000000
0.045020 1.000000 1.000000
0.173000 1.000000 1.000000
0.604300 1.000000 1.000000
1.000000 1.000000 1.000000
1.000000 1.000000 1.000000
1.000000 1.000000 1.000000
