unity/caldemo/Assets/linearize_chromatic.cube
TITLE "cube/linearize_chromatic.cube"
LUT_3D_SIZE 5
DOMAIN_MIN 0.000000 0.000000 0.000000
DOMAIN_MAX 0.903226 0.903226 0.903226
0.000000 0.000000 0.010898
0.097429 0.000000 0.010898
0.470192 0.000000 0.010898
1.000000 0.000000 0.010898
1.000000 0.000000 0.010898
0.000000 0.143263 0.010898
0.097429 0.143263 0.010898
0.470192 0.143263 0.010898
1.000000 0.143263 0.010898
1.000000 0.143263 0.010898
0.000000 0.532449 0.010898
0.097429 0.532449 0.010898
0.470192 0.532449 0.010898
1.000000 0.532449 0.010898
1.000000 0.532449 0.010898
0.000000 1.000000 0.010898
0.097429 1.000000 0.010898
0.470192 1.000000 0.010898
1.000000 1.000000 0.010898
1.000000 1.000000 0.010898
0.000000 1.000000 0.010898
0.097429 1.000000 0.010898
0.470192 1.000000 0.010898
1.000000 1.000000 0.010898
1.000000 1.000000 0.010898
0.000000 0.000000 0.180502
0.097429 0.000000 0.180502
0.470192 0.000000 0.180502
1.000000 0.000000 0.180502
1.000000 0.000000 0.180502
0.000000 0.143263 0.180502
0.097429 0.143263 0.180502
0.470192 0.143263 0.180502
1.000000 0.143263 0.180502
1.000000 0.143263 0.180502
0.000000 0.532449 0.180502
0.097429 0.532449 0.180502
0.470192 0.532449 0.180502
1.000000 0.532449 0.180502
1.000000 0.532449 0.180502
0.000000 1.000000 0.180502
0.097429 1.000000 0.180502
0.470192 1.000000 0.180502
1.000000 1.000000 0.180502
1.000000 1.000000 0.180502
0.000000 1.000000 0.180502
0.097429 1.000000 0.180502
0.470192 1.000000 0.180502
1.000000 1.000000 0.180502
1.000000 1.000000 0.180502
0.000000 0.000000 0.562384
0.097429 0.000000 0.562384
0.470192 0.000000 0.562384
1.000000 0.000000 0.562384
1.000000 0.000000 0.562384
0.000000 0.143263 0.562384
0.097429 0.143263 0.562384
0.470192 0.143263 0.562384
1.000000 0.143263 0.562384
1.000000 0.143263 0.562384
0.000000 0.532449 0.562384
0.097429 0.532449 0.562384
0.470192 0.532449 0.562384
1.000000 0.532449 0.562384
1.000000 0.532449 0.562384
0.000000 1.000000 0.562384
0.097429 1.000000 0.562384
0.470192 1.000000 0.562384
1.000000 1.000000 0.562384
1.000000 1.000000 0.562384
0.000000 1.000000 0.562384
0.097429 1.000000 0.562384
0.470192 1.000000 0.562384
1.000000 1.000000 0.562384
1.000000 1.000000 0.562384
0.000000 0.000000 1.000000
0.097429 0.000000 1.000000
0.470192 0.000000 1.000000
1.000000 0.000000 1.000000
1.000000 0.000000 1.000000
0.000000 0.143263 1.000000
0.097429 0.143263 1.000000
0.470192 0.143263 1.000000
1.000000 0.143263 1.000000
1.000000 0.143263 1.000000
0.000000 0.532449 1.000000
0.097429 0.532449 1.000000
0.470192 0.532449 1.000000
1.000000 0.532449 1.000000
1.000000 0.532449 1.000000
0.000000 1.000000 1.000000
0.097429 1.000000 1.000000
0.470192 1.000000 1.000000
1.000000 1.000000 1.000000
1.000000 1.000000 1.000000
0.000000 1.000000 1.000000
0.097429 1.000000 1.000000
0.470192 1.000000 1.000000
1.000000 1.000000 1.000000
1.000000 1.000000 1.000000
0.000000 0.000000 1.000000
0.097429 0.000000 1.000000
0.470192 0.000000 1.000000
1.000000 0.000000 1.000000
1.000000 0.000000 1.000000
0.000000 0.143263 1.000000
0.097429 0.143263 1.000000
0.470192 0.143263 1.000000
1.000000 0.143263 1.000000
1.000000 0.143263 1.000000
0.000000 0.532449 1.000000
0.097429 0.532449 1.000000
0.470192 0.532449 1.000000
1.000000 0.532449 1.000000
1.000000 0.532449 1.000000
0.000000 1.000000 1.000000
0.097429 1.000000 1.000000
0.470192 1.000000 1.000000
1.000000 1.000000 1.000000
1.000000 1.000000 1.000000
0.000000 1.000000 1.000000
0.097429 1.000000 1.000000
0.470192 1.000000 1.000000
1.000000 1.000000 1.000000
1.000000 1.000000 1.000000
