unity/caldemo/Assets/linearize_achromatic.cube
TITLE "cube/linearize_achromatic.cube"
LUT_3D_SIZE 5
DOMAIN_MIN 0.000000 0.000000 0.000000
DOMAIN_MAX 0.903226 0.903226 0.903226
0.002552 0.002552 0.002552
0.158550 0.002552 0.002552
0.552889 0.002552 0.002552
1.000000 0.002552 0.002552
1.000000 0.002552 0.002552
0.002552 0.158550 0.002552
0.158550 0.158550 0.002552
0.552889 0.158550 0.002552
1.000000 0.158550 0.002552
1.000000 0.158550 0.002552
0.002552 0.552889 0.002552
0.158550 0.552889 0.002552
0.552889 0.552889 0.002552
1.000000 0.552889 0.002552
1.000000 0.552889 0.002552
0.002552 1.000000 0.002552
0.158550 1.000000 0.002552
0.552889 1.000000 0.002552
1.000000 1.000000 0.002552
1.000000 1.000000 0.002552
0.002552 1.000000 0.002552
0.158550 1.000000 0.002552
0.552889 1.000000 0.002552
1.000000 1.000000 0.002552
1.000000 1.000000 0.002552
0.002552 0.002552 0.158550
0.158550 0.002552 0.158550
0.552889 0.002552 0.158550
1.000000 0.002552 0.158550
1.000000 0.002552 0.158550
0.002552 0.158550 0.158550
0.158550 0.158550 0.158550
0.552889 0.158550 0.158550
1.000000 0.158550 0.158550
1.000000 0.158550 0.158550
0.002552 0.552889 0.158550
0.158550 0.552889 0.158550
0.552889 0.552889 0.158550
1.000000 0.552889 0.158550
1.000000 0.552889 0.158550
0.002552 1.000000 0.158550
0.158550 1.000000 0.158550
0.552889 1.000000 0.158550
1.000000 1.000000 0.158550
1.000000 1.000000 0.158550
0.002552 1.000000 0.158550
0.158550 1.000000 0.158550
0.552889 1.000000 0.158550
1.000000 1.000000 0.158550
1.000000 1.000000 0.158550
0.002552 0.002552 0.552889
0.158550 0.002552 0.552889
0.552889 0.002552 0.552889
1.000000 0.002552 0.552889
1.000000 0.002552 0.552889
0.002552 0.158550 0.552889
0.158550 0.158550 0.552889
0.552889 0.158550 0.552889
1.000000 0.158550 0.552889
1.000000 0.158550 0.552889
0.002552 0.552889 0.552889
0.158550 0.552889 0.552889
0.552889 0.552889 0.552889
1.000000 0.552889 0.552889
1.000000 0.552889 0.552889
0.002552 1.000000 0.552889
0.158550 1.000000 0.552889
0.552889 1.000000 0.552889
1.000000 1.000000 0.552889
1.000000 1.000000 0.552889
0.002552 1.000000 0.552889
0.158550 1.000000 0.552889
0.552889 1.000000 0.552889
1.000000 1.000000 0.552889
1.000000 1.000000 0.552889
0.002552 0.002552 1.000000
0.158550 0.002552 1.000000
0.552889 0.002552 1.000000
1.000000 0.002552 1.000000
1.000000 0.002552 1.000000
0.002552 0.158550 1.000000
0.158550 0.158550 1.000000
0.552889 0.158550 1.000000
1.000000 0.158550 1.000000
1.000000 0.158550 1.000000
0.002552 0.552889 1.000000
0.158550 0.552889 1.000000
0.552889 0.552889 1.000000
1.000000 0.552889 1.000000
1.000000 0.552889 1.000000
0.002552 1.000000 1.000000
0.158550 1.000000 1.000000
0.552889 1.000000 1.000000
1.000000 1.000000 1.000000
1.000000 1.000000 1.000000
0.002552 1.000000 1.000000
0.158550 1.000000 1.000000
0.552889 1.000000 1.000000
1.000000 1.000000 1.000000
1.000000 1.000000 1.000000
0.002552 0.002552 1.000000
0.158550 0.002552 1.000000
0.552889 0.002552 1.000000
1.000000 0.002552 1.000000
1.000000 0.002552 1.000000
0.002552 0.158550 1.000000
0.158550 0.158550 1.000000
0.552889 0.158550 1.000000
1.000000 0.158550 1.000000
1.000000 0.158550 1.000000
0.002552 0.552889 1.000000
0.158550 0.552889 1.000000
0.552889 0.552889 1.000000
1.000000 0.552889 1.000000
1.000000 0.552889 1.000000
0.002552 1.000000 1.000000
0.158550 1.000000 1.000000
0.552889 1.000000 1.000000
1.000000 1.000000 1.000000
1.000000 1.000000 1.000000
0.002552 1.000000 1.000000
0.158550 1.000000 1.000000
0.552889 1.000000 1.000000
1.000000 1.000000 1.000000
1.000000 1.000000 1.000000
