unity/caldemo/Assets/linearize_chromatic.cube
TITLE "cube/linearize_chromatic.cube"
LUT_3D_SIZE 32
DOMAIN_MIN 0.0 0.0 0.0
DOMAIN_MAX 1.0 1.0 1.0
0.000000 0.000000 0.010898
0.000000 0.000000 0.010898
0.000000 0.000000 0.010898
0.000000 0.000000 0.010898
0.031887 0.000000 0.010898
0.051836 0.000000 0.010898
0.072901 0.000000 0.010898
0.097429 0.000000 0.010898
0.125639 0.000000 0.010898
0.160000 0.000000 0.010898
0.199468 0.000000 0.010898
0.248855 0.000000 0.010898
0.308042 0.000000 0.010898
0.380602 0.000000 0.010898
0.470192 0.000000 0.010898
0.577643 0.000000 0.010898
0.713011 0.000000 0.010898
0.877138 0.000000 0.010898
1.072813 0.000000 0.010898
1.000000 0.000000 0.010898
1.000000 0.000000 0.010898
1.000000 0.000000 0.010898
1.000000 0.000000 0.010898
1.000000 0.000000 0.010898
1.000000 0.000000 0.010898
1.000000 0.000000 0.010898
1.000000 0.000000 0.010898
1.000000 0.000000 0.010898
1.000000 0.000000 0.010898
1.000000 0.000000 0.010898
1.000000 0.000000 0.010898
1.000000 0.000000 0.010898
0.000000 0.000000 0.010898
0.000000 0.000000 0.010898
0.000000 0.000000 0.010898
0.000000 0.000000 0.010898
0.031887 0.000000 0.010898
0.051836 0.000000 0.010898
0.072901 0.000000 0.010898
0.097429 0.000000 0.010898
0.125639 0.000000 0.010898
0.160000 0.000000 0.010898
0.199468 0.000000 0.010898
0.248855 0.000000 0.010898
0.308042 0.000000 0.010898
0.380602 0.000000 0.010898
0.470192 0.000000 0.010898
0.577643 0.000000 0.010898
0.713011 0.000000 0.010898
0.877138 0.000000 0.010898
1.072813 0.000000 0.010898
1.000000 0.000000 0.010898
1.000000 0.000000 0.010898
1.000000 0.000000 0.010898
1.000000 0.000000 0.010898
1.000000 0.000000 0.010898
1.000000 0.000000 0.010898
1.000000 0.000000 0.010898
1.000000 0.000000 0.010898
1.000000 0.000000 0.010898
1.000000 0.000000 0.010898
1.000000 0.000000 0.010898
1.000000 0.000000 0.010898
1.000000 0.000000 0.010898
0.000000 0.000000 0.010898
0.000000 0.000000 0.010898
0.000000 0.000000 0.010898
0.000000 0.000000 0.010898
0.031887 0.000000 0.010898
0.051836 0.000000 0.010898
0.072901 0.000000 0.010898
0.097429 0.000000 0.010898
0.125639 0.000000 0.010898
0.160000 0.000000 0.010898
0.199468 0.000000 0.010898
0.248855 0.000000 0.010898
0.308042 0.000000 0.010898
0.380602 0.000000 0.010898
0.470192 0.000000 0.010898
0.577643 0.000000 0.010898
0.713011 0.000000 0.010898
0.877138 0.000000 0.010898
1.072813 0.000000 0.010898
1.000000 0.000000 0.010898
1.000000 0.000000 0.010898
1.000000 0.000000 0.010898
1.000000 0.000000 0.010898
1.000000 0.000000 0.010898
1.000000 0.000000 0.010898
1.000000 0.000000 0.010898
1.000000 0.000000 0.010898
1.000000 0.000000 0.010898
1.000000 0.000000 0.010898
1.000000 0.000000 0.010898
1.000000 0.000000 0.010898
1.000000 0.000000 0.010898
0.000000 0.023278 0.010898
0.000000 0.023278 0.010898
0.000000 0.023278 0.010898
0.000000 0.023278 0.010898
0.031887 0.023278 0.010898
0.051836 0.023278 0.010898
0.072901 0.023278 0.010898
0.097429 0.023278 0.010898
0.125639 0.023278 0.010898
0.160000 0.023278 0.010898
0.199468 0.023278 0.010898
0.248855 0.023278 0.010898
0.308042 0.023278 0.010898
0.380602 0.023278 0.010898
0.470192 0.023278 0.010898
0.577643 0.023278 0.010898
0.713011 0.023278 0.010898
0.877138 0.023278 0.010898
1.072813 0.023278 0.010898
1.000000 0.023278 0.010898
1.000000 0.023278 0.010898
1.000000 0.023278 0.010898
1.000000 0.023278 0.010898
1.000000 0.023278 0.010898
1.000000 0.023278 0.010898
1.000000 0.023278 0.010898
1.000000 0.023278 0.010898
1.000000 0.023278 0.010898
1.000000 0.023278 0.010898
1.000000 0.023278 0.010898
1.000000 0.023278 0.010898
1.000000 0.023278 0.010898
0.000000 0.059906 0.010898
0.000000 0.059906 0.010898
0.000000 0.059906 0.010898
0.000000 0.059906 0.010898
0.031887 0.059906 0.010898
0.051836 0.059906 0.010898
0.072901 0.059906 0.010898
0.097429 0.059906 0.010898
0.125639 0.059906 0.010898
0.160000 0.059906 0.010898
0.199468 0.059906 0.010898
0.248855 0.059906 0.010898
0.308042 0.059906 0.010898
0.380602 0.059906 0.010898
0.470192 0.059906 0.010898
0.577643 0.059906 0.010898
0.713011 0.059906 0.010898
0.877138 0.059906 0.010898
1.072813 0.059906 0.010898
1.000000 0.059906 0.010898
1.000000 0.059906 0.010898
1.000000 0.059906 0.010898
1.000000 0.059906 0.010898
1.000000 0.059906 0.010898
1.000000 0.059906 0.010898
1.000000 0.059906 0.010898
1.000000 0.059906 0.010898
1.000000 0.059906 0.010898
1.000000 0.059906 0.010898
1.000000 0.059906 0.010898
1.000000 0.059906 0.010898
1.000000 0.059906 0.010898
0.000000 0.086160 0.010898
0.000000 0.086160 0.010898
0.000000 0.086160 0.010898
0.000000 0.086160 0.010898
0.031887 0.086160 0.010898
0.051836 0.086160 0.010898
0.072901 0.086160 0.010898
0.097429 0.086160 0.010898
0.125639 0.086160 0.010898
0.160000 0.086160 0.010898
0.199468 0.086160 0.010898
0.248855 0.086160 0.010898
0.308042 0.086160 0.010898
0.380602 0.086160 0.010898
0.470192 0.086160 0.010898
0.577643 0.086160 0.010898
0.713011 0.086160 0.010898
0.877138 0.086160 0.010898
1.072813 0.086160 0.010898
1.000000 0.086160 0.010898
1.000000 0.086160 0.010898
1.000000 0.086160 0.010898
1.000000 0.086160 0.010898
1.000000 0.086160 0.010898
1.000000 0.086160 0.010898
1.000000 0.086160 0.010898
1.000000 0.086160 0.010898
1.000000 0.086160 0.010898
1.000000 0.086160 0.010898
1.000000 0.086160 0.010898
1.000000 0.086160 0.010898
1.000000 0.086160 0.010898
0.000000 0.113013 0.010898
0.000000 0.113013 0.010898
0.000000 0.113013 0.010898
0.000000 0.113013 0.010898
0.031887 0.113013 0.010898
0.051836 0.113013 0.010898
0.072901 0.113013 0.010898
0.097429 0.113013 0.010898
0.125639 0.113013 0.010898
0.160000 0.113013 0.010898
0.199468 0.113013 0.010898
0.248855 0.113013 0.010898
0.308042 0.113013 0.010898
0.380602 0.113013 0.010898
0.470192 0.113013 0.010898
0.577643 0.113013 0.010898
0.713011 0.113013 0.010898
0.877138 0.113013 0.010898
1.072813 0.113013 0.010898
1.000000 0.113013 0.010898
1.000000 0.113013 0.010898
1.000000 0.113013 0.010898
1.000000 0.113013 0.010898
1.000000 0.113013 0.010898
1.000000 0.113013 0.010898
1.000000 0.113013 0.010898
1.000000 0.113013 0.010898
1.000000 0.113013 0.010898
1.000000 0.113013 0.010898
1.000000 0.113013 0.010898
1.000000 0.113013 0.010898
1.000000 0.113013 0.010898
0.000000 0.143263 0.010898
0.000000 0.143263 0.010898
0.000000 0.143263 0.010898
0.000000 0.143263 0.010898
0.031887 0.143263 0.010898
0.051836 0.143263 0.010898
0.072901 0.143263 0.010898
0.097429 0.143263 0.010898
0.125639 0.143263 0.010898
0.160000 0.143263 0.010898
0.199468 0.143263 0.010898
0.248855 0.143263 0.010898
0.308042 0.143263 0.010898
0.380602 0.143263 0.010898
0.470192 0.143263 0.010898
0.577643 0.143263 0.010898
0.713011 0.143263 0.010898
0.877138 0.143263 0.010898
1.072813 0.143263 0.010898
1.000000 0.143263 0.010898
1.000000 0.143263 0.010898
1.000000 0.143263 0.010898
1.000000 0.143263 0.010898
1.000000 0.143263 0.010898
1.000000 0.143263 0.010898
1.000000 0.143263 0.010898
1.000000 0.143263 0.010898
1.000000 0.143263 0.010898
1.000000 0.143263 0.010898
1.000000 0.143263 0.010898
1.000000 0.143263 0.010898
1.000000 0.143263 0.010898
0.000000 0.176886 0.010898
0.000000 0.176886 0.010898
0.000000 0.176886 0.010898
0.000000 0.176886 0.010898
0.031887 0.176886 0.010898
0.051836 0.176886 0.010898
0.072901 0.176886 0.010898
0.097429 0.176886 0.010898
0.125639 0.176886 0.010898
0.160000 0.176886 0.010898
0.199468 0.176886 0.010898
0.248855 0.176886 0.010898
0.308042 0.176886 0.010898
0.380602 0.176886 0.010898
0.470192 0.176886 0.010898
0.577643 0.176886 0.010898
0.713011 0.176886 0.010898
0.877138 0.176886 0.010898
1.072813 0.176886 0.010898
1.000000 0.176886 0.010898
1.000000 0.176886 0.010898
1.000000 0.176886 0.010898
1.000000 0.176886 0.010898
1.000000 0.176886 0.010898
1.000000 0.176886 0.010898
1.000000 0.176886 0.010898
1.000000 0.176886 0.010898
1.000000 0.176886 0.010898
1.000000 0.176886 0.010898
1.000000 0.176886 0.010898
1.000000 0.176886 0.010898
1.000000 0.176886 0.010898
0.000000 0.216237 0.010898
0.000000 0.216237 0.010898
0.000000 0.216237 0.010898
0.000000 0.216237 0.010898
0.031887 0.216237 0.010898
0.051836 0.216237 0.010898
0.072901 0.216237 0.010898
0.097429 0.216237 0.010898
0.125639 0.216237 0.010898
0.160000 0.216237 0.010898
0.199468 0.216237 0.010898
0.248855 0.216237 0.010898
0.308042 0.216237 0.010898
0.380602 0.216237 0.010898
0.470192 0.216237 0.010898
0.577643 0.216237 0.010898
0.713011 0.216237 0.010898
0.877138 0.216237 0.010898
1.072813 0.216237 0.010898
1.000000 0.216237 0.010898
1.000000 0.216237 0.010898
1.000000 0.216237 0.010898
1.000000 0.216237 0.010898
1.000000 0.216237 0.010898
1.000000 0.216237 0.010898
1.000000 0.216237 0.010898
1.000000 0.216237 0.010898
1.000000 0.216237 0.010898
1.000000 0.216237 0.010898
1.000000 0.216237 0.010898
1.000000 0.216237 0.010898
1.000000 0.216237 0.010898
0.000000 0.259869 0.010898
0.000000 0.259869 0.010898
0.000000 0.259869 0.010898
0.000000 0.259869 0.010898
0.031887 0.259869 0.010898
0.051836 0.259869 0.010898
0.072901 0.259869 0.010898
0.097429 0.259869 0.010898
0.125639 0.259869 0.010898
0.160000 0.259869 0.010898
0.199468 0.259869 0.010898
0.248855 0.259869 0.010898
0.308042 0.259869 0.010898
0.380602 0.259869 0.010898
0.470192 0.259869 0.010898
0.577643 0.259869 0.010898
0.713011 0.259869 0.010898
0.877138 0.259869 0.010898
1.072813 0.259869 0.010898
1.000000 0.259869 0.010898
1.000000 0.259869 0.010898
1.000000 0.259869 0.010898
1.000000 0.259869 0.010898
1.000000 0.259869 0.010898
1.000000 0.259869 0.010898
1.000000 0.259869 0.010898
1.000000 0.259869 0.010898
1.000000 0.259869 0.010898
1.000000 0.259869 0.010898
1.000000 0.259869 0.010898
1.000000 0.259869 0.010898
1.000000 0.259869 0.010898
0.000000 0.312702 0.010898
0.000000 0.312702 0.010898
0.000000 0.312702 0.010898
0.000000 0.312702 0.010898
0.031887 0.312702 0.010898
0.051836 0.312702 0.010898
0.072901 0.312702 0.010898
0.097429 0.312702 0.010898
0.125639 0.312702 0.010898
0.160000 0.312702 0.010898
0.199468 0.312702 0.010898
0.248855 0.312702 0.010898
0.308042 0.312702 0.010898
0.380602 0.312702 0.010898
0.470192 0.312702 0.010898
0.577643 0.312702 0.010898
0.713011 0.312702 0.010898
0.877138 0.312702 0.010898
1.072813 0.312702 0.010898
1.000000 0.312702 0.010898
1.000000 0.312702 0.010898
1.000000 0.312702 0.010898
1.000000 0.312702 0.010898
1.000000 0.312702 0.010898
1.000000 0.312702 0.010898
1.000000 0.312702 0.010898
1.000000 0.312702 0.010898
1.000000 0.312702 0.010898
1.000000 0.312702 0.010898
1.000000 0.312702 0.010898
1.000000 0.312702 0.010898
1.000000 0.312702 0.010898
0.000000 0.373771 0.010898
0.000000 0.373771 0.010898
0.000000 0.373771 0.010898
0.000000 0.373771 0.010898
0.031887 0.373771 0.010898
0.051836 0.373771 0.010898
0.072901 0.373771 0.010898
0.097429 0.373771 0.010898
0.125639 0.373771 0.010898
0.160000 0.373771 0.010898
0.199468 0.373771 0.010898
0.248855 0.373771 0.010898
0.308042 0.373771 0.010898
0.380602 0.373771 0.010898
0.470192 0.373771 0.010898
0.577643 0.373771 0.010898
0.713011 0.373771 0.010898
0.877138 0.373771 0.010898
1.072813 0.373771 0.010898
1.000000 0.373771 0.010898
1.000000 0.373771 0.010898
1.000000 0.373771 0.010898
1.000000 0.373771 0.010898
1.000000 0.373771 0.010898
1.000000 0.373771 0.010898
1.000000 0.373771 0.010898
1.000000 0.373771 0.010898
1.000000 0.373771 0.010898
1.000000 0.373771 0.010898
1.000000 0.373771 0.010898
1.000000 0.373771 0.010898
1.000000 0.373771 0.010898
0.000000 0.446157 0.010898
0.000000 0.446157 0.010898
0.000000 0.446157 0.010898
0.000000 0.446157 0.010898
0.031887 0.446157 0.010898
0.051836 0.446157 0.010898
0.072901 0.446157 0.010898
0.097429 0.446157 0.010898
0.125639 0.446157 0.010898
0.160000 0.446157 0.010898
0.199468 0.446157 0.010898
0.248855 0.446157 0.010898
0.308042 0.446157 0.010898
0.380602 0.446157 0.010898
0.470192 0.446157 0.010898
0.577643 0.446157 0.010898
0.713011 0.446157 0.010898
0.877138 0.446157 0.010898
1.072813 0.446157 0.010898
1.000000 0.446157 0.010898
1.000000 0.446157 0.010898
1.000000 0.446157 0.010898
1.000000 0.446157 0.010898
1.000000 0.446157 0.010898
1.000000 0.446157 0.010898
1.000000 0.446157 0.010898
1.000000 0.446157 0.010898
1.000000 0.446157 0.010898
1.000000 0.446157 0.010898
1.000000 0.446157 0.010898
1.000000 0.446157 0.010898
1.000000 0.446157 0.010898
0.000000 0.532449 0.010898
0.000000 0.532449 0.010898
0.000000 0.532449 0.010898
0.000000 0.532449 0.010898
0.031887 0.532449 0.010898
0.051836 0.532449 0.010898
0.072901 0.532449 0.010898
0.097429 0.532449 0.010898
0.125639 0.532449 0.010898
0.160000 0.532449 0.010898
0.199468 0.532449 0.010898
0.248855 0.532449 0.010898
0.308042 0.532449 0.010898
0.380602 0.532449 0.010898
0.470192 0.532449 0.010898
0.577643 0.532449 0.010898
0.713011 0.532449 0.010898
0.877138 0.532449 0.010898
1.072813 0.532449 0.010898
1.000000 0.532449 0.010898
1.000000 0.532449 0.010898
1.000000 0.532449 0.010898
1.000000 0.532449 0.010898
1.000000 0.532449 0.010898
1.000000 0.532449 0.010898
1.000000 0.532449 0.010898
1.000000 0.532449 0.010898
1.000000 0.532449 0.010898
1.000000 0.532449 0.010898
1.000000 0.532449 0.010898
1.000000 0.532449 0.010898
1.000000 0.532449 0.010898
0.000000 0.632456 0.010898
0.000000 0.632456 0.010898
0.000000 0.632456 0.010898
0.000000 0.632456 0.010898
0.031887 0.632456 0.010898
0.051836 0.632456 0.010898
0.072901 0.632456 0.010898
0.097429 0.632456 0.010898
0.125639 0.632456 0.010898
0.160000 0.632456 0.010898
0.199468 0.632456 0.010898
0.248855 0.632456 0.010898
0.308042 0.632456 0.010898
0.380602 0.632456 0.010898
0.470192 0.632456 0.010898
0.577643 0.632456 0.010898
0.713011 0.632456 0.010898
0.877138 0.632456 0.010898
1.072813 0.632456 0.010898
1.000000 0.632456 0.010898
1.000000 0.632456 0.010898
1.000000 0.632456 0.010898
1.000000 0.632456 0.010898
1.000000 0.632456 0.010898
1.000000 0.632456 0.010898
1.000000 0.632456 0.010898
1.000000 0.632456 0.010898
1.000000 0.632456 0.010898
1.000000 0.632456 0.010898
1.000000 0.632456 0.010898
1.000000 0.632456 0.010898
1.000000 0.632456 0.010898
0.000000 0.754222 0.010898
0.000000 0.754222 0.010898
0.000000 0.754222 0.010898
0.000000 0.754222 0.010898
0.031887 0.754222 0.010898
0.051836 0.754222 0.010898
0.072901 0.754222 0.010898
0.097429 0.754222 0.010898
0.125639 0.754222 0.010898
0.160000 0.754222 0.010898
0.199468 0.754222 0.010898
0.248855 0.754222 0.010898
0.308042 0.754222 0.010898
0.380602 0.754222 0.010898
0.470192 0.754222 0.010898
0.577643 0.754222 0.010898
0.713011 0.754222 0.010898
0.877138 0.754222 0.010898
1.072813 0.754222 0.010898
1.000000 0.754222 0.010898
1.000000 0.754222 0.010898
1.000000 0.754222 0.010898
1.000000 0.754222 0.010898
1.000000 0.754222 0.010898
1.000000 0.754222 0.010898
1.000000 0.754222 0.010898
1.000000 0.754222 0.010898
1.000000 0.754222 0.010898
1.000000 0.754222 0.010898
1.000000 0.754222 0.010898
1.000000 0.754222 0.010898
1.000000 0.754222 0.010898
0.000000 0.896609 0.010898
0.000000 0.896609 0.010898
0.000000 0.896609 0.010898
0.000000 0.896609 0.010898
0.031887 0.896609 0.010898
0.051836 0.896609 0.010898
0.072901 0.896609 0.010898
0.097429 0.896609 0.010898
0.125639 0.896609 0.010898
0.160000 0.896609 0.010898
0.199468 0.896609 0.010898
0.248855 0.896609 0.010898
0.308042 0.896609 0.010898
0.380602 0.896609 0.010898
0.470192 0.896609 0.010898
0.577643 0.896609 0.010898
0.713011 0.896609 0.010898
0.877138 0.896609 0.010898
1.072813 0.896609 0.010898
1.000000 0.896609 0.010898
1.000000 0.896609 0.010898
1.000000 0.896609 0.010898
1.000000 0.896609 0.010898
1.000000 0.896609 0.010898
1.000000 0.896609 0.010898
1.000000 0.896609 0.010898
1.000000 0.896609 0.010898
1.000000 0.896609 0.010898
1.000000 0.896609 0.010898
1.000000 0.896609 0.010898
1.000000 0.896609 0.010898
1.000000 0.896609 0.010898
0.000000 1.061444 0.010898
0.000000 1.061444 0.010898
0.000000 1.061444 0.010898
0.000000 1.061444 0.010898
0.031887 1.061444 0.010898
0.051836 1.061444 0.010898
0.072901 1.061444 0.010898
0.097429 1.061444 0.010898
0.125639 1.061444 0.010898
0.160000 1.061444 0.010898
0.199468 1.061444 0.010898
0.248855 1.061444 0.010898
0.308042 1.061444 0.010898
0.380602 1.061444 0.010898
0.470192 1.061444 0.010898
0.577643 1.061444 0.010898
0.713011 1.061444 0.010898
0.877138 1.061444 0.010898
1.072813 1.061444 0.010898
1.000000 1.061444 0.010898
1.000000 1.061444 0.010898
1.000000 1.061444 0.010898
1.000000 1.061444 0.010898
1.000000 1.061444 0.010898
1.000000 1.061444 0.010898
1.000000 1.061444 0.010898
1.000000 1.061444 0.010898
1.000000 1.061444 0.010898
1.000000 1.061444 0.010898
1.000000 1.061444 0.010898
1.000000 1.061444 0.010898
1.000000 1.061444 0.010898
0.000000 1.000000 0.010898
0.000000 1.000000 0.010898
0.000000 1.000000 0.010898
0.000000 1.000000 0.010898
0.031887 1.000000 0.010898
0.051836 1.000000 0.010898
0.072901 1.000000 0.010898
0.097429 1.000000 0.010898
0.125639 1.000000 0.010898
0.160000 1.000000 0.010898
0.199468 1.000000 0.010898
0.248855 1.000000 0.010898
0.308042 1.000000 0.010898
0.380602 1.000000 0.010898
0.470192 1.000000 0.010898
0.577643 1.000000 0.010898
0.713011 1.000000 0.010898
0.877138 1.000000 0.010898
1.072813 1.000000 0.010898
1.000000 1.000000 0.010898
1.000000 1.000000 0.010898
1.000000 1.000000 0.010898
1.000000 1.000000 0.010898
1.000000 1.000000 0.010898
1.000000 1.000000 0.010898
1.000000 1.000000 0.010898
1.000000 1.000000 0.010898
1.000000 1.000000 0.010898
1.000000 1.000000 0.010898
1.000000 1.000000 0.010898
1.000000 1.000000 0.010898
1.000000 1.000000 0.010898
0.000000 1.000000 0.010898
0.000000 1.000000 0.010898
0.000000 1.000000 0.010898
0.000000 1.000000 0.010898
0.031887 1.000000 0.010898
0.051836 1.000000 0.010898
0.072901 1.000000 0.010898
0.097429 1.000000 0.010898
0.125639 1.000000 0.010898
0.160000 1.000000 0.010898
0.199468 1.000000 0.010898
0.248855 1.000000 0.010898
0.308042 1.000000 0.010898
0.380602 1.000000 0.010898
0.470192 1.000000 0.010898
0.577643 1.000000 0.010898
0.713011 1.000000 0.010898
0.877138 1.000000 0.010898
1.072813 1.000000 0.010898
1.000000 1.000000 0.010898
1.000000 1.000000 0.010898
1.000000 1.000000 0.010898
1.000000 1.000000 0.010898
1.000000 1.000000 0.010898
1.000000 1.000000 0.010898
1.000000 1.000000 0.010898
1.000000 1.000000 0.010898
1.000000 1.000000 0.010898
1.000000 1.000000 0.010898
1.000000 1.000000 0.010898
1.000000 1.000000 0.010898
1.000000 1.000000 0.010898
0.000000 1.000000 0.010898
0.000000 1.000000 0.010898
0.000000 1.000000 0.010898
0.000000 1.000000 0.010898
0.031887 1.000000 0.010898
0.051836 1.000000 0.010898
0.072901 1.000000 0.010898
0.097429 1.000000 0.010898
0.125639 1.000000 0.010898
0.160000 1.000000 0.010898
0.199468 1.000000 0.010898
0.248855 1.000000 0.010898
0.308042 1.000000 0.010898
0.380602 1.000000 0.010898
0.470192 1.000000 0.010898
0.577643 1.000000 0.010898
0.713011 1.000000 0.010898
0.877138 1.000000 0.010898
1.072813 1.000000 0.010898
1.000000 1.000000 0.010898
1.000000 1.000000 0.010898
1.000000 1.000000 0.010898
1.000000 1.000000 0.010898
1.000000 1.000000 0.010898
1.000000 1.000000 0.010898
1.000000 1.000000 0.010898
1.000000 1.000000 0.010898
1.000000 1.000000 0.010898
1.000000 1.000000 0.010898
1.000000 1.000000 0.010898
1.000000 1.000000 0.010898
1.000000 1.000000 0.010898
0.000000 1.000000 0.010898
0.000000 1.000000 0.010898
0.000000 1.000000 0.010898
0.000000 1.000000 0.010898
0.031887 1.000000 0.010898
0.051836 1.000000 0.010898
0.072901 1.000000 0.010898
0.097429 1.000000 0.010898
0.125639 1.000000 0.010898
0.160000 1.000000 0.010898
0.199468 1.000000 0.010898
0.248855 1.000000 0.010898
0.308042 1.000000 0.010898
0.380602 1.000000 0.010898
0.470192 1.000000 0.010898
0.577643 1.000000 0.010898
0.713011 1.000000 0.010898
0.877138 1.000000 0.010898
1.072813 1.000000 0.010898
1.000000 1.000000 0.010898
1.000000 1.000000 0.010898
1.000000 1.000000 0.010898
1.000000 1.000000 0.010898
1.000000 1.000000 0.010898
1.000000 1.000000 0.010898
1.000000 1.000000 0.010898
1.000000 1.000000 0.010898
1.000000 1.000000 0.010898
1.000000 1.000000 0.010898
1.000000 1.000000 0.010898
1.000000 1.000000 0.010898
1.000000 1.000000 0.010898
0.000000 1.000000 0.010898
0.000000 1.000000 0.010898
0.000000 1.000000 0.010898
0.000000 1.000000 0.010898
0.031887 1.000000 0.010898
0.051836 1.000000 0.010898
0.072901 1.000000 0.010898
0.097429 1.000000 0.010898
0.125639 1.000000 0.010898
0.160000 1.000000 0.010898
0.199468 1.000000 0.010898
0.248855 1.000000 0.010898
0.308042 1.000000 0.010898
0.380602 1.000000 0.010898
0.470192 1.000000 0.010898
0.577643 1.000000 0.010898
0.713011 1.000000 0.010898
0.877138 1.000000 0.010898
1.072813 1.000000 0.010898
1.000000 1.000000 0.010898
1.000000 1.000000 0.010898
1.000000 1.000000 0.010898
1.000000 1.000000 0.010898
1.000000 1.000000 0.010898
1.000000 1.000000 0.010898
1.000000 1.000000 0.010898
1.000000 1.000000 0.010898
1.000000 1.000000 0.010898
1.000000 1.000000 0.010898
1.000000 1.000000 0.010898
1.000000 1.000000 0.010898
1.000000 1.000000 0.010898
0.000000 1.000000 0.010898
0.000000 1.000000 0.010898
0.000000 1.000000 0.010898
0.000000 1.000000 0.010898
0.031887 1.000000 0.010898
0.051836 1.000000 0.010898
0.072901 1.000000 0.010898
0.097429 1.000000 0.010898
0.125639 1.000000 0.010898
0.160000 1.000000 0.010898
0.199468 1.000000 0.010898
0.248855 1.000000 0.010898
0.308042 1.000000 0.010898
0.380602 1.000000 0.010898
0.470192 1.000000 0.010898
0.577643 1.000000 0.010898
0.713011 1.000000 0.010898
0.877138 1.000000 0.010898
1.072813 1.000000 0.010898
1.000000 1.000000 0.010898
1.000000 1.000000 0.010898
1.000000 1.000000 0.010898
1.000000 1.000000 0.010898
1.000000 1.000000 0.010898
1.000000 1.000000 0.010898
1.000000 1.000000 0.010898
1.000000 1.000000 0.010898
1.000000 1.000000 0.010898
1.000000 1.000000 0.010898
1.000000 1.000000 0.010898
1.000000 1.000000 0.010898
1.000000 1.000000 0.010898
0.000000 1.000000 0.010898
0.000000 1.000000 0.010898
0.000000 1.000000 0.010898
0.000000 1.000000 0.010898
0.031887 1.000000 0.010898
0.051836 1.000000 0.010898
0.072901 1.000000 0.010898
0.097429 1.000000 0.010898
0.125639 1.000000 0.010898
0.160000 1.000000 0.010898
0.199468 1.000000 0.010898
0.248855 1.000000 0.010898
0.308042 1.000000 0.010898
0.380602 1.000000 0.010898
0.470192 1.000000 0.010898
0.577643 1.000000 0.010898
0.713011 1.000000 0.010898
0.877138 1.000000 0.010898
1.072813 1.000000 0.010898
1.000000 1.000000 0.010898
1.000000 1.000000 0.010898
1.000000 1.000000 0.010898
1.000000 1.000000 0.010898
1.000000 1.000000 0.010898
1.000000 1.000000 0.010898
1.000000 1.000000 0.010898
1.000000 1.000000 0.010898
1.000000 1.000000 0.010898
1.000000 1.000000 0.010898
1.000000 1.000000 0.010898
1.000000 1.000000 0.010898
1.000000 1.000000 0.010898
0.000000 1.000000 0.010898
0.000000 1.000000 0.010898
0.000000 1.000000 0.010898
0.000000 1.000000 0.010898
0.031887 1.000000 0.010898
0.051836 1.000000 0.010898
0.072901 1.000000 0.010898
0.097429 1.000000 0.010898
0.125639 1.000000 0.010898
0.160000 1.000000 0.010898
0.199468 1.000000 0.010898
0.248855 1.000000 0.010898
0.308042 1.000000 0.010898
0.380602 1.000000 0.010898
0.470192 1.000000 0.010898
0.577643 1.000000 0.010898
0.713011 1.000000 0.010898
0.877138 1.000000 0.010898
1.072813 1.000000 0.010898
1.000000 1.000000 0.010898
1.000000 1.000000 0.010898
1.000000 1.000000 0.010898
1.000000 1.000000 0.010898
1.000000 1.000000 0.010898
1.000000 1.000000 0.010898
1.000000 1.000000 0.010898
1.000000 1.000000 0.010898
1.000000 1.000000 0.010898
1.000000 1.000000 0.010898
1.000000 1.000000 0.010898
1.000000 1.000000 0.010898
1.000000 1.000000 0.010898
0.000000 1.000000 0.010898
0.000000 1.000000 0.010898
0.000000 1.000000 0.010898
0.000000 1.000000 0.010898
0.031887 1.000000 0.010898
0.051836 1.000000 0.010898
0.072901 1.000000 0.010898
0.097429 1.000000 0.010898
0.125639 1.000000 0.010898
0.160000 1.000000 0.010898
0.199468 1.000000 0.010898
0.248855 1.000000 0.010898
0.308042 1.000000 0.010898
0.380602 1.000000 0.010898
0.470192 1.000000 0.010898
0.577643 1.000000 0.010898
0.713011 1.000000 0.010898
0.877138 1.000000 0.010898
1.072813 1.000000 0.010898
1.000000 1.000000 0.010898
1.000000 1.000000 0.010898
