unity/caldemo/Assets/linearize_achromatic.cube
TITLE "cube/linearize_achromatic.cube"
LUT_3D_SIZE 32
DOMAIN_MIN 0.0 0.0 0.0
DOMAIN_MAX 1.0 1.0 1.0
0.002552 0.002552 0.002552
0.002552 0.002552 0.002552
0.002552 0.002552 0.002552
0.002552 0.002552 0.002552
0.057300 0.002552 0.002552
0.093751 0.002552 0.002552
0.124540 0.002552 0.002552
0.158550 0.002552 0.002552
0.194978 0.002552 0.002552
0.236418 0.002552 0.002552
0.281518 0.002552 0.002552
0.335292 0.002552 0.002552
0.396561 0.002552 0.002552
0.468316 0.002552 0.002552
0.552889 0.002552 0.002552
0.649899 0.002552 0.002552
0.766886 0.002552 0.002552
0.902375 0.002552 0.002552
1.058055 0.002552 0.002552
1.000000 0.002552 0.002552
1.000000 0.002552 0.002552
1.000000 0.002552 0.002552
1.000000 0.002552 0.002552
1.000000 0.002552 0.002552
1.000000 0.002552 0.002552
1.000000 0.002552 0.002552
1.000000 0.002552 0.002552
1.000000 0.002552 0.002552
1.000000 0.002552 0.002552
1.000000 0.002552 0.002552
1.000000 0.002552 0.002552
1.000000 0.002552 0.002552
0.002552 0.002552 0.002552
0.002552 0.002552 0.002552
0.002552 0.002552 0.002552
0.002552 0.002552 0.002552
0.057300 0.002552 0.002552
0.093751 0.002552 0.002552
0.124540 0.002552 0.002552
0.158550 0.002552 0.002552
0.194978 0.002552 0.002552
0.236418 0.002552 0.002552
0.281518 0.002552 0.002552
0.335292 0.002552 0.002552
0.396561 0.002552 0.002552
0.468316 0.002552 0.002552
0.552889 0.002552 0.002552
0.649899 0.002552 0.002552
0.766886 0.002552 0.002552
0.902375 0.002552 0.002552
1.058055 0.002552 0.002552
1.000000 0.002552 0.002552
1.000000 0.002552 0.002552
1.000000 0.002552 0.002552
1.000000 0.002552 0.002552
1.000000 0.002552 0.002552
1.000000 0.002552 0.002552
1.000000 0.002552 0.002552
1.000000 0.002552 0.002552
1.000000 0.002552 0.002552
1.000000 0.002552 0.002552
1.000000 0.002552 0.002552
1.000000 0.002552 0.002552
1.000000 0.002552 0.002552
0.002552 0.002552 0.002552
0.002552 0.002552 0.002552
0.002552 0.002552 0.002552
0.002552 0.002552 0.002552
0.057300 0.002552 0.002552
0.093751 0.002552 0.002552
0.124540 0.002552 0.002552
0.158550 0.002552 0.002552
0.194978 0.002552 0.002552
0.236418 0.002552 0.002552
0.281518 0.002552 0.002552
0.335292 0.002552 0.002552
0.396561 0.002552 0.002552
0.468316 0.002552 0.002552
0.552889 0.002552 0.002552
0.649899 0.002552 0.002552
0.766886 0.002552 0.002552
0.902375 0.002552 0.002552
1.058055 0.002552 0.002552
1.000000 0.002552 0.002552
1.000000 0.002552 0.002552
1.000000 0.002552 0.002552
1.000000 0.002552 0.002552
1.000000 0.002552 0.002552
1.000000 0.002552 0.002552
1.000000 0.002552 0.002552
1.000000 0.002552 0.002552
1.000000 0.002552 0.002552
1.000000 0.002552 0.002552
1.000000 0.002552 0.002552
1.000000 0.002552 0.002552
1.000000 0.002552 0.002552
0.002552 0.002552 0.002552
0.002552 0.002552 0.002552
0.002552 0.002552 0.002552
0.002552 0.002552 0.002552
0.057300 0.002552 0.002552
0.093751 0.002552 0.002552
0.124540 0.002552 0.002552
0.158550 0.002552 0.002552
0.194978 0.002552 0.002552
0.236418 0.002552 0.002552
0.281518 0.002552 0.002552
0.335292 0.002552 0.002552
0.396561 0.002552 0.002552
0.468316 0.002552 0.002552
0.552889 0.002552 0.002552
0.649899 0.002552 0.002552
0.766886 0.002552 0.002552
0.902375 0.002552 0.002552
1.058055 0.002552 0.002552
1.000000 0.002552 0.002552
1.000000 0.002552 0.002552
1.000000 0.002552 0.002552
1.000000 0.002552 0.002552
1.000000 0.002552 0.002552
1.000000 0.002552 0.002552
1.000000 0.002552 0.002552
1.000000 0.002552 0.002552
1.000000 0.002552 0.002552
1.000000 0.002552 0.002552
1.000000 0.002552 0.002552
1.000000 0.002552 0.002552
1.000000 0.002552 0.002552
0.002552 0.057300 0.002552
0.002552 0.057300 0.002552
0.002552 0.057300 0.002552
0.002552 0.057300 0.002552
0.057300 0.057300 0.002552
0.093751 0.057300 0.002552
0.124540 0.057300 0.002552
0.158550 0.057300 0.002552
0.194978 0.057300 0.002552
0.236418 0.057300 0.002552
0.281518 0.057300 0.002552
0.335292 0.057300 0.002552
0.396561 0.057300 0.002552
0.468316 0.057300 0.002552
0.552889 0.057300 0.002552
0.649899 0.057300 0.002552
0.766886 0.057300 0.002552
0.902375 0.057300 0.002552
1.058055 0.057300 0.002552
1.000000 0.057300 0.002552
1.000000 0.057300 0.002552
1.000000 0.057300 0.002552
1.000000 0.057300 0.002552
1.000000 0.057300 0.002552
1.000000 0.057300 0.002552
1.000000 0.057300 0.002552
1.000000 0.057300 0.002552
1.000000 0.057300 0.002552
1.000000 0.057300 0.002552
1.000000 0.057300 0.002552
1.000000 0.057300 0.002552
1.000000 0.057300 0.002552
0.002552 0.093751 0.002552
0.002552 0.093751 0.002552
0.002552 0.093751 0.002552
0.002552 0.093751 0.002552
0.057300 0.093751 0.002552
0.093751 0.093751 0.002552
0.124540 0.093751 0.002552
0.158550 0.093751 0.002552
0.194978 0.093751 0.002552
0.236418 0.093751 0.002552
0.281518 0.093751 0.002552
0.335292 0.093751 0.002552
0.396561 0.093751 0.002552
0.468316 0.093751 0.002552
0.552889 0.093751 0.002552
0.649899 0.093751 0.002552
0.766886 0.093751 0.002552
0.902375 0.093751 0.002552
1.058055 0.093751 0.002552
1.000000 0.093751 0.002552
1.000000 0.093751 0.002552
1.000000 0.093751 0.002552
1.000000 0.093751 0.002552
1.000000 0.093751 0.002552
1.000000 0.093751 0.002552
1.000000 0.093751 0.002552
1.000000 0.093751 0.002552
1.000000 0.093751 0.002552
1.000000 0.093751 0.002552
1.000000 0.093751 0.002552
1.000000 0.093751 0.002552
1.000000 0.093751 0.002552
0.002552 0.124540 0.002552
0.002552 0.124540 0.002552
0.002552 0.124540 0.002552
0.002552 0.124540 0.002552
0.057300 0.124540 0.002552
0.093751 0.124540 0.002552
0.124540 0.124540 0.002552
0.158550 0.124540 0.002552
0.194978 0.124540 0.002552
0.236418 0.124540 0.002552
0.281518 0.124540 0.002552
0.335292 0.124540 0.002552
0.396561 0.124540 0.002552
0.468316 0.124540 0.002552
0.552889 0.124540 0.002552
0.649899 0.124540 0.002552
0.766886 0.124540 0.002552
0.902375 0.124540 0.002552
1.058055 0.124540 0.002552
1.000000 0.124540 0.002552
1.000000 0.124540 0.002552
1.000000 0.124540 0.002552
1.000000 0.124540 0.002552
1.000000 0.124540 0.002552
1.000000 0.124540 0.002552
1.000000 0.124540 0.002552
1.000000 0.124540 0.002552
1.000000 0.124540 0.002552
1.000000 0.124540 0.002552
1.000000 0.124540 0.002552
1.000000 0.124540 0.002552
1.000000 0.124540 0.002552
0.002552 0.158550 0.002552
0.002552 0.158550 0.002552
0.002552 0.158550 0.002552
0.002552 0.158550 0.002552
0.057300 0.158550 0.002552
0.093751 0.158550 0.002552
0.124540 0.158550 0.002552
0.158550 0.158550 0.002552
0.194978 0.158550 0.002552
0.236418 0.158550 0.002552
0.281518 0.158550 0.002552
0.335292 0.158550 0.002552
0.396561 0.158550 0.002552
0.468316 0.158550 0.002552
0.552889 0.158550 0.002552
0.649899 0.158550 0.002552
0.766886 0.158550 0.002552
0.902375 0.158550 0.002552
1.058055 0.158550 0.002552
1.000000 0.158550 0.002552
1.000000 0.158550 0.002552
1.000000 0.158550 0.002552
1.000000 0.158550 0.002552
1.000000 0.158550 0.002552
1.000000 0.158550 0.002552
1.000000 0.158550 0.002552
1.000000 0.158550 0.002552
1.000000 0.158550 0.002552
1.000000 0.158550 0.002552
1.000000 0.158550 0.002552
1.000000 0.158550 0.002552
1.000000 0.158550 0.002552
0.002552 0.194978 0.002552
0.002552 0.194978 0.002552
0.002552 0.194978 0.002552
0.002552 0.194978 0.002552
0.057300 0.194978 0.002552
0.093751 0.194978 0.002552
0.124540 0.194978 0.002552
0.158550 0.194978 0.002552
0.194978 0.194978 0.002552
0.236418 0.194978 0.002552
0.281518 0.194978 0.002552
0.335292 0.194978 0.002552
0.396561 0.194978 0.002552
0.468316 0.194978 0.002552
0.552889 0.194978 0.002552
0.649899 0.194978 0.002552
0.766886 0.194978 0.002552
0.902375 0.194978 0.002552
1.058055 0.194978 0.002552
1.000000 0.194978 0.002552
1.000000 0.194978 0.002552
1.000000 0.194978 0.002552
1.000000 0.194978 0.002552
1.000000 0.194978 0.002552
1.000000 0.194978 0.002552
1.000000 0.194978 0.002552
1.000000 0.194978 0.002552
1.000000 0.194978 0.002552
1.000000 0.194978 0.002552
1.000000 0.194978 0.002552
1.000000 0.194978 0.002552
1.000000 0.194978 0.002552
0.002552 0.236418 0.002552
0.002552 0.236418 0.002552
0.002552 0.236418 0.002552
0.002552 0.236418 0.002552
0.057300 0.236418 0.002552
0.093751 0.236418 0.002552
0.124540 0.236418 0.002552
0.158550 0.236418 0.002552
0.194978 0.236418 0.002552
0.236418 0.236418 0.002552
0.281518 0.236418 0.002552
0.335292 0.236418 0.002552
0.396561 0.236418 0.002552
0.468316 0.236418 0.002552
0.552889 0.236418 0.002552
0.649899 0.236418 0.002552
0.766886 0.236418 0.002552
0.902375 0.236418 0.002552
1.058055 0.236418 0.002552
1.000000 0.236418 0.002552
1.000000 0.236418 0.002552
1.000000 0.236418 0.002552
1.000000 0.236418 0.002552
1.000000 0.236418 0.002552
1.000000 0.236418 0.002552
1.000000 0.236418 0.002552
1.000000 0.236418 0.002552
1.000000 0.236418 0.002552
1.000000 0.236418 0.002552
1.000000 0.236418 0.002552
1.000000 0.236418 0.002552
1.000000 0.236418 0.002552
0.002552 0.281518 0.002552
0.002552 0.281518 0.002552
0.002552 0.281518 0.002552
0.002552 0.281518 0.002552
0.057300 0.281518 0.002552
0.093751 0.281518 0.002552
0.124540 0.281518 0.002552
0.158550 0.281518 0.002552
0.194978 0.281518 0.002552
0.236418 0.281518 0.002552
0.281518 0.281518 0.002552
0.335292 0.281518 0.002552
0.396561 0.281518 0.002552
0.468316 0.281518 0.002552
0.552889 0.281518 0.002552
0.649899 0.281518 0.002552
0.766886 0.281518 0.002552
0.902375 0.281518 0.002552
1.058055 0.281518 0.002552
1.000000 0.281518 0.002552
1.000000 0.281518 0.002552
1.000000 0.281518 0.002552
1.000000 0.281518 0.002552
1.000000 0.281518 0.002552
1.000000 0.281518 0.002552
1.000000 0.281518 0.002552
1.000000 0.281518 0.002552
1.000000 0.281518 0.002552
1.000000 0.281518 0.002552
1.000000 0.281518 0.002552
1.000000 0.281518 0.002552
1.000000 0.281518 0.002552
0.002552 0.335292 0.002552
0.002552 0.335292 0.002552
0.002552 0.335292 0.002552
0.002552 0.335292 0.002552
0.057300 0.335292 0.002552
0.093751 0.335292 0.002552
0.124540 0.335292 0.002552
0.158550 0.335292 0.002552
0.194978 0.335292 0.002552
0.236418 0.335292 0.002552
0.281518 0.335292 0.002552
0.335292 0.335292 0.002552
0.396561 0.335292 0.002552
0.468316 0.335292 0.002552
0.552889 0.335292 0.002552
0.649899 0.335292 0.002552
0.766886 0.335292 0.002552
0.902375 0.335292 0.002552
1.058055 0.335292 0.002552
1.000000 0.335292 0.002552
1.000000 0.335292 0.002552
1.000000 0.335292 0.002552
1.000000 0.335292 0.002552
1.000000 0.335292 0.002552
1.000000 0.335292 0.002552
1.000000 0.335292 0.002552
1.000000 0.335292 0.002552
1.000000 0.335292 0.002552
1.000000 0.335292 0.002552
1.000000 0.335292 0.002552
1.000000 0.335292 0.002552
1.000000 0.335292 0.002552
0.002552 0.396561 0.002552
0.002552 0.396561 0.002552
0.002552 0.396561 0.002552
0.002552 0.396561 0.002552
0.057300 0.396561 0.002552
0.093751 0.396561 0.002552
0.124540 0.396561 0.002552
0.158550 0.396561 0.002552
0.194978 0.396561 0.002552
0.236418 0.396561 0.002552
0.281518 0.396561 0.002552
0.335292 0.396561 0.002552
0.396561 0.396561 0.002552
0.468316 0.396561 0.002552
0.552889 0.396561 0.002552
0.649899 0.396561 0.002552
0.766886 0.396561 0.002552
0.902375 0.396561 0.002552
1.058055 0.396561 0.002552
1.000000 0.396561 0.002552
1.000000 0.396561 0.002552
1.000000 0.396561 0.002552
1.000000 0.396561 0.002552
1.000000 0.396561 0.002552
1.000000 0.396561 0.002552
1.000000 0.396561 0.002552
1.000000 0.396561 0.002552
1.000000 0.396561 0.002552
1.000000 0.396561 0.002552
1.000000 0.396561 0.002552
1.000000 0.396561 0.002552
1.000000 0.396561 0.002552
0.002552 0.468316 0.002552
0.002552 0.468316 0.002552
0.002552 0.468316 0.002552
0.002552 0.468316 0.002552
0.057300 0.468316 0.002552
0.093751 0.468316 0.002552
0.124540 0.468316 0.002552
0.158550 0.468316 0.002552
0.194978 0.468316 0.002552
0.236418 0.468316 0.002552
0.281518 0.468316 0.002552
0.335292 0.468316 0.002552
0.396561 0.468316 0.002552
0.468316 0.468316 0.002552
0.552889 0.468316 0.002552
0.649899 0.468316 0.002552
0.766886 0.468316 0.002552
0.902375 0.468316 0.002552
1.058055 0.468316 0.002552
1.000000 0.468316 0.002552
1.000000 0.468316 0.002552
1.000000 0.468316 0.002552
1.000000 0.468316 0.002552
1.000000 0.468316 0.002552
1.000000 0.468316 0.002552
1.000000 0.468316 0.002552
1.000000 0.468316 0.002552
1.000000 0.468316 0.002552
1.000000 0.468316 0.002552
1.000000 0.468316 0.002552
1.000000 0.468316 0.002552
1.000000 0.468316 0.002552
0.002552 0.552889 0.002552
0.002552 0.552889 0.002552
0.002552 0.552889 0.002552
0.002552 0.552889 0.002552
0.057300 0.552889 0.002552
0.093751 0.552889 0.002552
0.124540 0.552889 0.002552
0.158550 0.552889 0.002552
0.194978 0.552889 0.002552
0.236418 0.552889 0.002552
0.281518 0.552889 0.002552
0.335292 0.552889 0.002552
0.396561 0.552889 0.002552
0.468316 0.552889 0.002552
0.552889 0.552889 0.002552
0.649899 0.552889 0.002552
0.766886 0.552889 0.002552
0.902375 0.552889 0.002552
1.058055 0.552889 0.002552
1.000000 0.552889 0.002552
1.000000 0.552889 0.002552
1.000000 0.552889 0.002552
1.000000 0.552889 0.002552
1.000000 0.552889 0.002552
1.000000 0.552889 0.002552
1.000000 0.552889 0.002552
1.000000 0.552889 0.002552
1.000000 0.552889 0.002552
1.000000 0.552889 0.002552
1.000000 0.552889 0.002552
1.000000 0.552889 0.002552
1.000000 0.552889 0.002552
0.002552 0.649899 0.002552
0.002552 0.649899 0.002552
0.002552 0.649899 0.002552
0.002552 0.649899 0.002552
0.057300 0.649899 0.002552
0.093751 0.649899 0.002552
0.124540 0.649899 0.002552
0.158550 0.649899 0.002552
0.194978 0.649899 0.002552
0.236418 0.649899 0.002552
0.281518 0.649899 0.002552
0.335292 0.649899 0.002552
0.396561 0.649899 0.002552
0.468316 0.649899 0.002552
0.552889 0.649899 0.002552
0.649899 0.649899 0.002552
0.766886 0.649899 0.002552
0.902375 0.649899 0.002552
1.058055 0.649899 0.002552
1.000000 0.649899 0.002552
1.000000 0.649899 0.002552
1.000000 0.649899 0.002552
1.000000 0.649899 0.002552
1.000000 0.649899 0.002552
1.000000 0.649899 0.002552
1.000000 0.649899 0.002552
1.000000 0.649899 0.002552
1.000000 0.649899 0.002552
1.000000 0.649899 0.002552
1.000000 0.649899 0.002552
1.000000 0.649899 0.002552
1.000000 0.649899 0.002552
0.002552 0.766886 0.002552
0.002552 0.766886 0.002552
0.002552 0.766886 0.002552
0.002552 0.766886 0.002552
0.057300 0.766886 0.002552
0.093751 0.766886 0.002552
0.124540 0.766886 0.002552
0.158550 0.766886 0.002552
0.194978 0.766886 0.002552
0.236418 0.766886 0.002552
0.281518 0.766886 0.002552
0.335292 0.766886 0.002552
0.396561 0.766886 0.002552
0.468316 0.766886 0.002552
0.552889 0.766886 0.002552
0.649899 0.766886 0.002552
0.766886 0.766886 0.002552
0.902375 0.766886 0.002552
1.058055 0.766886 0.002552
1.000000 0.766886 0.002552
1.000000 0.766886 0.002552
1.000000 0.766886 0.002552
1.000000 0.766886 0.002552
1.000000 0.766886 0.002552
1.000000 0.766886 0.002552
1.000000 0.766886 0.002552
1.000000 0.766886 0.002552
1.000000 0.766886 0.002552
1.000000 0.766886 0.002552
1.000000 0.766886 0.002552
1.000000 0.766886 0.002552
1.000000 0.766886 0.002552
0.002552 0.902375 0.002552
0.002552 0.902375 0.002552
0.002552 0.902375 0.002552
0.002552 0.902375 0.002552
0.057300 0.902375 0.002552
0.093751 0.902375 0.002552
0.124540 0.902375 0.002552
0.158550 0.902375 0.002552
0.194978 0.902375 0.002552
0.236418 0.902375 0.002552
0.281518 0.902375 0.002552
0.335292 0.902375 0.002552
0.396561 0.902375 0.002552
0.468316 0.902375 0.002552
0.552889 0.902375 0.002552
0.649899 0.902375 0.002552
0.766886 0.902375 0.002552
0.902375 0.902375 0.002552
1.058055 0.902375 0.002552
1.000000 0.902375 0.002552
1.000000 0.902375 0.002552
1.000000 0.902375 0.002552
1.000000 0.902375 0.002552
1.000000 0.902375 0.002552
1.000000 0.902375 0.002552
1.000000 0.902375 0.002552
1.000000 0.902375 0.002552
1.000000 0.902375 0.002552
1.000000 0.902375 0.002552
1.000000 0.902375 0.002552
1.000000 0.902375 0.002552
1.000000 0.902375 0.002552
0.002552 1.058055 0.002552
0.002552 1.058055 0.002552
0.002552 1.058055 0.002552
0.002552 1.058055 0.002552
0.057300 1.058055 0.002552
0.093751 1.058055 0.002552
0.124540 1.058055 0.002552
0.158550 1.058055 0.002552
0.194978 1.058055 0.002552
0.236418 1.058055 0.002552
0.281518 1.058055 0.002552
0.335292 1.058055 0.002552
0.396561 1.058055 0.002552
0.468316 1.058055 0.002552
0.552889 1.058055 0.002552
0.649899 1.058055 0.002552
0.766886 1.058055 0.002552
0.902375 1.058055 0.002552
1.058055 1.058055 0.002552
1.000000 1.058055 0.002552
1.000000 1.058055 0.002552
1.000000 1.058055 0.002552
1.000000 1.058055 0.002552
1.000000 1.058055 0.002552
1.000000 1.058055 0.002552
1.000000 1.058055 0.002552
1.000000 1.058055 0.002552
1.000000 1.058055 0.002552
1.000000 1.058055 0.002552
1.000000 1.058055 0.002552
1.000000 1.058055 0.002552
1.000000 1.058055 0.002552
0.002552 1.000000 0.002552
0.002552 1.000000 0.002552
0.002552 1.000000 0.002552
0.002552 1.000000 0.002552
0.057300 1.000000 0.002552
0.093751 1.000000 0.002552
0.124540 1.000000 0.002552
0.158550 1.000000 0.002552
0.194978 1.000000 0.002552
0.236418 1.000000 0.002552
0.281518 1.000000 0.002552
0.335292 1.000000 0.002552
0.396561 1.000000 0.002552
0.468316 1.000000 0.002552
0.552889 1.000000 0.002552
0.649899 1.000000 0.002552
0.766886 1.000000 0.002552
0.902375 1.000000 0.002552
1.058055 1.000000 0.002552
1.000000 1.000000 0.002552
1.000000 1.000000 0.002552
1.000000 1.000000 0.002552
1.000000 1.000000 0.002552
1.000000 1.000000 0.002552
1.000000 1.000000 0.002552
1.000000 1.000000 0.002552
1.000000 1.000000 0.002552
1.000000 1.000000 0.002552
1.000000 1.000000 0.002552
1.000000 1.000000 0.002552
1.000000 1.000000 0.002552
1.000000 1.000000 0.002552
0.002552 1.000000 0.002552
0.002552 1.000000 0.002552
0.002552 1.000000 0.002552
0.002552 1.000000 0.002552
0.057300 1.000000 0.002552
0.093751 1.000000 0.002552
0.124540 1.000000 0.002552
0.158550 1.000000 0.002552
0.194978 1.000000 0.002552
0.236418 1.000000 0.002552
0.281518 1.000000 0.002552
0.335292 1.000000 0.002552
0.396561 1.000000 0.002552
0.468316 1.000000 0.002552
0.552889 1.000000 0.002552
0.649899 1.000000 0.002552
0.766886 1.000000 0.002552
0.902375 1.000000 0.002552
1.058055 1.000000 0.002552
1.000000 1.000000 0.002552
1.000000 1.000000 0.002552
1.000000 1.000000 0.002552
1.000000 1.000000 0.002552
1.000000 1.000000 0.002552
1.000000 1.000000 0.002552
1.000000 1.000000 0.002552
1.000000 1.000000 0.002552
1.000000 1.000000 0.002552
1.000000 1.000000 0.002552
1.000000 1.000000 0.002552
1.000000 1.000000 0.002552
1.000000 1.000000 0.002552
0.002552 1.000000 0.002552
0.002552 1.000000 0.002552
0.002552 1.000000 0.002552
0.002552 1.000000 0.002552
0.057300 1.000000 0.002552
0.093751 1.000000 0.002552
0.124540 1.000000 0.002552
0.158550 1.000000 0.002552
0.194978 1.000000 0.002552
0.236418 1.000000 0.002552
0.281518 1.000000 0.002552
0.335292 1.000000 0.002552
0.396561 1.000000 0.002552
0.468316 1.000000 0.002552
0.552889 1.000000 0.002552
0.649899 1.000000 0.002552
0.766886 1.000000 0.002552
0.902375 1.000000 0.002552
1.058055 1.000000 0.002552
1.000000 1.000000 0.002552
1.000000 1.000000 0.002552
1.000000 1.000000 0.002552
1.000000 1.000000 0.002552
1.000000 1.000000 0.002552
1.000000 1.000000 0.002552
1.000000 1.000000 0.002552
1.000000 1.000000 0.002552
1.000000 1.000000 0.002552
1.000000 1.000000 0.002552
1.000000 1.000000 0.002552
1.000000 1.000000 0.002552
1.000000 1.000000 0.002552
0.002552 1.000000 0.002552
0.002552 1.000000 0.002552
0.002552 1.000000 0.002552
0.002552 1.000000 0.002552
0.057300 1.000000 0.002552
0.093751 1.000000 0.002552
0.124540 1.000000 0.002552
0.158550 1.000000 0.002552
0.194978 1.000000 0.002552
0.236418 1.000000 0.002552
0.281518 1.000000 0.002552
0.335292 1.000000 0.002552
0.396561 1.000000 0.002552
0.468316 1.000000 0.002552
0.552889 1.000000 0.002552
0.649899 1.000000 0.002552
0.766886 1.000000 0.002552
0.902375 1.000000 0.002552
1.058055 1.000000 0.002552
1.000000 1.000000 0.002552
1.000000 1.000000 0.002552
1.000000 1.000000 0.002552
1.000000 1.000000 0.002552
1.000000 1.000000 0.002552
1.000000 1.000000 0.002552
1.000000 1.000000 0.002552
1.000000 1.000000 0.002552
1.000000 1.000000 0.002552
1.000000 1.000000 0.002552
1.000000 1.000000 0.002552
1.000000 1.000000 0.002552
1.000000 1.000000 0.002552
0.002552 1.000000 0.002552
0.002552 1.000000 0.002552
0.002552 1.000000 0.002552
0.002552 1.000000 0.002552
0.057300 1.000000 0.002552
0.093751 1.000000 0.002552
0.124540 1.000000 0.002552
0.158550 1.000000 0.002552
0.194978 1.000000 0.002552
0.236418 1.000000 0.002552
0.281518 1.000000 0.002552
0.335292 1.000000 0.002552
0.396561 1.000000 0.002552
0.468316 1.000000 0.002552
0.552889 1.000000 0.002552
0.649899 1.000000 0.002552
0.766886 1.000000 0.002552
0.902375 1.000000 0.002552
1.058055 1.000000 0.002552
1.000000 1.000000 0.002552
1.000000 1.000000 0.002552
1.000000 1.000000 0.002552
1.000000 1.000000 0.002552
1.000000 1.000000 0.002552
1.000000 1.000000 0.002552
1.000000 1.000000 0.002552
1.000000 1.000000 0.002552
1.000000 1.000000 0.002552
1.000000 1.000000 0.002552
1.000000 1.000000 0.002552
1.000000 1.000000 0.002552
1.000000 1.000000 0.002552
0.002552 1.000000 0.002552
0.002552 1.000000 0.002552
0.002552 1.000000 0.002552
0.002552 1.000000 0.002552
0.057300 1.000000 0.002552
0.093751 1.000000 0.002552
0.124540 1.000000 0.002552
0.158550 1.000000 0.002552
0.194978 1.000000 0.002552
0.236418 1.000000 0.002552
0.281518 1.000000 0.002552
0.335292 1.000000 0.002552
0.396561 1.000000 0.002552
0.468316 1.000000 0.002552
0.552889 1.000000 0.002552
0.649899 1.000000 0.002552
0.766886 1.000000 0.002552
0.902375 1.000000 0.002552
1.058055 1.000000 0.002552
1.000000 1.000000 0.002552
1.000000 1.000000 0.002552
1.000000 1.000000 0.002552
1.000000 1.000000 0.002552
1.000000 1.000000 0.002552
1.000000 1.000000 0.002552
1.000000 1.000000 0.002552
1.000000 1.000000 0.002552
1.000000 1.000000 0.002552
1.000000 1.000000 0.002552
1.000000 1.000000 0.002552
1.000000 1.000000 0.002552
1.000000 1.000000 0.002552
0.002552 1.000000 0.002552
0.002552 1.000000 0.002552
0.002552 1.000000 0.002552
0.002552 1.000000 0.002552
0.057300 1.000000 0.002552
0.093751 1.000000 0.002552
0.124540 1.000000 0.002552
0.158550 1.000000 0.002552
0.194978 1.000000 0.002552
0.236418 1.000000 0.002552
0.281518 1.000000 0.002552
0.335292 1.000000 0.002552
0.396561 1.000000 0.002552
0.468316 1.000000 0.002552
0.552889 1.000000 0.002552
0.649899 1.000000 0.002552
0.766886 1.000000 0.002552
0.902375 1.000000 0.002552
1.058055 1.000000 0.002552
1.000000 1.000000 0.002552
1.000000 1.000000 0.002552
1.000000 1.000000 0.002552
1.000000 1.000000 0.002552
1.000000 1.000000 0.002552
1.000000 1.000000 0.002552
1.000000 1.000000 0.002552
1.000000 1.000000 0.002552
1.000000 1.000000 0.002552
1.000000 1.000000 0.002552
1.000000 1.000000 0.002552
1.000000 1.000000 0.002552
1.000000 1.000000 0.002552
0.002552 1.000000 0.002552
0.002552 1.000000 0.002552
0.002552 1.000000 0.002552
0.002552 1.000000 0.002552
0.057300 1.000000 0.002552
0.093751 1.000000 0.002552
0.124540 1.000000 0.002552
0.158550 1.000000 0.002552
0.194978 1.000000 0.002552
0.236418 1.000000 0.002552
0.281518 1.000000 0.002552
0.335292 1.000000 0.002552
0.396561 1.000000 0.002552
0.468316 1.000000 0.002552
0.552889 1.000000 0.002552
0.649899 1.000000 0.002552
0.766886 1.000000 0.002552
0.902375 1.000000 0.002552
1.058055 1.000000 0.002552
1.000000 1.000000 0.002552
1.000000 1.000000 0.002552
1.000000 1.000000 0.002552
1.000000 1.000000 0.002552
1.000000 1.000000 0.002552
1.000000 1.000000 0.002552
1.000000 1.000000 0.002552
1.000000 1.000000 0.002552
1.000000 1.000000 0.002552
1.000000 1.000000 0.002552
1.000000 1.000000 0.002552
1.000000 1.000000 0.002552
1.000000 1.000000 0.002552
0.002552 1.000000 0.002552
0.002552 1.000000 0.002552
0.002552 1.000000 0.002552
0.002552 1.000000 0.002552
0.057300 1.000000 0.002552
0.093751 1.000000 0.002552
0.124540 1.000000 0.002552
0.158550 1.000000 0.002552
0.194978 1.000000 0.002552
0.236418 1.000000 0.002552
0.281518 1.000000 0.002552
0.335292 1.000000 0.002552
0.396561 1.000000 0.002552
0.468316 1.000000 0.002552
0.552889 1.000000 0.002552
0.649899 1.000000 0.002552
0.766886 1.000000 0.002552
0.902375 1.000000 0.002552
1.058055 1.000000 0.002552
1.000000 1.000000 0.002552
1.000000 1.000000 0.002552
