unity/caldemo/Assets/linearize_achromatic.cube
TITLE "cube/linearize_achromatic.cube"
LUT_3D_SIZE 8
DOMAIN_MIN 0.000000 0.000000 0.000000
DOMAIN_MAX 0.903226 0.903226 0.903226
0.002552 0.002552 0.002552
0.057300 0.002552 0.002552
0.194978 0.002552 0.002552
0.396561 0.002552 0.002552
0.766886 0.002552 0.002552
1.000000 0.002552 0.002552
1.000000 0.002552 0.002552
1.000000 0.002552 0.002552
0.002552 0.057300 0.002552
0.057300 0.057300 0.002552
0.194978 0.057300 0.002552
0.396561 0.057300 0.002552
0.766886 0.057300 0.002552
1.000000 0.057300 0.002552
1.000000 0.057300 0.002552
1.000000 0.057300 0.002552
0.002552 0.194978 0.002552
0.057300 0.194978 0.002552
0.194978 0.194978 0.002552
0.396561 0.194978 0.002552
0.766886 0.194978 0.002552
1.000000 0.194978 0.002552
1.000000 0.194978 0.002552
1.000000 0.194978 0.002552
0.002552 0.396561 0.002552
0.057300 0.396561 0.002552
0.194978 0.396561 0.002552
0.396561 0.396561 0.002552
0.766886 0.396561 0.002552
1.000000 0.396561 0.002552
1.000000 0.396561 0.002552
1.000000 0.396561 0.002552
0.002552 0.766886 0.002552
0.057300 0.766886 0.002552
0.194978 0.766886 0.002552
0.396561 0.766886 0.002552
0.766886 0.766886 0.002552
1.000000 0.766886 0.002552
1.000000 0.766886 0.002552
1.000000 0.766886 0.002552
0.002552 1.000000 0.002552
0.057300 1.000000 0.002552
0.194978 1.000000 0.002552
0.396561 1.000000 0.002552
0.766886 1.000000 0.002552
1.000000 1.000000 0.002552
1.000000 1.000000 0.002552
1.000000 1.000000 0.002552
0.002552 1.000000 0.002552
0.057300 1.000000 0.002552
0.194978 1.000000 0.002552
0.396561 1.000000 0.002552
0.766886 1.000000 0.002552
1.000000 1.000000 0.002552
1.000000 1.000000 0.002552
1.000000 1.000000 0.002552
0.002552 1.000000 0.002552
0.057300 1.000000 0.002552
0.194978 1.000000 0.002552
0.396561 1.000000 0.002552
0.766886 1.000000 0.002552
1.000000 1.000000 0.002552
1.000000 1.000000 0.002552
1.000000 1.000000 0.002552
0.002552 0.002552 0.057300
0.057300 0.002552 0.057300
0.194978 0.002552 0.057300
0.396561 0.002552 0.057300
0.766886 0.002552 0.057300
1.000000 0.002552 0.057300
1.000000 0.002552 0.057300
1.000000 0.002552 0.057300
0.002552 0.057300 0.057300
0.057300 0.057300 0.057300
0.194978 0.057300 0.057300
0.396561 0.057300 0.057300
0.766886 0.057300 0.057300
1.000000 0.057300 0.057300
1.000000 0.057300 0.057300
1.000000 0.057300 0.057300
0.002552 0.194978 0.057300
0.057300 0.194978 0.057300
0.194978 0.194978 0.057300
0.396561 0.194978 0.057300
0.766886 0.194978 0.057300
1.000000 0.194978 0.057300
1.000000 0.194978 0.057300
1.000000 0.194978 0.057300
0.002552 0.396561 0.057300
0.057300 0.396561 0.057300
0.194978 0.396561 0.057300
0.396561 0.396561 0.057300
0.766886 0.396561 0.057300
1.000000 0.396561 0.057300
1.000000 0.396561 0.057300
1.000000 0.396561 0.057300
0.002552 0.766886 0.057300
0.057300 0.766886 0.057300
0.194978 0.766886 0.057300
0.396561 0.766886 0.057300
0.766886 0.766886 0.057300
1.000000 0.766886 0.057300
1.000000 0.766886 0.057300
1.000000 0.766886 0.057300
0.002552 1.000000 0.057300
0.057300 1.000000 0.057300
0.194978 1.000000 0.057300
0.396561 1.000000 0.057300
0.766886 1.000000 0.057300
1.000000 1.000000 0.057300
1.000000 1.000000 0.057300
1.000000 1.000000 0.057300
0.002552 1.000000 0.057300
0.057300 1.000000 0.057300
0.194978 1.000000 0.057300
0.396561 1.000000 0.057300
0.766886 1.000000 0.057300
1.000000 1.000000 0.057300
1.000000 1.000000 0.057300
1.000000 1.000000 0.057300
0.002552 1.000000 0.057300
0.057300 1.000000 0.057300
0.194978 1.000000 0.057300
0.396561 1.000000 0.057300
0.766886 1.000000 0.057300
1.000000 1.000000 0.057300
1.000000 1.000000 0.057300
1.000000 1.000000 0.057300
0.002552 0.002552 0.194978
0.057300 0.002552 0.194978
0.194978 0.002552 0.194978
0.396561 0.002552 0.194978
0.766886 0.002552 0.194978
1.000000 0.002552 0.194978
1.000000 0.002552 0.194978
1.000000 0.002552 0.194978
0.002552 0.057300 0.194978
0.057300 0.057300 0.194978
0.194978 0.057300 0.194978
0.396561 0.057300 0.194978
0.766886 0.057300 0.194978
1.000000 0.057300 0.194978
1.000000 0.057300 0.194978
1.000000 0.057300 0.194978
0.002552 0.194978 0.194978
0.057300 0.194978 0.194978
0.194978 0.194978 0.194978
0.396561 0.194978 0.194978
0.766886 0.194978 0.194978
1.000000 0.194978 0.194978
1.000000 0.194978 0.194978
1.000000 0.194978 0.194978
0.002552 0.396561 0.194978
0.057300 0.396561 0.194978
0.194978 0.396561 0.194978
0.396561 0.396561 0.194978
0.766886 0.396561 0.194978
1.000000 0.396561 0.194978
1.000000 0.396561 0.194978
1.000000 0.396561 0.194978
0.002552 0.766886 0.194978
0.057300 0.766886 0.194978
0.194978 0.766886 0.194978
0.396561 0.766886 0.194978
0.766886 0.766886 0.194978
1.000000 0.766886 0.194978
1.000000 0.766886 0.194978
1.000000 0.766886 0.194978
0.002552 1.000000 0.194978
0.057300 1.000000 0.194978
0.194978 1.000000 0.194978
0.396561 1.000000 0.194978
0.766886 1.000000 0.194978
1.000000 1.000000 0.194978
1.000000 1.000000 0.194978
1.000000 1.000000 0.194978
0.002552 1.000000 0.194978
0.057300 1.000000 0.194978
0.194978 1.000000 0.194978
0.396561 1.000000 0.194978
0.766886 1.000000 0.194978
1.000000 1.000000 0.194978
1.000000 1.000000 0.194978
1.000000 1.000000 0.194978
0.002552 1.000000 0.194978
0.057300 1.000000 0.194978
0.194978 1.000000 0.194978
0.396561 1.000000 0.194978
0.766886 1.000000 0.194978
1.000000 1.000000 0.194978
1.000000 1.000000 0.194978
1.000000 1.000000 0.194978
0.002552 0.002552 0.396561
0.057300 0.002552 0.396561
0.194978 0.002552 0.396561
0.396561 0.002552 0.396561
0.766886 0.002552 0.396561
1.000000 0.002552 0.396561
1.000000 0.002552 0.396561
1.000000 0.002552 0.396561
0.002552 0.057300 0.396561
0.057300 0.057300 0.396561
0.194978 0.057300 0.396561
0.396561 0.057300 0.396561
0.766886 0.057300 0.396561
1.000000 0.057300 0.396561
1.000000 0.057300 0.396561
1.000000 0.057300 0.396561
0.002552 0.194978 0.396561
0.057300 0.194978 0.396561
0.194978 0.194978 0.396561
0.396561 0.194978 0.396561
0.766886 0.194978 0.396561
1.000000 0.194978 0.396561
1.000000 0.194978 0.396561
1.000000 0.194978 0.396561
0.002552 0.396561 0.396561
0.057300 0.396561 0.396561
0.194978 0.396561 0.396561
0.396561 0.396561 0.396561
0.766886 0.396561 0.396561
1.000000 0.396561 0.396561
1.000000 0.396561 0.396561
1.000000 0.396561 0.396561
0.002552 0.766886 0.396561
0.057300 0.766886 0.396561
0.194978 0.766886 0.396561
0.396561 0.766886 0.396561
0.766886 0.766886 0.396561
1.000000 0.766886 0.396561
1.000000 0.766886 0.396561
1.000000 0.766886 0.396561
0.002552 1.000000 0.396561
0.057300 1.000000 0.396561
0.194978 1.000000 0.396561
0.396561 1.000000 0.396561
0.766886 1.000000 0.396561
1.000000 1.000000 0.396561
1.000000 1.000000 0.396561
1.000000 1.000000 0.396561
0.002552 1.000000 0.396561
0.057300 1.000000 0.396561
0.194978 1.000000 0.396561
0.396561 1.000000 0.396561
0.766886 1.000000 0.396561
1.000000 1.000000 0.396561
1.000000 1.000000 0.396561
1.000000 1.000000 0.396561
0.002552 1.000000 0.396561
0.057300 1.000000 0.396561
0.194978 1.000000 0.396561
0.396561 1.000000 0.396561
0.766886 1.000000 0.396561
1.000000 1.000000 0.396561
1.000000 1.000000 0.396561
1.000000 1.000000 0.396561
0.002552 0.002552 0.766886
0.057300 0.002552 0.766886
0.194978 0.002552 0.766886
0.396561 0.002552 0.766886
0.766886 0.002552 0.766886
1.000000 0.002552 0.766886
1.000000 0.002552 0.766886
1.000000 0.002552 0.766886
0.002552 0.057300 0.766886
0.057300 0.057300 0.766886
0.194978 0.057300 0.766886
0.396561 0.057300 0.766886
0.766886 0.057300 0.766886
1.000000 0.057300 0.766886
1.000000 0.057300 0.766886
1.000000 0.057300 0.766886
0.002552 0.194978 0.766886
0.057300 0.194978 0.766886
0.194978 0.194978 0.766886
0.396561 0.194978 0.766886
0.766886 0.194978 0.766886
1.000000 0.194978 0.766886
1.000000 0.194978 0.766886
1.000000 0.194978 0.766886
0.002552 0.396561 0.766886
0.057300 0.396561 0.766886
0.194978 0.396561 0.766886
0.396561 0.396561 0.766886
0.766886 0.396561 0.766886
1.000000 0.396561 0.766886
1.000000 0.396561 0.766886
1.000000 0.396561 0.766886
0.002552 0.766886 0.766886
0.057300 0.766886 0.766886
0.194978 0.766886 0.766886
0.396561 0.766886 0.766886
0.766886 0.766886 0.766886
1.000000 0.766886 0.766886
1.000000 0.766886 0.766886
1.000000 0.766886 0.766886
0.002552 1.000000 0.766886
0.057300 1.000000 0.766886
0.194978 1.000000 0.766886
0.396561 1.000000 0.766886
0.766886 1.000000 0.766886
1.000000 1.000000 0.766886
1.000000 1.000000 0.766886
1.000000 1.000000 0.766886
0.002552 1.000000 0.766886
0.057300 1.000000 0.766886
0.194978 1.000000 0.766886
0.396561 1.000000 0.766886
0.766886 1.000000 0.766886
1.000000 1.000000 0.766886
1.000000 1.000000 0.766886
1.000000 1.000000 0.766886
0.002552 1.000000 0.766886
0.057300 1.000000 0.766886
0.194978 1.000000 0.766886
0.396561 1.000000 0.766886
0.766886 1.000000 0.766886
1.000000 1.000000 0.766886
1.000000 1.000000 0.766886
1.000000 1.000000 0.766886
0.002552 0.002552 1.000000
0.057300 0.002552 1.000000
0.194978 0.002552 1.000000
0.396561 0.002552 1.000000
0.766886 0.002552 1.000000
1.000000 0.002552 1.000000
1.000000 0.002552 1.000000
1.000000 0.002552 1.000000
0.002552 0.057300 1.000000
0.057300 0.057300 1.000000
0.194978 0.057300 1.000000
0.396561 0.057300 1.000000
0.766886 0.057300 1.000000
1.000000 0.057300 1.000000
1.000000 0.057300 1.000000
1.000000 0.057300 1.000000
0.002552 0.194978 1.000000
0.057300 0.194978 1.000000
0.194978 0.194978 1.000000
0.396561 0.194978 1.000000
0.766886 0.194978 1.000000
1.000000 0.194978 1.000000
1.000000 0.194978 1.000000
1.000000 0.194978 1.000000
0.002552 0.396561 1.000000
0.057300 0.396561 1.000000
0.194978 0.396561 1.000000
0.396561 0.396561 1.000000
0.766886 0.396561 1.000000
1.000000 0.396561 1.000000
1.000000 0.396561 1.000000
1.000000 0.396561 1.000000
0.002552 0.766886 1.000000
0.057300 0.766886 1.000000
0.194978 0.766886 1.000000
0.396561 0.766886 1.000000
0.766886 0.766886 1.000000
1.000000 0.766886 1.000000
1.000000 0.766886 1.000000
1.000000 0.766886 1.000000
0.002552 1.000000 1.000000
0.057300 1.000000 1.000000
0.194978 1.000000 1.000000
0.396561 1.000000 1.000000
0.766886 1.000000 1.000000
1.000000 1.000000 1.000000
1.000000 1.000000 1.000000
1.000000 1.000000 1.000000
0.002552 1.000000 1.000000
0.057300 1.000000 1.000000
0.194978 1.000000 1.000000
0.396561 1.000000 1.000000
0.766886 1.000000 1.000000
1.000000 1.000000 1.000000
1.000000 1.000000 1.000000
1.000000 1.000000 1.000000
0.002552 1.000000 1.000000
0.057300 1.000000 1.000000
0.194978 1.000000 1.000000
0.396561 1.000000 1.000000
0.766886 1.000000 1.000000
1.000000 1.000000 1.000000
1.000000 1.000000 1.000000
1.000000 1.000000 1.000000
0.002552 0.002552 1.000000
0.057300 0.002552 1.000000
0.194978 0.002552 1.000000
0.396561 0.002552 1.000000
0.766886 0.002552 1.000000
1.000000 0.002552 1.000000
1.000000 0.002552 1.000000
1.000000 0.002552 1.000000
0.002552 0.057300 1.000000
0.057300 0.057300 1.000000
0.194978 0.057300 1.000000
0.396561 0.057300 1.000000
0.766886 0.057300 1.000000
1.000000 0.057300 1.000000
1.000000 0.057300 1.000000
1.000000 0.057300 1.000000
0.002552 0.194978 1.000000
0.057300 0.194978 1.000000
0.194978 0.194978 1.000000
0.396561 0.194978 1.000000
0.766886 0.194978 1.000000
1.000000 0.194978 1.000000
1.000000 0.194978 1.000000
1.000000 0.194978 1.000000
0.002552 0.396561 1.000000
0.057300 0.396561 1.000000
0.194978 0.396561 1.000000
0.396561 0.396561 1.000000
0.766886 0.396561 1.000000
1.000000 0.396561 1.000000
1.000000 0.396561 1.000000
1.000000 0.396561 1.000000
0.002552 0.766886 1.000000
0.057300 0.766886 1.000000
0.194978 0.766886 1.000000
0.396561 0.766886 1.000000
0.766886 0.766886 1.000000
1.000000 0.766886 1.000000
1.000000 0.766886 1.000000
1.000000 0.766886 1.000000
0.002552 1.000000 1.000000
0.057300 1.000000 1.000000
0.194978 1.000000 1.000000
0.396561 1.000000 1.000000
0.766886 1.000000 1.000000
1.000000 1.000000 1.000000
1.000000 1.000000 1.000000
1.000000 1.000000 1.000000
0.002552 1.000000 1.000000
0.057300 1.000000 1.000000
0.194978 1.000000 1.000000
0.396561 1.000000 1.000000
0.766886 1.000000 1.000000
1.000000 1.000000 1.000000
1.000000 1.000000 1.000000
1.000000 1.000000 1.000000
0.002552 1.000000 1.000000
0.057300 1.000000 1.000000
0.194978 1.000000 1.000000
0.396561 1.000000 1.000000
0.766886 1.000000 1.000000
1.000000 1.000000 1.000000
1.000000 1.000000 1.000000
1.000000 1.000000 1.000000
0.002552 0.002552 1.000000
0.057300 0.002552 1.000000
0.194978 0.002552 1.000000
0.396561 0.002552 1.000000
0.766886 0.002552 1.000000
1.000000 0.002552 1.000000
1.000000 0.002552 1.000000
1.000000 0.002552 1.000000
0.002552 0.057300 1.000000
0.057300 0.057300 1.000000
0.194978 0.057300 1.000000
0.396561 0.057300 1.000000
0.766886 0.057300 1.000000
1.000000 0.057300 1.000000
1.000000 0.057300 1.000000
1.000000 0.057300 1.000000
0.002552 0.194978 1.000000
0.057300 0.194978 1.000000
0.194978 0.194978 1.000000
0.396561 0.194978 1.000000
0.766886 0.194978 1.000000
1.000000 0.194978 1.000000
1.000000 0.194978 1.000000
1.000000 0.194978 1.000000
0.002552 0.396561 1.000000
0.057300 0.396561 1.000000
0.194978 0.396561 1.000000
0.396561 0.396561 1.000000
0.766886 0.396561 1.000000
1.000000 0.396561 1.000000
1.000000 0.396561 1.000000
1.000000 0.396561 1.000000
0.002552 0.766886 1.000000
0.057300 0.766886 1.000000
0.194978 0.766886 1.000000
0.396561 0.766886 1.000000
0.766886 0.766886 1.000000
1.000000 0.766886 1.000000
1.000000 0.766886 1.000000
1.000000 0.766886 1.000000
0.002552 1.000000 1.000000
0.057300 1.000000 1.000000
0.194978 1.000000 1.000000
0.396561 1.000000 1.000000
0.766886 1.000000 1.000000
1.000000 1.000000 1.000000
1.000000 1.000000 1.000000
1.000000 1.000000 1.000000
0.002552 1.000000 1.000000
0.057300 1.000000 1.000000
0.194978 1.000000 1.000000
0.396561 1.000000 1.000000
0.766886 1.000000 1.000000
1.000000 1.000000 1.000000
1.000000 1.000000 1.000000
1.000000 1.000000 1.000000
0.002552 1.000000 1.000000
0.057300 1.000000 1.000000
0.194978 1.000000 1.000000
0.396561 1.000000 1.000000
0.766886 1.000000 1.000000
1.000000 1.000000 1.000000
1.000000 1.000000 1.000000
1.000000 1.000000 1.000000
