unity/caldemo/Assets/linearize_chromatic.cube
TITLE "cube/linearize_chromatic.cube"
LUT_3D_SIZE 8
DOMAIN_MIN 0.000000 0.000000 0.000000
DOMAIN_MAX 0.903226 0.903226 0.903226
0.000000 0.000000 0.010898
0.031887 0.000000 0.010898
0.125639 0.000000 0.010898
0.308042 0.000000 0.010898
0.713011 0.000000 0.010898
1.000000 0.000000 0.010898
1.000000 0.000000 0.010898
1.000000 0.000000 0.010898
0.000000 0.059906 0.010898
0.031887 0.059906 0.010898
0.125639 0.059906 0.010898
0.308042 0.059906 0.010898
0.713011 0.059906 0.010898
1.000000 0.059906 0.010898
1.000000 0.059906 0.010898
1.000000 0.059906 0.010898
0.000000 0.176886 0.010898
0.031887 0.176886 0.010898
0.125639 0.176886 0.010898
0.308042 0.176886 0.010898
0.713011 0.176886 0.010898
1.000000 0.176886 0.010898
1.000000 0.176886 0.010898
1.000000 0.176886 0.010898
0.000000 0.373771 0.010898
0.031887 0.373771 0.010898
0.125639 0.373771 0.010898
0.308042 0.373771 0.010898
0.713011 0.373771 0.010898
1.000000 0.373771 0.010898
1.000000 0.373771 0.010898
1.000000 0.373771 0.010898
0.000000 0.754222 0.010898
0.031887 0.754222 0.010898
0.125639 0.754222 0.010898
0.308042 0.754222 0.010898
0.713011 0.754222 0.010898
1.000000 0.754222 0.010898
1.000000 0.754222 0.010898
1.000000 0.754222 0.010898
0.000000 1.000000 0.010898
0.031887 1.000000 0.010898
0.125639 1.000000 0.010898
0.308042 1.000000 0.010898
0.713011 1.000000 0.010898
1.000000 1.000000 0.010898
1.000000 1.000000 0.010898
1.000000 1.000000 0.010898
0.000000 1.000000 0.010898
0.031887 1.000000 0.010898
0.125639 1.000000 0.010898
0.308042 1.000000 0.010898
0.713011 1.000000 0.010898
1.000000 1.000000 0.010898
1.000000 1.000000 0.010898
1.000000 1.000000 0.010898
0.000000 1.000000 0.010898
0.031887 1.000000 0.010898
0.125639 1.000000 0.010898
0.308042 1.000000 0.010898
0.713011 1.000000 0.010898
1.000000 1.000000 0.010898
1.000000 1.000000 0.010898
1.000000 1.000000 0.010898
0.000000 0.000000 0.087193
0.031887 0.000000 0.087193
0.125639 0.000000 0.087193
0.308042 0.000000 0.087193
0.713011 0.000000 0.087193
1.000000 0.000000 0.087193
1.000000 0.000000 0.087193
1.000000 0.000000 0.087193
0.000000 0.059906 0.087193
0.031887 0.059906 0.087193
0.125639 0.059906 0.087193
0.308042 0.059906 0.087193
0.713011 0.059906 0.087193
1.000000 0.059906 0.087193
1.000000 0.059906 0.087193
1.000000 0.059906 0.087193
0.000000 0.176886 0.087193
0.031887 0.176886 0.087193
0.125639 0.176886 0.087193
0.308042 0.176886 0.087193
0.713011 0.176886 0.087193
1.000000 0.176886 0.087193
1.000000 0.176886 0.087193
1.000000 0.176886 0.087193
0.000000 0.373771 0.087193
0.031887 0.373771 0.087193
0.125639 0.373771 0.087193
0.308042 0.373771 0.087193
0.713011 0.373771 0.087193
1.000000 0.373771 0.087193
1.000000 0.373771 0.087193
1.000000 0.373771 0.087193
0.000000 0.754222 0.087193
0.031887 0.754222 0.087193
0.125639 0.754222 0.087193
0.308042 0.754222 0.087193
0.713011 0.754222 0.087193
1.000000 0.754222 0.087193
1.000000 0.754222 0.087193
1.000000 0.754222 0.087193
0.000000 1.000000 0.087193
0.031887 1.000000 0.087193
0.125639 1.000000 0.087193
0.308042 1.000000 0.087193
0.713011 1.000000 0.087193
1.000000 1.000000 0.087193
1.000000 1.000000 0.087193
1.000000 1.000000 0.087193
0.000000 1.000000 0.087193
0.031887 1.000000 0.087193
0.125639 1.000000 0.087193
0.308042 1.000000 0.087193
0.713011 1.000000 0.087193
1.000000 1.000000 0.087193
1.000000 1.000000 0.087193
1.000000 1.000000 0.087193
0.000000 1.000000 0.087193
0.031887 1.000000 0.087193
0.125639 1.000000 0.087193
0.308042 1.000000 0.087193
0.713011 1.000000 0.087193
1.000000 1.000000 0.087193
1.000000 1.000000 0.087193
1.000000 1.000000 0.087193
0.000000 0.000000 0.215489
0.031887 0.000000 0.215489
0.125639 0.000000 0.215489
0.308042 0.000000 0.215489
0.713011 0.000000 0.215489
1.000000 0.000000 0.215489
1.000000 0.000000 0.215489
1.000000 0.000000 0.215489
0.000000 0.059906 0.215489
0.031887 0.059906 0.215489
0.125639 0.059906 0.215489
0.308042 0.059906 0.215489
0.713011 0.059906 0.215489
1.000000 0.059906 0.215489
1.000000 0.059906 0.215489
1.000000 0.059906 0.215489
0.000000 0.176886 0.215489
0.031887 0.176886 0.215489
0.125639 0.176886 0.215489
0.308042 0.176886 0.215489
0.713011 0.176886 0.215489
1.000000 0.176886 0.215489
1.000000 0.176886 0.215489
1.000000 0.176886 0.215489
0.000000 0.373771 0.215489
0.031887 0.373771 0.215489
0.125639 0.373771 0.215489
0.308042 0.373771 0.215489
0.713011 0.373771 0.215489
1.000000 0.373771 0.215489
1.000000 0.373771 0.215489
1.000000 0.373771 0.215489
0.000000 0.754222 0.215489
0.031887 0.754222 0.215489
0.125639 0.754222 0.215489
0.308042 0.754222 0.215489
0.713011 0.754222 0.215489
1.000000 0.754222 0.215489
1.000000 0.754222 0.215489
1.000000 0.754222 0.215489
0.000000 1.000000 0.215489
0.031887 1.000000 0.215489
0.125639 1.000000 0.215489
0.308042 1.000000 0.215489
0.713011 1.000000 0.215489
1.000000 1.000000 0.215489
1.000000 1.000000 0.215489
1.000000 1.000000 0.215489
0.000000 1.000000 0.215489
0.031887 1.000000 0.215489
0.125639 1.000000 0.215489
0.308042 1.000000 0.215489
0.713011 1.000000 0.215489
1.000000 1.000000 0.215489
1.000000 1.000000 0.215489
1.000000 1.000000 0.215489
0.000000 1.000000 0.215489
0.031887 1.000000 0.215489
0.125639 1.000000 0.215489
0.308042 1.000000 0.215489
0.713011 1.000000 0.215489
1.000000 1.000000 0.215489
1.000000 1.000000 0.215489
1.000000 1.000000 0.215489
0.000000 0.000000 0.410480
0.031887 0.000000 0.410480
0.125639 0.000000 0.410480
0.308042 0.000000 0.410480
0.713011 0.000000 0.410480
1.000000 0.000000 0.410480
1.000000 0.000000 0.410480
1.000000 0.000000 0.410480
0.000000 0.059906 0.410480
0.031887 0.059906 0.410480
0.125639 0.059906 0.410480
0.308042 0.059906 0.410480
0.713011 0.059906 0.410480
1.000000 0.059906 0.410480
1.000000 0.059906 0.410480
1.000000 0.059906 0.410480
0.000000 0.176886 0.410480
0.031887 0.176886 0.410480
0.125639 0.176886 0.410480
0.308042 0.176886 0.410480
0.713011 0.176886 0.410480
1.000000 0.176886 0.410480
1.000000 0.176886 0.410480
1.000000 0.176886 0.410480
0.000000 0.373771 0.410480
0.031887 0.373771 0.410480
0.125639 0.373771 0.410480
0.308042 0.373771 0.410480
0.713011 0.373771 0.410480
1.000000 0.373771 0.410480
1.000000 0.373771 0.410480
1.000000 0.373771 0.410480
0.000000 0.754222 0.410480
0.031887 0.754222 0.410480
0.125639 0.754222 0.410480
0.308042 0.754222 0.410480
0.713011 0.754222 0.410480
1.000000 0.754222 0.410480
1.000000 0.754222 0.410480
1.000000 0.754222 0.410480
0.000000 1.000000 0.410480
0.031887 1.000000 0.410480
0.125639 1.000000 0.410480
0.308042 1.000000 0.410480
0.713011 1.000000 0.410480
1.000000 1.000000 0.410480
1.000000 1.000000 0.410480
1.000000 1.000000 0.410480
0.000000 1.000000 0.410480
0.031887 1.000000 0.410480
0.125639 1.000000 0.410480
0.308042 1.000000 0.410480
0.713011 1.000000 0.410480
1.000000 1.000000 0.410480
1.000000 1.000000 0.410480
1.000000 1.000000 0.410480
0.000000 1.000000 0.410480
0.031887 1.000000 0.410480
0.125639 1.000000 0.410480
0.308042 1.000000 0.410480
0.713011 1.000000 0.410480
1.000000 1.000000 0.410480
1.000000 1.000000 0.410480
1.000000 1.000000 0.410480
0.000000 0.000000 0.771230
0.031887 0.000000 0.771230
0.125639 0.000000 0.771230
0.308042 0.000000 0.771230
0.713011 0.000000 0.771230
1.000000 0.000000 0.771230
1.000000 0.000000 0.771230
1.000000 0.000000 0.771230
0.000000 0.059906 0.771230
0.031887 0.059906 0.771230
0.125639 0.059906 0.771230
0.308042 0.059906 0.771230
0.713011 0.059906 0.771230
1.000000 0.059906 0.771230
1.000000 0.059906 0.771230
1.000000 0.059906 0.771230
0.000000 0.176886 0.771230
0.031887 0.176886 0.771230
0.125639 0.176886 0.771230
0.308042 0.176886 0.771230
0.713011 0.176886 0.771230
1.000000 0.176886 0.771230
1.000000 0.176886 0.771230
1.000000 0.176886 0.771230
0.000000 0.373771 0.771230
0.031887 0.373771 0.771230
0.125639 0.373771 0.771230
0.308042 0.373771 0.771230
0.713011 0.373771 0.771230
1.000000 0.373771 0.771230
1.000000 0.373771 0.771230
1.000000 0.373771 0.771230
0.000000 0.754222 0.771230
0.031887 0.754222 0.771230
0.125639 0.754222 0.771230
0.308042 0.754222 0.771230
0.713011 0.754222 0.771230
1.000000 0.754222 0.771230
1.000000 0.754222 0.771230
1.000000 0.754222 0.771230
0.000000 1.000000 0.771230
0.031887 1.000000 0.771230
0.125639 1.000000 0.771230
0.308042 1.000000 0.771230
0.713011 1.000000 0.771230
1.000000 1.000000 0.771230
1.000000 1.000000 0.771230
1.000000 1.000000 0.771230
0.000000 1.000000 0.771230
0.031887 1.000000 0.771230
0.125639 1.000000 0.771230
0.308042 1.000000 0.771230
0.713011 1.000000 0.771230
1.000000 1.000000 0.771230
1.000000 1.000000 0.771230
1.000000 1.000000 0.771230
0.000000 1.000000 0.771230
0.031887 1.000000 0.771230
0.125639 1.000000 0.771230
0.308042 1.000000 0.771230
0.713011 1.000000 0.771230
1.000000 1.000000 0.771230
1.000000 1.000000 0.771230
1.000000 1.000000 0.771230
0.000000 0.000000 1.000000
0.031887 0.000000 1.000000
0.125639 0.000000 1.000000
0.308042 0.000000 1.000000
0.713011 0.000000 1.000000
1.000000 0.000000 1.000000
1.000000 0.000000 1.000000
1.000000 0.000000 1.000000
0.000000 0.059906 1.000000
0.031887 0.059906 1.000000
0.125639 0.059906 1.000000
0.308042 0.059906 1.000000
0.713011 0.059906 1.000000
1.000000 0.059906 1.000000
1.000000 0.059906 1.000000
1.000000 0.059906 1.000000
0.000000 0.176886 1.000000
0.031887 0.176886 1.000000
0.125639 0.176886 1.000000
0.308042 0.176886 1.000000
0.713011 0.176886 1.000000
1.000000 0.176886 1.000000
1.000000 0.176886 1.000000
1.000000 0.176886 1.000000
0.000000 0.373771 1.000000
0.031887 0.373771 1.000000
0.125639 0.373771 1.000000
0.308042 0.373771 1.000000
0.713011 0.373771 1.000000
1.000000 0.373771 1.000000
1.000000 0.373771 1.000000
1.000000 0.373771 1.000000
0.000000 0.754222 1.000000
0.031887 0.754222 1.000000
0.125639 0.754222 1.000000
0.308042 0.754222 1.000000
0.713011 0.754222 1.000000
1.000000 0.754222 1.000000
1.000000 0.754222 1.000000
1.000000 0.754222 1.000000
0.000000 1.000000 1.000000
0.031887 1.000000 1.000000
0.125639 1.000000 1.000000
0.308042 1.000000 1.000000
0.713011 1.000000 1.000000
1.000000 1.000000 1.000000
1.000000 1.000000 1.000000
1.000000 1.000000 1.000000
0.000000 1.000000 1.000000
0.031887 1.000000 1.000000
0.125639 1.000000 1.000000
0.308042 1.000000 1.000000
0.713011 1.000000 1.000000
1.000000 1.000000 1.000000
1.000000 1.000000 1.000000
1.000000 1.000000 1.000000
0.000000 1.000000 1.000000
0.031887 1.000000 1.000000
0.125639 1.000000 1.000000
0.308042 1.000000 1.000000
0.713011 1.000000 1.000000
1.000000 1.000000 1.000000
1.000000 1.000000 1.000000
1.000000 1.000000 1.000000
0.000000 0.000000 1.000000
0.031887 0.000000 1.000000
0.125639 0.000000 1.000000
0.308042 0.000000 1.000000
0.713011 0.000000 1.000000
1.000000 0.000000 1.000000
1.000000 0.000000 1.000000
1.000000 0.000000 1.000000
0.000000 0.059906 1.000000
0.031887 0.059906 1.000000
0.125639 0.059906 1.000000
0.308042 0.059906 1.000000
0.713011 0.059906 1.000000
1.000000 0.059906 1.000000
1.000000 0.059906 1.000000
1.000000 0.059906 1.000000
0.000000 0.176886 1.000000
0.031887 0.176886 1.000000
0.125639 0.176886 1.000000
0.308042 0.176886 1.000000
0.713011 0.176886 1.000000
1.000000 0.176886 1.000000
1.000000 0.176886 1.000000
1.000000 0.176886 1.000000
0.000000 0.373771 1.000000
0.031887 0.373771 1.000000
0.125639 0.373771 1.000000
0.308042 0.373771 1.000000
0.713011 0.373771 1.000000
1.000000 0.373771 1.000000
1.000000 0.373771 1.000000
1.000000 0.373771 1.000000
0.000000 0.754222 1.000000
0.031887 0.754222 1.000000
0.125639 0.754222 1.000000
0.308042 0.754222 1.000000
0.713011 0.754222 1.000000
1.000000 0.754222 1.000000
1.000000 0.754222 1.000000
1.000000 0.754222 1.000000
0.000000 1.000000 1.000000
0.031887 1.000000 1.000000
0.125639 1.000000 1.000000
0.308042 1.000000 1.000000
0.713011 1.000000 1.000000
1.000000 1.000000 1.000000
1.000000 1.000000 1.000000
1.000000 1.000000 1.000000
0.000000 1.000000 1.000000
0.031887 1.000000 1.000000
0.125639 1.000000 1.000000
0.308042 1.000000 1.000000
0.713011 1.000000 1.000000
1.000000 1.000000 1.000000
1.000000 1.000000 1.000000
1.000000 1.000000 1.000000
0.000000 1.000000 1.000000
0.031887 1.000000 1.000000
0.125639 1.000000 1.000000
0.308042 1.000000 1.000000
0.713011 1.000000 1.000000
1.000000 1.000000 1.000000
1.000000 1.000000 1.000000
1.000000 1.000000 1.000000
0.000000 0.000000 1.000000
0.031887 0.000000 1.000000
0.125639 0.000000 1.000000
0.308042 0.000000 1.000000
0.713011 0.000000 1.000000
1.000000 0.000000 1.000000
1.000000 0.000000 1.000000
1.000000 0.000000 1.000000
0.000000 0.059906 1.000000
0.031887 0.059906 1.000000
0.125639 0.059906 1.000000
0.308042 0.059906 1.000000
0.713011 0.059906 1.000000
1.000000 0.059906 1.000000
1.000000 0.059906 1.000000
1.000000 0.059906 1.000000
0.000000 0.176886 1.000000
0.031887 0.176886 1.000000
0.125639 0.176886 1.000000
0.308042 0.176886 1.000000
0.713011 0.176886 1.000000
1.000000 0.176886 1.000000
1.000000 0.176886 1.000000
1.000000 0.176886 1.000000
0.000000 0.373771 1.000000
0.031887 0.373771 1.000000
0.125639 0.373771 1.000000
0.308042 0.373771 1.000000
0.713011 0.373771 1.000000
1.000000 0.373771 1.000000
1.000000 0.373771 1.000000
1.000000 0.373771 1.000000
0.000000 0.754222 1.000000
0.031887 0.754222 1.000000
0.125639 0.754222 1.000000
0.308042 0.754222 1.000000
0.713011 0.754222 1.000000
1.000000 0.754222 1.000000
1.000000 0.754222 1.000000
1.000000 0.754222 1.000000
0.000000 1.000000 1.000000
0.031887 1.000000 1.000000
0.125639 1.000000 1.000000
0.308042 1.000000 1.000000
0.713011 1.000000 1.000000
1.000000 1.000000 1.000000
1.000000 1.000000 1.000000
1.000000 1.000000 1.000000
0.000000 1.000000 1.000000
0.031887 1.000000 1.000000
0.125639 1.000000 1.000000
0.308042 1.000000 1.000000
0.713011 1.000000 1.000000
1.000000 1.000000 1.000000
1.000000 1.000000 1.000000
1.000000 1.000000 1.000000
0.000000 1.000000 1.000000
0.031887 1.000000 1.000000
0.125639 1.000000 1.000000
0.308042 1.000000 1.000000
0.713011 1.000000 1.000000
1.000000 1.000000 1.000000
1.000000 1.000000 1.000000
1.000000 1.000000 1.000000
