unity projects/model_test/Assets/square.cube
TITLE "square.cube"
LUT_3D_SIZE 32
DOMAIN_MIN 0.0 0.0 0.0
DOMAIN_MAX 1.0 1.0 1.0
0.000000 0.000000 0.000000
0.000000 0.000000 0.000000
0.000000 0.000000 0.000000
0.000010 0.000000 0.000000
0.000052 0.000000 0.000000
0.000162 0.000000 0.000000
0.000413 0.000000 0.000000
0.000934 0.000000 0.000000
0.001990 0.000000 0.000000
0.004042 0.000000 0.000000
0.007887 0.000000 0.000000
0.015401 0.000000 0.000000
0.028866 0.000000 0.000000
0.055037 0.000000 0.000000
0.103041 0.000000 0.000000
0.192195 0.000000 0.000000
0.359400 0.000000 0.000000
0.651088 0.000000 0.000000
1.225449 0.000000 0.000000
2.244004 0.000000 0.000000
4.157521 0.000000 0.000000
7.650756 0.000000 0.000000
14.137600 0.000000 0.000000
25.725184 0.000000 0.000000
47.210641 0.000000 0.000000
88.322404 0.000000 0.000000
160.022500 0.000000 0.000000
297.562500 0.000000 0.000000
540.562500 0.000000 0.000000
986.588100 0.000000 0.000000
1849.860100 0.000000 0.000000
3333.907600 0.000000 0.000000
0.000000 0.000000 0.000000
0.000000 0.000000 0.000000
0.000000 0.000000 0.000000
0.000010 0.000000 0.000000
0.000052 0.000000 0.000000
0.000162 0.000000 0.000000
0.000413 0.000000 0.000000
0.000934 0.000000 0.000000
0.001990 0.000000 0.000000
0.004042 0.000000 0.000000
0.007887 0.000000 0.000000
0.015401 0.000000 0.000000
0.028866 0.000000 0.000000
0.055037 0.000000 0.000000
0.103041 0.000000 0.000000
0.192195 0.000000 0.000000
0.359400 0.000000 0.000000
0.651088 0.000000 0.000000
1.225449 0.000000 0.000000
2.244004 0.000000 0.000000
4.157521 0.000000 0.000000
7.650756 0.000000 0.000000
14.137600 0.000000 0.000000
25.725184 0.000000 0.000000
47.210641 0.000000 0.000000
88.322404 0.000000 0.000000
160.022500 0.000000 0.000000
297.562500 0.000000 0.000000
540.562500 0.000000 0.000000
986.588100 0.000000 0.000000
1849.860100 0.000000 0.000000
3333.907600 0.000000 0.000000
0.000000 0.000000 0.000000
0.000000 0.000000 0.000000
0.000000 0.000000 0.000000
0.000010 0.000000 0.000000
0.000052 0.000000 0.000000
0.000162 0.000000 0.000000
0.000413 0.000000 0.000000
0.000934 0.000000 0.000000
0.001990 0.000000 0.000000
0.004042 0.000000 0.000000
0.007887 0.000000 0.000000
0.015401 0.000000 0.000000
0.028866 0.000000 0.000000
0.055037 0.000000 0.000000
0.103041 0.000000 0.000000
0.192195 0.000000 0.000000
0.359400 0.000000 0.000000
0.651088 0.000000 0.000000
1.225449 0.000000 0.000000
2.244004 0.000000 0.000000
4.157521 0.000000 0.000000
7.650756 0.000000 0.000000
14.137600 0.000000 0.000000
25.725184 0.000000 0.000000
47.210641 0.000000 0.000000
88.322404 0.000000 0.000000
160.022500 0.000000 0.000000
297.562500 0.000000 0.000000
540.562500 0.000000 0.000000
986.588100 0.000000 0.000000
1849.860100 0.000000 0.000000
3333.907600 0.000000 0.000000
0.000000 0.000010 0.000000
0.000000 0.000010 0.000000
0.000000 0.000010 0.000000
0.000010 0.000010 0.000000
0.000052 0.000010 0.000000
0.000162 0.000010 0.000000
0.000413 0.000010 0.000000
0.000934 0.000010 0.000000
0.001990 0.000010 0.000000
0.004042 0.000010 0.000000
0.007887 0.000010 0.000000
0.015401 0.000010 0.000000
0.028866 0.000010 0.000000
0.055037 0.000010 0.000000
0.103041 0.000010 0.000000
0.192195 0.000010 0.000000
0.359400 0.000010 0.000000
0.651088 0.000010 0.000000
1.225449 0.000010 0.000000
2.244004 0.000010 0.000000
4.157521 0.000010 0.000000
7.650756 0.000010 0.000000
14.137600 0.000010 0.000000
25.725184 0.000010 0.000000
47.210641 0.000010 0.000000
88.322404 0.000010 0.000000
160.022500 0.000010 0.000000
297.562500 0.000010 0.000000
540.562500 0.000010 0.000000
986.588100 0.000010 0.000000
1849.860100 0.000010 0.000000
3333.907600 0.000010 0.000000
0.000000 0.000052 0.000000
0.000000 0.000052 0.000000
0.000000 0.000052 0.000000
0.000010 0.000052 0.000000
0.000052 0.000052 0.000000
0.000162 0.000052 0.000000
0.000413 0.000052 0.000000
0.000934 0.000052 0.000000
0.001990 0.000052 0.000000
0.004042 0.000052 0.000000
0.007887 0.000052 0.000000
0.015401 0.000052 0.000000
0.028866 0.000052 0.000000
0.055037 0.000052 0.000000
0.103041 0.000052 0.000000
0.192195 0.000052 0.000000
0.359400 0.000052 0.000000
0.651088 0.000052 0.000000
1.225449 0.000052 0.000000
2.244004 0.000052 0.000000
4.157521 0.000052 0.000000
7.650756 0.000052 0.000000
14.137600 0.000052 0.000000
25.725184 0.000052 0.000000
47.210641 0.000052 0.000000
88.322404 0.000052 0.000000
160.022500 0.000052 0.000000
297.562500 0.000052 0.000000
540.562500 0.000052 0.000000
986.588100 0.000052 0.000000
1849.860100 0.000052 0.000000
3333.907600 0.000052 0.000000
0.000000 0.000162 0.000000
0.000000 0.000162 0.000000
0.000000 0.000162 0.000000
0.000010 0.000162 0.000000
0.000052 0.000162 0.000000
0.000162 0.000162 0.000000
0.000413 0.000162 0.000000
0.000934 0.000162 0.000000
0.001990 0.000162 0.000000
0.004042 0.000162 0.000000
0.007887 0.000162 0.000000
0.015401 0.000162 0.000000
0.028866 0.000162 0.000000
0.055037 0.000162 0.000000
0.103041 0.000162 0.000000
0.192195 0.000162 0.000000
0.359400 0.000162 0.000000
0.651088 0.000162 0.000000
1.225449 0.000162 0.000000
2.244004 0.000162 0.000000
4.157521 0.000162 0.000000
7.650756 0.000162 0.000000
14.137600 0.000162 0.000000
25.725184 0.000162 0.000000
47.210641 0.000162 0.000000
88.322404 0.000162 0.000000
160.022500 0.000162 0.000000
297.562500 0.000162 0.000000
540.562500 0.000162 0.000000
986.588100 0.000162 0.000000
1849.860100 0.000162 0.000000
3333.907600 0.000162 0.000000
0.000000 0.000413 0.000000
0.000000 0.000413 0.000000
0.000000 0.000413 0.000000
0.000010 0.000413 0.000000
0.000052 0.000413 0.000000
0.000162 0.000413 0.000000
0.000413 0.000413 0.000000
0.000934 0.000413 0.000000
0.001990 0.000413 0.000000
0.004042 0.000413 0.000000
0.007887 0.000413 0.000000
0.015401 0.000413 0.000000
0.028866 0.000413 0.000000
0.055037 0.000413 0.000000
0.103041 0.000413 0.000000
0.192195 0.000413 0.000000
0.359400 0.000413 0.000000
0.651088 0.000413 0.000000
1.225449 0.000413 0.000000
2.244004 0.000413 0.000000
4.157521 0.000413 0.000000
7.650756 0.000413 0.000000
14.137600 0.000413 0.000000
25.725184 0.000413 0.000000
47.210641 0.000413 0.000000
88.322404 0.000413 0.000000
160.022500 0.000413 0.000000
297.562500 0.000413 0.000000
540.562500 0.000413 0.000000
986.588100 0.000413 0.000000
1849.860100 0.000413 0.000000
3333.907600 0.000413 0.000000
0.000000 0.000934 0.000000
0.000000 0.000934 0.000000
0.000000 0.000934 0.000000
0.000010 0.000934 0.000000
0.000052 0.000934 0.000000
0.000162 0.000934 0.000000
0.000413 0.000934 0.000000
0.000934 0.000934 0.000000
0.001990 0.000934 0.000000
0.004042 0.000934 0.000000
0.007887 0.000934 0.000000
0.015401 0.000934 0.000000
0.028866 0.000934 0.000000
0.055037 0.000934 0.000000
0.103041 0.000934 0.000000
0.192195 0.000934 0.000000
0.359400 0.000934 0.000000
0.651088 0.000934 0.000000
1.225449 0.000934 0.000000
2.244004 0.000934 0.000000
4.157521 0.000934 0.000000
7.650756 0.000934 0.000000
14.137600 0.000934 0.000000
25.725184 0.000934 0.000000
47.210641 0.000934 0.000000
88.322404 0.000934 0.000000
160.022500 0.000934 0.000000
297.562500 0.000934 0.000000
540.562500 0.000934 0.000000
986.588100 0.000934 0.000000
1849.860100 0.000934 0.000000
3333.907600 0.000934 0.000000
0.000000 0.001990 0.000000
0.000000 0.001990 0.000000
0.000000 0.001990 0.000000
0.000010 0.001990 0.000000
0.000052 0.001990 0.000000
0.000162 0.001990 0.000000
0.000413 0.001990 0.000000
0.000934 0.001990 0.000000
0.001990 0.001990 0.000000
0.004042 0.001990 0.000000
0.007887 0.001990 0.000000
0.015401 0.001990 0.000000
0.028866 0.001990 0.000000
0.055037 0.001990 0.000000
0.103041 0.001990 0.000000
0.192195 0.001990 0.000000
0.359400 0.001990 0.000000
0.651088 0.001990 0.000000
1.225449 0.001990 0.000000
2.244004 0.001990 0.000000
4.157521 0.001990 0.000000
7.650756 0.001990 0.000000
14.137600 0.001990 0.000000
25.725184 0.001990 0.000000
47.210641 0.001990 0.000000
88.322404 0.001990 0.000000
160.022500 0.001990 0.000000
297.562500 0.001990 0.000000
540.562500 0.001990 0.000000
986.588100 0.001990 0.000000
1849.860100 0.001990 0.000000
3333.907600 0.001990 0.000000
0.000000 0.004042 0.000000
0.000000 0.004042 0.000000
0.000000 0.004042 0.000000
0.000010 0.004042 0.000000
0.000052 0.004042 0.000000
0.000162 0.004042 0.000000
0.000413 0.004042 0.000000
0.000934 0.004042 0.000000
0.001990 0.004042 0.000000
0.004042 0.004042 0.000000
0.007887 0.004042 0.000000
0.015401 0.004042 0.000000
0.028866 0.004042 0.000000
0.055037 0.004042 0.000000
0.103041 0.004042 0.000000
0.192195 0.004042 0.000000
0.359400 0.004042 0.000000
0.651088 0.004042 0.000000
1.225449 0.004042 0.000000
2.244004 0.004042 0.000000
4.157521 0.004042 0.000000
7.650756 0.004042 0.000000
14.137600 0.004042 0.000000
25.725184 0.004042 0.000000
47.210641 0.004042 0.000000
88.322404 0.004042 0.000000
160.022500 0.004042 0.000000
297.562500 0.004042 0.000000
540.562500 0.004042 0.000000
986.588100 0.004042 0.000000
1849.860100 0.004042 0.000000
3333.907600 0.004042 0.000000
0.000000 0.007887 0.000000
0.000000 0.007887 0.000000
0.000000 0.007887 0.000000
0.000010 0.007887 0.000000
0.000052 0.007887 0.000000
0.000162 0.007887 0.000000
0.000413 0.007887 0.000000
0.000934 0.007887 0.000000
0.001990 0.007887 0.000000
0.004042 0.007887 0.000000
0.007887 0.007887 0.000000
0.015401 0.007887 0.000000
0.028866 0.007887 0.000000
0.055037 0.007887 0.000000
0.103041 0.007887 0.000000
0.192195 0.007887 0.000000
0.359400 0.007887 0.000000
0.651088 0.007887 0.000000
1.225449 0.007887 0.000000
2.244004 0.007887 0.000000
4.157521 0.007887 0.000000
7.650756 0.007887 0.000000
14.137600 0.007887 0.000000
25.725184 0.007887 0.000000
47.210641 0.007887 0.000000
88.322404 0.007887 0.000000
160.022500 0.007887 0.000000
297.562500 0.007887 0.000000
540.562500 0.007887 0.000000
986.588100 0.007887 0.000000
1849.860100 0.007887 0.000000
3333.907600 0.007887 0.000000
0.000000 0.015401 0.000000
0.000000 0.015401 0.000000
0.000000 0.015401 0.000000
0.000010 0.015401 0.000000
0.000052 0.015401 0.000000
0.000162 0.015401 0.000000
0.000413 0.015401 0.000000
0.000934 0.015401 0.000000
0.001990 0.015401 0.000000
0.004042 0.015401 0.000000
0.007887 0.015401 0.000000
0.015401 0.015401 0.000000
0.028866 0.015401 0.000000
0.055037 0.015401 0.000000
0.103041 0.015401 0.000000
0.192195 0.015401 0.000000
0.359400 0.015401 0.000000
0.651088 0.015401 0.000000
1.225449 0.015401 0.000000
2.244004 0.015401 0.000000
4.157521 0.015401 0.000000
7.650756 0.015401 0.000000
14.137600 0.015401 0.000000
25.725184 0.015401 0.000000
47.210641 0.015401 0.000000
88.322404 0.015401 0.000000
160.022500 0.015401 0.000000
297.562500 0.015401 0.000000
540.562500 0.015401 0.000000
986.588100 0.015401 0.000000
1849.860100 0.015401 0.000000
3333.907600 0.015401 0.000000
0.000000 0.028866 0.000000
0.000000 0.028866 0.000000
0.000000 0.028866 0.000000
0.000010 0.028866 0.000000
0.000052 0.028866 0.000000
0.000162 0.028866 0.000000
0.000413 0.028866 0.000000
0.000934 0.028866 0.000000
0.001990 0.028866 0.000000
0.004042 0.028866 0.000000
0.007887 0.028866 0.000000
0.015401 0.028866 0.000000
0.028866 0.028866 0.000000
0.055037 0.028866 0.000000
0.103041 0.028866 0.000000
0.192195 0.028866 0.000000
0.359400 0.028866 0.000000
0.651088 0.028866 0.000000
1.225449 0.028866 0.000000
2.244004 0.028866 0.000000
4.157521 0.028866 0.000000
7.650756 0.028866 0.000000
14.137600 0.028866 0.000000
25.725184 0.028866 0.000000
47.210641 0.028866 0.000000
88.322404 0.028866 0.000000
160.022500 0.028866 0.000000
297.562500 0.028866 0.000000
540.562500 0.028866 0.000000
986.588100 0.028866 0.000000
1849.860100 0.028866 0.000000
3333.907600 0.028866 0.000000
0.000000 0.055037 0.000000
0.000000 0.055037 0.000000
0.000000 0.055037 0.000000
0.000010 0.055037 0.000000
0.000052 0.055037 0.000000
0.000162 0.055037 0.000000
0.000413 0.055037 0.000000
0.000934 0.055037 0.000000
0.001990 0.055037 0.000000
0.004042 0.055037 0.000000
0.007887 0.055037 0.000000
0.015401 0.055037 0.000000
0.028866 0.055037 0.000000
0.055037 0.055037 0.000000
0.103041 0.055037 0.000000
0.192195 0.055037 0.000000
0.359400 0.055037 0.000000
0.651088 0.055037 0.000000
1.225449 0.055037 0.000000
2.244004 0.055037 0.000000
4.157521 0.055037 0.000000
7.650756 0.055037 0.000000
14.137600 0.055037 0.000000
25.725184 0.055037 0.000000
47.210641 0.055037 0.000000
88.322404 0.055037 0.000000
160.022500 0.055037 0.000000
297.562500 0.055037 0.000000
540.562500 0.055037 0.000000
986.588100 0.055037 0.000000
1849.860100 0.055037 0.000000
3333.907600 0.055037 0.000000
0.000000 0.103041 0.000000
0.000000 0.103041 0.000000
0.000000 0.103041 0.000000
0.000010 0.103041 0.000000
0.000052 0.103041 0.000000
0.000162 0.103041 0.000000
0.000413 0.103041 0.000000
0.000934 0.103041 0.000000
0.001990 0.103041 0.000000
0.004042 0.103041 0.000000
0.007887 0.103041 0.000000
0.015401 0.103041 0.000000
0.028866 0.103041 0.000000
0.055037 0.103041 0.000000
0.103041 0.103041 0.000000
0.192195 0.103041 0.000000
0.359400 0.103041 0.000000
0.651088 0.103041 0.000000
1.225449 0.103041 0.000000
2.244004 0.103041 0.000000
4.157521 0.103041 0.000000
7.650756 0.103041 0.000000
14.137600 0.103041 0.000000
25.725184 0.103041 0.000000
47.210641 0.103041 0.000000
88.322404 0.103041 0.000000
160.022500 0.103041 0.000000
297.562500 0.103041 0.000000
540.562500 0.103041 0.000000
986.588100 0.103041 0.000000
1849.860100 0.103041 0.000000
3333.907600 0.103041 0.000000
0.000000 0.192195 0.000000
0.000000 0.192195 0.000000
0.000000 0.192195 0.000000
0.000010 0.192195 0.000000
0.000052 0.192195 0.000000
0.000162 0.192195 0.000000
0.000413 0.192195 0.000000
0.000934 0.192195 0.000000
0.001990 0.192195 0.000000
0.004042 0.192195 0.000000
0.007887 0.192195 0.000000
0.015401 0.192195 0.000000
0.028866 0.192195 0.000000
0.055037 0.192195 0.000000
0.103041 0.192195 0.000000
0.192195 0.192195 0.000000
0.359400 0.192195 0.000000
0.651088 0.192195 0.000000
1.225449 0.192195 0.000000
2.244004 0.192195 0.000000
4.157521 0.192195 0.000000
7.650756 0.192195 0.000000
14.137600 0.192195 0.000000
25.725184 0.192195 0.000000
47.210641 0.192195 0.000000
88.322404 0.192195 0.000000
160.022500 0.192195 0.000000
297.562500 0.192195 0.000000
540.562500 0.192195 0.000000
986.588100 0.192195 0.000000
1849.860100 0.192195 0.000000
3333.907600 0.192195 0.000000
0.000000 0.359400 0.000000
0.000000 0.359400 0.000000
0.000000 0.359400 0.000000
0.000010 0.359400 0.000000
0.000052 0.359400 0.000000
0.000162 0.359400 0.000000
0.000413 0.359400 0.000000
0.000934 0.359400 0.000000
0.001990 0.359400 0.000000
0.004042 0.359400 0.000000
0.007887 0.359400 0.000000
0.015401 0.359400 0.000000
0.028866 0.359400 0.000000
0.055037 0.359400 0.000000
0.103041 0.359400 0.000000
0.192195 0.359400 0.000000
0.359400 0.359400 0.000000
0.651088 0.359400 0.000000
1.225449 0.359400 0.000000
2.244004 0.359400 0.000000
4.157521 0.359400 0.000000
7.650756 0.359400 0.000000
14.137600 0.359400 0.000000
25.725184 0.359400 0.000000
47.210641 0.359400 0.000000
88.322404 0.359400 0.000000
160.022500 0.359400 0.000000
297.562500 0.359400 0.000000
540.562500 0.359400 0.000000
986.588100 0.359400 0.000000
1849.860100 0.359400 0.000000
3333.907600 0.359400 0.000000
0.000000 0.651088 0.000000
0.000000 0.651088 0.000000
0.000000 0.651088 0.000000
0.000010 0.651088 0.000000
0.000052 0.651088 0.000000
0.000162 0.651088 0.000000
0.000413 0.651088 0.000000
0.000934 0.651088 0.000000
0.001990 0.651088 0.000000
0.004042 0.651088 0.000000
0.007887 0.651088 0.000000
0.015401 0.651088 0.000000
0.028866 0.651088 0.000000
0.055037 0.651088 0.000000
0.103041 0.651088 0.000000
0.192195 0.651088 0.000000
0.359400 0.651088 0.000000
0.651088 0.651088 0.000000
1.225449 0.651088 0.000000
2.244004 0.651088 0.000000
4.157521 0.651088 0.000000
7.650756 0.651088 0.000000
14.137600 0.651088 0.000000
25.725184 0.651088 0.000000
47.210641 0.651088 0.000000
88.322404 0.651088 0.000000
160.022500 0.651088 0.000000
297.562500 0.651088 0.000000
540.562500 0.651088 0.000000
986.588100 0.651088 0.000000
1849.860100 0.651088 0.000000
3333.907600 0.651088 0.000000
0.000000 1.225449 0.000000
0.000000 1.225449 0.000000
0.000000 1.225449 0.000000
0.000010 1.225449 0.000000
0.000052 1.225449 0.000000
0.000162 1.225449 0.000000
0.000413 1.225449 0.000000
0.000934 1.225449 0.000000
0.001990 1.225449 0.000000
0.004042 1.225449 0.000000
0.007887 1.225449 0.000000
0.015401 1.225449 0.000000
0.028866 1.225449 0.000000
0.055037 1.225449 0.000000
0.103041 1.225449 0.000000
0.192195 1.225449 0.000000
0.359400 1.225449 0.000000
0.651088 1.225449 0.000000
1.225449 1.225449 0.000000
2.244004 1.225449 0.000000
4.157521 1.225449 0.000000
7.650756 1.225449 0.000000
14.137600 1.225449 0.000000
25.725184 1.225449 0.000000
47.210641 1.225449 0.000000
88.322404 1.225449 0.000000
160.022500 1.225449 0.000000
297.562500 1.225449 0.000000
540.562500 1.225449 0.000000
986.588100 1.225449 0.000000
1849.860100 1.225449 0.000000
3333.907600 1.225449 0.000000
0.000000 2.244004 0.000000
0.000000 2.244004 0.000000
0.000000 2.244004 0.000000
0.000010 2.244004 0.000000
0.000052 2.244004 0.000000
0.000162 2.244004 0.000000
0.000413 2.244004 0.000000
0.000934 2.244004 0.000000
0.001990 2.244004 0.000000
0.004042 2.244004 0.000000
0.007887 2.244004 0.000000
0.015401 2.244004 0.000000
0.028866 2.244004 0.000000
0.055037 2.244004 0.000000
0.103041 2.244004 0.000000
0.192195 2.244004 0.000000
0.359400 2.244004 0.000000
0.651088 2.244004 0.000000
1.225449 2.244004 0.000000
2.244004 2.244004 0.000000
4.157521 2.244004 0.000000
7.650756 2.244004 0.000000
14.137600 2.244004 0.000000
25.725184 2.244004 0.000000
47.210641 2.244004 0.000000
88.322404 2.244004 0.000000
160.022500 2.244004 0.000000
297.562500 2.244004 0.000000
540.562500 2.244004 0.000000
986.588100 2.244004 0.000000
1849.860100 2.244004 0.000000
3333.907600 2.244004 0.000000
0.000000 4.157521 0.000000
0.000000 4.157521 0.000000
0.000000 4.157521 0.000000
0.000010 4.157521 0.000000
0.000052 4.157521 0.000000
0.000162 4.157521 0.000000
0.000413 4.157521 0.000000
0.000934 4.157521 0.000000
0.001990 4.157521 0.000000
0.004042 4.157521 0.000000
0.007887 4.157521 0.000000
0.015401 4.157521 0.000000
0.028866 4.157521 0.000000
0.055037 4.157521 0.000000
0.103041 4.157521 0.000000
0.192195 4.157521 0.000000
0.359400 4.157521 0.000000
0.651088 4.157521 0.000000
1.225449 4.157521 0.000000
2.244004 4.157521 0.000000
4.157521 4.157521 0.000000
7.650756 4.157521 0.000000
14.137600 4.157521 0.000000
25.725184 4.157521 0.000000
47.210641 4.157521 0.000000
88.322404 4.157521 0.000000
160.022500 4.157521 0.000000
297.562500 4.157521 0.000000
540.562500 4.157521 0.000000
986.588100 4.157521 0.000000
1849.860100 4.157521 0.000000
3333.907600 4.157521 0.000000
0.000000 7.650756 0.000000
0.000000 7.650756 0.000000
0.000000 7.650756 0.000000
0.000010 7.650756 0.000000
0.000052 7.650756 0.000000
0.000162 7.650756 0.000000
0.000413 7.650756 0.000000
0.000934 7.650756 0.000000
0.001990 7.650756 0.000000
0.004042 7.650756 0.000000
0.007887 7.650756 0.000000
0.015401 7.650756 0.000000
0.028866 7.650756 0.000000
0.055037 7.650756 0.000000
0.103041 7.650756 0.000000
0.192195 7.650756 0.000000
0.359400 7.650756 0.000000
0.651088 7.650756 0.000000
1.225449 7.650756 0.000000
2.244004 7.650756 0.000000
4.157521 7.650756 0.000000
7.650756 7.650756 0.000000
14.137600 7.650756 0.000000
25.725184 7.650756 0.000000
47.210641 7.650756 0.000000
88.322404 7.650756 0.000000
160.022500 7.650756 0.000000
297.562500 7.650756 0.000000
540.562500 7.650756 0.000000
986.588100 7.650756 0.000000
1849.860100 7.650756 0.000000
3333.907600 7.650756 0.000000
0.000000 14.137600 0.000000
0.000000 14.137600 0.000000
0.000000 14.137600 0.000000
0.000010 14.137600 0.000000
0.000052 14.137600 0.000000
0.000162 14.137600 0.000000
0.000413 14.137600 0.000000
0.000934 14.137600 0.000000
0.001990 14.137600 0.000000
0.004042 14.137600 0.000000
0.007887 14.137600 0.000000
0.015401 14.137600 0.000000
0.028866 14.137600 0.000000
0.055037 14.137600 0.000000
0.103041 14.137600 0.000000
0.192195 14.137600 0.000000
0.359400 14.137600 0.000000
0.651088 14.137600 0.000000
1.225449 14.137600 0.000000
2.244004 14.137600 0.000000
4.157521 14.137600 0.000000
7.650756 14.137600 0.000000
14.137600 14.137600 0.000000
25.725184 14.137600 0.000000
47.210641 14.137600 0.000000
88.322404 14.137600 0.000000
160.022500 14.137600 0.000000
297.562500 14.137600 0.000000
540.562500 14.137600 0.000000
986.588100 14.137600 0.000000
1849.860100 14.137600 0.000000
3333.907600 14.137600 0.000000
0.000000 25.725184 0.000000
0.000000 25.725184 0.000000
0.000000 25.725184 0.000000
0.000010 25.725184 0.000000
0.000052 25.725184 0.000000
0.000162 25.725184 0.000000
0.000413 25.725184 0.000000
0.000934 25.725184 0.000000
0.001990 25.725184 0.000000
0.004042 25.725184 0.000000
0.007887 25.725184 0.000000
0.015401 25.725184 0.000000
0.028866 25.725184 0.000000
0.055037 25.725184 0.000000
0.103041 25.725184 0.000000
0.192195 25.725184 0.000000
0.359400 25.725184 0.000000
0.651088 25.725184 0.000000
1.225449 25.725184 0.000000
2.244004 25.725184 0.000000
4.157521 25.725184 0.000000
7.650756 25.725184 0.000000
14.137600 25.725184 0.000000
25.725184 25.725184 0.000000
47.210641 25.725184 0.000000
88.322404 25.725184 0.000000
160.022500 25.725184 0.000000
297.562500 25.725184 0.000000
540.562500 25.725184 0.000000
986.588100 25.725184 0.000000
1849.860100 25.725184 0.000000
3333.907600 25.725184 0.000000
0.000000 47.210641 0.000000
0.000000 47.210641 0.000000
0.000000 47.210641 0.000000
0.000010 47.210641 0.000000
0.000052 47.210641 0.000000
0.000162 47.210641 0.000000
0.000413 47.210641 0.000000
0.000934 47.210641 0.000000
0.001990 47.210641 0.000000
0.004042 47.210641 0.000000
0.007887 47.210641 0.000000
0.015401 47.210641 0.000000
0.028866 47.210641 0.000000
0.055037 47.210641 0.000000
0.103041 47.210641 0.000000
0.192195 47.210641 0.000000
0.359400 47.210641 0.000000
0.651088 47.210641 0.000000
1.225449 47.210641 0.000000
2.244004 47.210641 0.000000
4.157521 47.210641 0.000000
7.650756 47.210641 0.000000
14.137600 47.210641 0.000000
25.725184 47.210641 0.000000
47.210641 47.210641 0.000000
88.322404 47.210641 0.000000
160.022500 47.210641 0.000000
297.562500 47.210641 0.000000
540.562500 47.210641 0.000000
986.588100 47.210641 0.000000
1849.860100 47.210641 0.000000
3333.907600 47.210641 0.000000
0.000000 88.322404 0.000000
0.000000 88.322404 0.000000
0.000000 88.322404 0.000000
0.000010 88.322404 0.000000
0.000052 88.322404 0.000000
0.000162 88.322404 0.000000
0.000413 88.322404 0.000000
0.000934 88.322404 0.000000
0.001990 88.322404 0.000000
0.004042 88.322404 0.000000
0.007887 88.322404 0.000000
0.015401 88.322404 0.000000
0.028866 88.322404 0.000000
0.055037 88.322404 0.000000
0.103041 88.322404 0.000000
0.192195 88.322404 0.000000
0.359400 88.322404 0.000000
0.651088 88.322404 0.000000
1.225449 88.322404 0.000000
2.244004 88.322404 0.000000
4.157521 88.322404 0.000000
7.650756 88.322404 0.000000
14.137600 88.322404 0.000000
25.725184 88.322404 0.000000
47.210641 88.322404 0.000000
88.322404 88.322404 0.000000
160.022500 88.322404 0.000000
297.562500 88.322404 0.000000
540.562500 88.322404 0.000000
986.588100 88.322404 0.000000
1849.860100 88.322404 0.000000
3333.907600 88.322404 0.000000
0.000000 160.022500 0.000000
0.000000 160.022500 0.000000
0.000000 160.022500 0.000000
0.000010 160.022500 0.000000
0.000052 160.022500 0.000000
0.000162 160.022500 0.000000
0.000413 160.022500 0.000000
0.000934 160.022500 0.000000
0.001990 160.022500 0.000000
0.004042 160.022500 0.000000
0.007887 160.022500 0.000000
0.015401 160.022500 0.000000
0.028866 160.022500 0.000000
0.055037 160.022500 0.000000
0.103041 160.022500 0.000000
0.192195 160.022500 0.000000
0.359400 160.022500 0.000000
0.651088 160.022500 0.000000
1.225449 160.022500 0.000000
2.244004 160.022500 0.000000
4.157521 160.022500 0.000000
7.650756 160.022500 0.000000
14.137600 160.022500 0.000000
25.725184 160.022500 0.000000
47.210641 160.022500 0.000000
88.322404 160.022500 0.000000
160.022500 160.022500 0.000000
297.562500 160.022500 0.000000
540.562500 160.022500 0.000000
