unity projects/model_test/Assets/square.cube
TITLE "square.cube"
LUT_3D_SIZE 5
DOMAIN_MIN 0.000000 0.000000 0.000000
DOMAIN_MAX 0.903226 0.903226 0.903226
0.000000 0.000000 0.000000
0.000934 0.000000 0.000000
0.103041 0.000000 0.000000
7.650756 0.000000 0.000000
540.562500 0.000000 0.000000
0.000000 0.000934 0.000000
0.000934 0.000934 0.000000
0.103041 0.000934 0.000000
7.650756 0.000934 0.000000
540.562500 0.000934 0.000000
0.000000 0.103041 0.000000
0.000934 0.103041 0.000000
0.103041 0.103041 0.000000
7.650756 0.103041 0.000000
540.562500 0.103041 0.000000
0.000000 7.650756 0.000000
0.000934 7.650756 0.000000
0.103041 7.650756 0.000000
7.650756 7.650756 0.000000
540.562500 7.650756 0.000000
0.000000 540.562500 0.000000
0.000934 540.562500 0.000000
0.103041 540.562500 0.000000
7.650756 540.562500 0.000000
540.562500 540.562500 0.000000
0.000000 0.000000 0.000934
0.000934 0.000000 0.000934
0.103041 0.000000 0.000934
7.650756 0.000000 0.000934
540.562500 0.000000 0.000934
0.000000 0.000934 0.000934
0.000934 0.000934 0.000934
0.103041 0.000934 0.000934
7.650756 0.000934 0.000934
540.562500 0.000934 0.000934
0.000000 0.103041 0.000934
0.000934 0.103041 0.000934
0.103041 0.103041 0.000934
7.650756 0.103041 0.000934
540.562500 0.103041 0.000934
0.000000 7.650756 0.000934
0.000934 7.650756 0.000934
0.103041 7.650756 0.000934
7.650756 7.650756 0.000934
540.562500 7.650756 0.000934
0.000000 540.562500 0.000934
0.000934 540.562500 0.000934
0.103041 540.562500 0.000934
7.650756 540.562500 0.000934
540.562500 540.562500 0.000934
0.000000 0.000000 0.103041
0.000934 0.000000 0.103041
0.103041 0.000000 0.103041
7.650756 0.000000 0.103041
540.562500 0.000000 0.103041
0.000000 0.000934 0.103041
0.000934 0.000934 0.103041
0.103041 0.000934 0.103041
7.650756 0.000934 0.103041
540.562500 0.000934 0.103041
0.000000 0.103041 0.103041
0.000934 0.103041 0.103041
0.103041 0.103041 0.103041
7.650756 0.103041 0.103041
540.562500 0.103041 0.103041
0.000000 7.650756 0.103041
0.000934 7.650756 0.103041
0.103041 7.650756 0.103041
7.650756 7.650756 0.103041
540.562500 7.650756 0.103041
0.000000 540.562500 0.103041
0.000934 540.562500 0.103041
0.103041 540.562500 0.103041
7.650756 540.562500 0.103041
540.562500 540.562500 0.103041
0.000000 0.000000 7.650756
0.000934 0.000000 7.650756
0.103041 0.000000 7.650756
7.650756 0.000000 7.650756
540.562500 0.000000 7.650756
0.000000 0.000934 7.650756
0.000934 0.000934 7.650756
0.103041 0.000934 7.650756
7.650756 0.000934 7.650756
540.562500 0.000934 7.650756
0.000000 0.103041 7.650756
0.000934 0.103041 7.650756
0.103041 0.103041 7.650756
7.650756 0.103041 7.650756
540.562500 0.103041 7.650756
0.000000 7.650756 7.650756
0.000934 7.650756 7.650756
0.103041 7.650756 7.650756
7.650756 7.650756 7.650756
540.562500 7.650756 7.650756
0.000000 540.562500 7.650756
0.000934 540.562500 7.650756
0.103041 540.562500 7.650756
7.650756 540.562500 7.650756
540.562500 540.562500 7.650756
0.000000 0.000000 540.562500
0.000934 0.000000 540.562500
0.103041 0.000000 540.562500
7.650756 0.000000 540.562500
540.562500 0.000000 540.562500
0.000000 0.000934 540.562500
0.000934 0.000934 540.562500
0.103041 0.000934 540.562500
7.650756 0.000934 540.562500
540.562500 0.000934 540.562500
0.000000 0.103041 540.562500
0.000934 0.103041 540.562500
0.103041 0.103041 540.562500
7.650756 0.103041 540.562500
540.562500 0.103041 540.562500
0.000000 7.650756 540.562500
0.000934 7.650756 540.562500
0.103041 7.650756 540.562500
7.650756 7.650756 540.562500
540.562500 7.650756 540.562500
0.000000 540.562500 540.562500
0.000934 540.562500 540.562500
0.103041 540.562500 540.562500
7.650756 540.562500 540.562500
540.562500 540.562500 540.562500
