unity projects/model_test/Assets/square.cube
TITLE "square.cube"
LUT_3D_SIZE 8
DOMAIN_MIN 0.000000 0.000000 0.000000
DOMAIN_MAX 0.903226 0.903226 0.903226
0.000000 0.000000 0.000000
0.000052 0.000000 0.000000
0.001990 0.000000 0.000000
0.028866 0.000000 0.000000
0.359400 0.000000 0.000000
4.157521 0.000000 0.000000
47.210641 0.000000 0.000000
540.562500 0.000000 0.000000
0.000000 0.000052 0.000000
0.000052 0.000052 0.000000
0.001990 0.000052 0.000000
0.028866 0.000052 0.000000
0.359400 0.000052 0.000000
4.157521 0.000052 0.000000
47.210641 0.000052 0.000000
540.562500 0.000052 0.000000
0.000000 0.001990 0.000000
0.000052 0.001990 0.000000
0.001990 0.001990 0.000000
0.028866 0.001990 0.000000
0.359400 0.001990 0.000000
4.157521 0.001990 0.000000
47.210641 0.001990 0.000000
540.562500 0.001990 0.000000
0.000000 0.028866 0.000000
0.000052 0.028866 0.000000
0.001990 0.028866 0.000000
0.028866 0.028866 0.000000
0.359400 0.028866 0.000000
4.157521 0.028866 0.000000
47.210641 0.028866 0.000000
540.562500 0.028866 0.000000
0.000000 0.359400 0.000000
0.000052 0.359400 0.000000
0.001990 0.359400 0.000000
0.028866 0.359400 0.000000
0.359400 0.359400 0.000000
4.157521 0.359400 0.000000
47.210641 0.359400 0.000000
540.562500 0.359400 0.000000
0.000000 4.157521 0.000000
0.000052 4.157521 0.000000
0.001990 4.157521 0.000000
0.028866 4.157521 0.000000
0.359400 4.157521 0.000000
4.157521 4.157521 0.000000
47.210641 4.157521 0.000000
540.562500 4.157521 0.000000
0.000000 47.210641 0.000000
0.000052 47.210641 0.000000
0.001990 47.210641 0.000000
0.028866 47.210641 0.000000
0.359400 47.210641 0.000000
4.157521 47.210641 0.000000
47.210641 47.210641 0.000000
540.562500 47.210641 0.000000
0.000000 540.562500 0.000000
0.000052 540.562500 0.000000
0.001990 540.562500 0.000000
0.028866 540.562500 0.000000
0.359400 540.562500 0.000000
4.157521 540.562500 0.000000
47.210641 540.562500 0.000000
540.562500 540.562500 0.000000
0.000000 0.000000 0.000052
0.000052 0.000000 0.000052
0.001990 0.000000 0.000052
0.028866 0.000000 0.000052
0.359400 0.000000 0.000052
4.157521 0.000000 0.000052
47.210641 0.000000 0.000052
540.562500 0.000000 0.000052
0.000000 0.000052 0.000052
0.000052 0.000052 0.000052
0.001990 0.000052 0.000052
0.028866 0.000052 0.000052
0.359400 0.000052 0.000052
4.157521 0.000052 0.000052
47.210641 0.000052 0.000052
540.562500 0.000052 0.000052
0.000000 0.001990 0.000052
0.000052 0.001990 0.000052
0.001990 0.001990 0.000052
0.028866 0.001990 0.000052
0.359400 0.001990 0.000052
4.157521 0.001990 0.000052
47.210641 0.001990 0.000052
540.562500 0.001990 0.000052
0.000000 0.028866 0.000052
0.000052 0.028866 0.000052
0.001990 0.028866 0.000052
0.028866 0.028866 0.000052
0.359400 0.028866 0.000052
4.157521 0.028866 0.000052
47.210641 0.028866 0.000052
540.562500 0.028866 0.000052
0.000000 0.359400 0.000052
0.000052 0.359400 0.000052
0.001990 0.359400 0.000052
0.028866 0.359400 0.000052
0.359400 0.359400 0.000052
4.157521 0.359400 0.000052
47.210641 0.359400 0.000052
540.562500 0.359400 0.000052
0.000000 4.157521 0.000052
0.000052 4.157521 0.000052
0.001990 4.157521 0.000052
0.028866 4.157521 0.000052
0.359400 4.157521 0.000052
4.157521 4.157521 0.000052
47.210641 4.157521 0.000052
540.562500 4.157521 0.000052
0.000000 47.210641 0.000052
0.000052 47.210641 0.000052
0.001990 47.210641 0.000052
0.028866 47.210641 0.000052
0.359400 47.210641 0.000052
4.157521 47.210641 0.000052
47.210641 47.210641 0.000052
540.562500 47.210641 0.000052
0.000000 540.562500 0.000052
0.000052 540.562500 0.000052
0.001990 540.562500 0.000052
0.028866 540.562500 0.000052
0.359400 540.562500 0.000052
4.157521 540.562500 0.000052
47.210641 540.562500 0.000052
540.562500 540.562500 0.000052
0.000000 0.000000 0.001990
0.000052 0.000000 0.001990
0.001990 0.000000 0.001990
0.028866 0.000000 0.001990
0.359400 0.000000 0.001990
4.157521 0.000000 0.001990
47.210641 0.000000 0.001990
540.562500 0.000000 0.001990
0.000000 0.000052 0.001990
0.000052 0.000052 0.001990
0.001990 0.000052 0.001990
0.028866 0.000052 0.001990
0.359400 0.000052 0.001990
4.157521 0.000052 0.001990
47.210641 0.000052 0.001990
540.562500 0.000052 0.001990
0.000000 0.001990 0.001990
0.000052 0.001990 0.001990
0.001990 0.001990 0.001990
0.028866 0.001990 0.001990
0.359400 0.001990 0.001990
4.157521 0.001990 0.001990
47.210641 0.001990 0.001990
540.562500 0.001990 0.001990
0.000000 0.028866 0.001990
0.000052 0.028866 0.001990
0.001990 0.028866 0.001990
0.028866 0.028866 0.001990
0.359400 0.028866 0.001990
4.157521 0.028866 0.001990
47.210641 0.028866 0.001990
540.562500 0.028866 0.001990
0.000000 0.359400 0.001990
0.000052 0.359400 0.001990
0.001990 0.359400 0.001990
0.028866 0.359400 0.001990
0.359400 0.359400 0.001990
4.157521 0.359400 0.001990
47.210641 0.359400 0.001990
540.562500 0.359400 0.001990
0.000000 4.157521 0.001990
0.000052 4.157521 0.001990
0.001990 4.157521 0.001990
0.028866 4.157521 0.001990
0.359400 4.157521 0.001990
4.157521 4.157521 0.001990
47.210641 4.157521 0.001990
540.562500 4.157521 0.001990
0.000000 47.210641 0.001990
0.000052 47.210641 0.001990
0.001990 47.210641 0.001990
0.028866 47.210641 0.001990
0.359400 47.210641 0.001990
4.157521 47.210641 0.001990
47.210641 47.210641 0.001990
540.562500 47.210641 0.001990
0.000000 540.562500 0.001990
0.000052 540.562500 0.001990
0.001990 540.562500 0.001990
0.028866 540.562500 0.001990
0.359400 540.562500 0.001990
4.157521 540.562500 0.001990
47.210641 540.562500 0.001990
540.562500 540.562500 0.001990
0.000000 0.000000 0.028866
0.000052 0.000000 0.028866
0.001990 0.000000 0.028866
0.028866 0.000000 0.028866
0.359400 0.000000 0.028866
4.157521 0.000000 0.028866
47.210641 0.000000 0.028866
540.562500 0.000000 0.028866
0.000000 0.000052 0.028866
0.000052 0.000052 0.028866
0.001990 0.000052 0.028866
0.028866 0.000052 0.028866
0.359400 0.000052 0.028866
4.157521 0.000052 0.028866
47.210641 0.000052 0.028866
540.562500 0.000052 0.028866
0.000000 0.001990 0.028866
0.000052 0.001990 0.028866
0.001990 0.001990 0.028866
0.028866 0.001990 0.028866
0.359400 0.001990 0.028866
4.157521 0.001990 0.028866
47.210641 0.001990 0.028866
540.562500 0.001990 0.028866
0.000000 0.028866 0.028866
0.000052 0.028866 0.028866
0.001990 0.028866 0.028866
0.028866 0.028866 0.028866
0.359400 0.028866 0.028866
4.157521 0.028866 0.028866
47.210641 0.028866 0.028866
540.562500 0.028866 0.028866
0.000000 0.359400 0.028866
0.000052 0.359400 0.028866
0.001990 0.359400 0.028866
0.028866 0.359400 0.028866
0.359400 0.359400 0.028866
4.157521 0.359400 0.028866
47.210641 0.359400 0.028866
540.562500 0.359400 0.028866
0.000000 4.157521 0.028866
0.000052 4.157521 0.028866
0.001990 4.157521 0.028866
0.028866 4.157521 0.028866
0.359400 4.157521 0.028866
4.157521 4.157521 0.028866
47.210641 4.157521 0.028866
540.562500 4.157521 0.028866
0.000000 47.210641 0.028866
0.000052 47.210641 0.028866
0.001990 47.210641 0.028866
0.028866 47.210641 0.028866
0.359400 47.210641 0.028866
4.157521 47.210641 0.028866
47.210641 47.210641 0.028866
540.562500 47.210641 0.028866
0.000000 540.562500 0.028866
0.000052 540.562500 0.028866
0.001990 540.562500 0.028866
0.028866 540.562500 0.028866
0.359400 540.562500 0.028866
4.157521 540.562500 0.028866
47.210641 540.562500 0.028866
540.562500 540.562500 0.028866
0.000000 0.000000 0.359400
0.000052 0.000000 0.359400
0.001990 0.000000 0.359400
0.028866 0.000000 0.359400
0.359400 0.000000 0.359400
4.157521 0.000000 0.359400
47.210641 0.000000 0.359400
540.562500 0.000000 0.359400
0.000000 0.000052 0.359400
0.000052 0.000052 0.359400
0.001990 0.000052 0.359400
0.028866 0.000052 0.359400
0.359400 0.000052 0.359400
4.157521 0.000052 0.359400
47.210641 0.000052 0.359400
540.562500 0.000052 0.359400
0.000000 0.001990 0.359400
0.000052 0.001990 0.359400
0.001990 0.001990 0.359400
0.028866 0.001990 0.359400
0.359400 0.001990 0.359400
4.157521 0.001990 0.359400
47.210641 0.001990 0.359400
540.562500 0.001990 0.359400
0.000000 0.028866 0.359400
0.000052 0.028866 0.359400
0.001990 0.028866 0.359400
0.028866 0.028866 0.359400
0.359400 0.028866 0.359400
4.157521 0.028866 0.359400
47.210641 0.028866 0.359400
540.562500 0.028866 0.359400
0.000000 0.359400 0.359400
0.000052 0.359400 0.359400
0.001990 0.359400 0.359400
0.028866 0.359400 0.359400
0.359400 0.359400 0.359400
4.157521 0.359400 0.359400
47.210641 0.359400 0.359400
540.562500 0.359400 0.359400
0.000000 4.157521 0.359400
0.000052 4.157521 0.359400
0.001990 4.157521 0.359400
0.028866 4.157521 0.359400
0.359400 4.157521 0.359400
4.157521 4.157521 0.359400
47.210641 4.157521 0.359400
540.562500 4.157521 0.359400
0.000000 47.210641 0.359400
0.000052 47.210641 0.359400
0.001990 47.210641 0.359400
0.028866 47.210641 0.359400
0.359400 47.210641 0.359400
4.157521 47.210641 0.359400
47.210641 47.210641 0.359400
540.562500 47.210641 0.359400
0.000000 540.562500 0.359400
0.000052 540.562500 0.359400
0.001990 540.562500 0.359400
0.028866 540.562500 0.359400
0.359400 540.562500 0.359400
4.157521 540.562500 0.359400
47.210641 540.562500 0.359400
540.562500 540.562500 0.359400
0.000000 0.000000 4.157521
0.000052 0.000000 4.157521
0.001990 0.000000 4.157521
0.028866 0.000000 4.157521
0.359400 0.000000 4.157521
4.157521 0.000000 4.157521
47.210641 0.000000 4.157521
540.562500 0.000000 4.157521
0.000000 0.000052 4.157521
0.000052 0.000052 4.157521
0.001990 0.000052 4.157521
0.028866 0.000052 4.157521
0.359400 0.000052 4.157521
4.157521 0.000052 4.157521
47.210641 0.000052 4.157521
540.562500 0.000052 4.157521
0.000000 0.001990 4.157521
0.000052 0.001990 4.157521
0.001990 0.001990 4.157521
0.028866 0.001990 4.157521
0.359400 0.001990 4.157521
4.157521 0.001990 4.157521
47.210641 0.001990 4.157521
540.562500 0.001990 4.157521
0.000000 0.028866 4.157521
0.000052 0.028866 4.157521
0.001990 0.028866 4.157521
0.028866 0.028866 4.157521
0.359400 0.028866 4.157521
4.157521 0.028866 4.157521
47.210641 0.028866 4.157521
540.562500 0.028866 4.157521
0.000000 0.359400 4.157521
0.000052 0.359400 4.157521
0.001990 0.359400 4.157521
0.028866 0.359400 4.157521
0.359400 0.359400 4.157521
4.157521 0.359400 4.157521
47.210641 0.359400 4.157521
540.562500 0.359400 4.157521
0.000000 4.157521 4.157521
0.000052 4.157521 4.157521
0.001990 4.157521 4.157521
0.028866 4.157521 4.157521
0.359400 4.157521 4.157521
4.157521 4.157521 4.157521
47.210641 4.157521 4.157521
540.562500 4.157521 4.157521
0.000000 47.210641 4.157521
0.000052 47.210641 4.157521
0.001990 47.210641 4.157521
0.028866 47.210641 4.157521
0.359400 47.210641 4.157521
4.157521 47.210641 4.157521
47.210641 47.210641 4.157521
540.562500 47.210641 4.157521
0.000000 540.562500 4.157521
0.000052 540.562500 4.157521
0.001990 540.562500 4.157521
0.028866 540.562500 4.157521
0.359400 540.562500 4.157521
4.157521 540.562500 4.157521
47.210641 540.562500 4.157521
540.562500 540.562500 4.157521
0.000000 0.000000 47.210641
0.000052 0.000000 47.210641
0.001990 0.000000 47.210641
0.028866 0.000000 47.210641
0.359400 0.000000 47.210641
4.157521 0.000000 47.210641
47.210641 0.000000 47.210641
540.562500 0.000000 47.210641
0.000000 0.000052 47.210641
0.000052 0.000052 47.210641
0.001990 0.000052 47.210641
0.028866 0.000052 47.210641
0.359400 0.000052 47.210641
4.157521 0.000052 47.210641
47.210641 0.000052 47.210641
540.562500 0.000052 47.210641
0.000000 0.001990 47.210641
0.000052 0.001990 47.210641
0.001990 0.001990 47.210641
0.028866 0.001990 47.210641
0.359400 0.001990 47.210641
4.157521 0.001990 47.210641
47.210641 0.001990 47.210641
540.562500 0.001990 47.210641
0.000000 0.028866 47.210641
0.000052 0.028866 47.210641
0.001990 0.028866 47.210641
0.028866 0.028866 47.210641
0.359400 0.028866 47.210641
4.157521 0.028866 47.210641
47.210641 0.028866 47.210641
540.562500 0.028866 47.210641
0.000000 0.359400 47.210641
0.000052 0.359400 47.210641
0.001990 0.359400 47.210641
0.028866 0.359400 47.210641
0.359400 0.359400 47.210641
4.157521 0.359400 47.210641
47.210641 0.359400 47.210641
540.562500 0.359400 47.210641
0.000000 4.157521 47.210641
0.000052 4.157521 47.210641
0.001990 4.157521 47.210641
0.028866 4.157521 47.210641
0.359400 4.157521 47.210641
4.157521 4.157521 47.210641
47.210641 4.157521 47.210641
540.562500 4.157521 47.210641
0.000000 47.210641 47.210641
0.000052 47.210641 47.210641
0.001990 47.210641 47.210641
0.028866 47.210641 47.210641
0.359400 47.210641 47.210641
4.157521 47.210641 47.210641
47.210641 47.210641 47.210641
540.562500 47.210641 47.210641
0.000000 540.562500 47.210641
0.000052 540.562500 47.210641
0.001990 540.562500 47.210641
0.028866 540.562500 47.210641
0.359400 540.562500 47.210641
4.157521 540.562500 47.210641
47.210641 540.562500 47.210641
540.562500 540.562500 47.210641
0.000000 0.000000 540.562500
0.000052 0.000000 540.562500
0.001990 0.000000 540.562500
0.028866 0.000000 540.562500
0.359400 0.000000 540.562500
4.157521 0.000000 540.562500
47.210641 0.000000 540.562500
540.562500 0.000000 540.562500
0.000000 0.000052 540.562500
0.000052 0.000052 540.562500
0.001990 0.000052 540.562500
0.028866 0.000052 540.562500
0.359400 0.000052 540.562500
4.157521 0.000052 540.562500
47.210641 0.000052 540.562500
540.562500 0.000052 540.562500
0.000000 0.001990 540.562500
0.000052 0.001990 540.562500
0.001990 0.001990 540.562500
0.028866 0.001990 540.562500
0.359400 0.001990 540.562500
4.157521 0.001990 540.562500
47.210641 0.001990 540.562500
540.562500 0.001990 540.562500
0.000000 0.028866 540.562500
0.000052 0.028866 540.562500
0.001990 0.028866 540.562500
0.028866 0.028866 540.562500
0.359400 0.028866 540.562500
4.157521 0.028866 540.562500
47.210641 0.028866 540.562500
540.562500 0.028866 540.562500
0.000000 0.359400 540.562500
0.000052 0.359400 540.562500
0.001990 0.359400 540.562500
0.028866 0.359400 540.562500
0.359400 0.359400 540.562500
4.157521 0.359400 540.562500
47.210641 0.359400 540.562500
540.562500 0.359400 540.562500
0.000000 4.157521 540.562500
0.000052 4.157521 540.562500
0.001990 4.157521 540.562500
0.028866 4.157521 540.562500
0.359400 4.157521 540.562500
4.157521 4.157521 540.562500
47.210641 4.157521 540.562500
540.562500 4.157521 540.562500
0.000000 47.210641 540.562500
0.000052 47.210641 540.562500
0.001990 47.210641 540.562500
0.028866 47.210641 540.562500
0.359400 47.210641 540.562500
4.157521 47.210641 540.562500
47.210641 47.210641 540.562500
540.562500 47.210641 540.562500
0.000000 540.562500 540.562500
0.000052 540.562500 540.562500
0.001990 540.562500 540.562500
0.028866 540.562500 540.562500
0.359400 540.562500 540.562500
4.157521 540.562500 540.562500
47.210641 540.562500 540.562500
540.562500 540.562500 540.562500
