render_random/Assets/square_root.cube
TITLE "square_root.cube"
LUT_3D_SIZE 8
DOMAIN_MIN 0.000000 0.000000 0.000000
DOMAIN_MAX 0.903226 0.903226 0.903226
0.000000 0.000000 0.000000
0.084753 0.000000 0.000000
0.211211 0.000000 0.000000
0.412189 0.000000 0.000000
0.774274 0.000000 0.000000
1.427936 0.000000 0.000000
2.621259 0.000000 0.000000
4.821825 0.000000 0.000000
0.000000 0.084753 0.000000
0.084753 0.084753 0.000000
0.211211 0.084753 0.000000
0.412189 0.084753 0.000000
0.774274 0.084753 0.000000
1.427936 0.084753 0.000000
2.621259 0.084753 0.000000
4.821825 0.084753 0.000000
0.000000 0.211211 0.000000
0.084753 0.211211 0.000000
0.211211 0.211211 0.000000
0.412189 0.211211 0.000000
0.774274 0.211211 0.000000
1.427936 0.211211 0.000000
2.621259 0.211211 0.000000
4.821825 0.211211 0.000000
0.000000 0.412189 0.000000
0.084753 0.412189 0.000000
0.211211 0.412189 0.000000
0.412189 0.412189 0.000000
0.774274 0.412189 0.000000
1.427936 0.412189 0.000000
2.621259 0.412189 0.000000
4.821825 0.412189 0.000000
0.000000 0.774274 0.000000
0.084753 0.774274 0.000000
0.211211 0.774274 0.000000
0.412189 0.774274 0.000000
0.774274 0.774274 0.000000
1.427936 0.774274 0.000000
2.621259 0.774274 0.000000
4.821825 0.774274 0.000000
0.000000 1.427936 0.000000
0.084753 1.427936 0.000000
0.211211 1.427936 0.000000
0.412189 1.427936 0.000000
0.774274 1.427936 0.000000
1.427936 1.427936 0.000000
2.621259 1.427936 0.000000
4.821825 1.427936 0.000000
0.000000 2.621259 0.000000
0.084753 2.621259 0.000000
0.211211 2.621259 0.000000
0.412189 2.621259 0.000000
0.774274 2.621259 0.000000
1.427936 2.621259 0.000000
2.621259 2.621259 0.000000
4.821825 2.621259 0.000000
0.000000 4.821825 0.000000
0.084753 4.821825 0.000000
0.211211 4.821825 0.000000
0.412189 4.821825 0.000000
0.774274 4.821825 0.000000
1.427936 4.821825 0.000000
2.621259 4.821825 0.000000
4.821825 4.821825 0.000000
0.000000 0.000000 0.084753
0.084753 0.000000 0.084753
0.211211 0.000000 0.084753
0.412189 0.000000 0.084753
0.774274 0.000000 0.084753
1.427936 0.000000 0.084753
2.621259 0.000000 0.084753
4.821825 0.000000 0.084753
0.000000 0.084753 0.084753
0.084753 0.084753 0.084753
0.211211 0.084753 0.084753
0.412189 0.084753 0.084753
0.774274 0.084753 0.084753
1.427936 0.084753 0.084753
2.621259 0.084753 0.084753
4.821825 0.084753 0.084753
0.000000 0.211211 0.084753
0.084753 0.211211 0.084753
0.211211 0.211211 0.084753
0.412189 0.211211 0.084753
0.774274 0.211211 0.084753
1.427936 0.211211 0.084753
2.621259 0.211211 0.084753
4.821825 0.211211 0.084753
0.000000 0.412189 0.084753
0.084753 0.412189 0.084753
0.211211 0.412189 0.084753
0.412189 0.412189 0.084753
0.774274 0.412189 0.084753
1.427936 0.412189 0.084753
2.621259 0.412189 0.084753
4.821825 0.412189 0.084753
0.000000 0.774274 0.084753
0.084753 0.774274 0.084753
0.211211 0.774274 0.084753
0.412189 0.774274 0.084753
0.774274 0.774274 0.084753
1.427936 0.774274 0.084753
2.621259 0.774274 0.084753
4.821825 0.774274 0.084753
0.000000 1.427936 0.084753
0.084753 1.427936 0.084753
0.211211 1.427936 0.084753
0.412189 1.427936 0.084753
0.774274 1.427936 0.084753
1.427936 1.427936 0.084753
2.621259 1.427936 0.084753
4.821825 1.427936 0.084753
0.000000 2.621259 0.084753
0.084753 2.621259 0.084753
0.211211 2.621259 0.084753
0.412189 2.621259 0.084753
0.774274 2.621259 0.084753
1.427936 2.621259 0.084753
2.621259 2.621259 0.084753
4.821825 2.621259 0.084753
0.000000 4.821825 0.084753
0.084753 4.821825 0.084753
0.211211 4.821825 0.084753
0.412189 4.821825 0.084753
0.774274 4.821825 0.084753
1.427936 4.821825 0.084753
2.621259 4.821825 0.084753
4.821825 4.821825 0.084753
0.000000 0.000000 0.211211
0.084753 0.000000 0.211211
0.211211 0.000000 0.211211
0.412189 0.000000 0.211211
0.774274 0.000000 0.211211
1.427936 0.000000 0.211211
2.621259 0.000000 0.211211
4.821825 0.000000 0.211211
0.000000 0.084753 0.211211
0.084753 0.084753 0.211211
0.211211 0.084753 0.211211
0.412189 0.084753 0.211211
0.774274 0.084753 0.211211
1.427936 0.084753 0.211211
2.621259 0.084753 0.211211
4.821825 0.084753 0.211211
0.000000 0.211211 0.211211
0.084753 0.211211 0.211211
0.211211 0.211211 0.211211
0.412189 0.211211 0.211211
0.774274 0.211211 0.211211
1.427936 0.211211 0.211211
2.621259 0.211211 0.211211
4.821825 0.211211 0.211211
0.000000 0.412189 0.211211
0.084753 0.412189 0.211211
0.211211 0.412189 0.211211
0.412189 0.412189 0.211211
0.774274 0.412189 0.211211
1.427936 0.412189 0.211211
2.621259 0.412189 0.211211
4.821825 0.412189 0.211211
0.000000 0.774274 0.211211
0.084753 0.774274 0.211211
0.211211 0.774274 0.211211
0.412189 0.774274 0.211211
0.774274 0.774274 0.211211
1.427936 0.774274 0.211211
2.621259 0.774274 0.211211
4.821825 0.774274 0.211211
0.000000 1.427936 0.211211
0.084753 1.427936 0.211211
0.211211 1.427936 0.211211
0.412189 1.427936 0.211211
0.774274 1.427936 0.211211
1.427936 1.427936 0.211211
2.621259 1.427936 0.211211
4.821825 1.427936 0.211211
0.000000 2.621259 0.211211
0.084753 2.621259 0.211211
0.211211 2.621259 0.211211
0.412189 2.621259 0.211211
0.774274 2.621259 0.211211
1.427936 2.621259 0.211211
2.621259 2.621259 0.211211
4.821825 2.621259 0.211211
0.000000 4.821825 0.211211
0.084753 4.821825 0.211211
0.211211 4.821825 0.211211
0.412189 4.821825 0.211211
0.774274 4.821825 0.211211
1.427936 4.821825 0.211211
2.621259 4.821825 0.211211
4.821825 4.821825 0.211211
0.000000 0.000000 0.412189
0.084753 0.000000 0.412189
0.211211 0.000000 0.412189
0.412189 0.000000 0.412189
0.774274 0.000000 0.412189
1.427936 0.000000 0.412189
2.621259 0.000000 0.412189
4.821825 0.000000 0.412189
0.000000 0.084753 0.412189
0.084753 0.084753 0.412189
0.211211 0.084753 0.412189
0.412189 0.084753 0.412189
0.774274 0.084753 0.412189
1.427936 0.084753 0.412189
2.621259 0.084753 0.412189
4.821825 0.084753 0.412189
0.000000 0.211211 0.412189
0.084753 0.211211 0.412189
0.211211 0.211211 0.412189
0.412189 0.211211 0.412189
0.774274 0.211211 0.412189
1.427936 0.211211 0.412189
2.621259 0.211211 0.412189
4.821825 0.211211 0.412189
0.000000 0.412189 0.412189
0.084753 0.412189 0.412189
0.211211 0.412189 0.412189
0.412189 0.412189 0.412189
0.774274 0.412189 0.412189
1.427936 0.412189 0.412189
2.621259 0.412189 0.412189
4.821825 0.412189 0.412189
0.000000 0.774274 0.412189
0.084753 0.774274 0.412189
0.211211 0.774274 0.412189
0.412189 0.774274 0.412189
0.774274 0.774274 0.412189
1.427936 0.774274 0.412189
2.621259 0.774274 0.412189
4.821825 0.774274 0.412189
0.000000 1.427936 0.412189
0.084753 1.427936 0.412189
0.211211 1.427936 0.412189
0.412189 1.427936 0.412189
0.774274 1.427936 0.412189
1.427936 1.427936 0.412189
2.621259 1.427936 0.412189
4.821825 1.427936 0.412189
0.000000 2.621259 0.412189
0.084753 2.621259 0.412189
0.211211 2.621259 0.412189
0.412189 2.621259 0.412189
0.774274 2.621259 0.412189
1.427936 2.621259 0.412189
2.621259 2.621259 0.412189
4.821825 2.621259 0.412189
0.000000 4.821825 0.412189
0.084753 4.821825 0.412189
0.211211 4.821825 0.412189
0.412189 4.821825 0.412189
0.774274 4.821825 0.412189
1.427936 4.821825 0.412189
2.621259 4.821825 0.412189
4.821825 4.821825 0.412189
0.000000 0.000000 0.774274
0.084753 0.000000 0.774274
0.211211 0.000000 0.774274
0.412189 0.000000 0.774274
0.774274 0.000000 0.774274
1.427936 0.000000 0.774274
2.621259 0.000000 0.774274
4.821825 0.000000 0.774274
0.000000 0.084753 0.774274
0.084753 0.084753 0.774274
0.211211 0.084753 0.774274
0.412189 0.084753 0.774274
0.774274 0.084753 0.774274
1.427936 0.084753 0.774274
2.621259 0.084753 0.774274
4.821825 0.084753 0.774274
0.000000 0.211211 0.774274
0.084753 0.211211 0.774274
0.211211 0.211211 0.774274
0.412189 0.211211 0.774274
0.774274 0.211211 0.774274
1.427936 0.211211 0.774274
2.621259 0.211211 0.774274
4.821825 0.211211 0.774274
0.000000 0.412189 0.774274
0.084753 0.412189 0.774274
0.211211 0.412189 0.774274
0.412189 0.412189 0.774274
0.774274 0.412189 0.774274
1.427936 0.412189 0.774274
2.621259 0.412189 0.774274
4.821825 0.412189 0.774274
0.000000 0.774274 0.774274
0.084753 0.774274 0.774274
0.211211 0.774274 0.774274
0.412189 0.774274 0.774274
0.774274 0.774274 0.774274
1.427936 0.774274 0.774274
2.621259 0.774274 0.774274
4.821825 0.774274 0.774274
0.000000 1.427936 0.774274
0.084753 1.427936 0.774274
0.211211 1.427936 0.774274
0.412189 1.427936 0.774274
0.774274 1.427936 0.774274
1.427936 1.427936 0.774274
2.621259 1.427936 0.774274
4.821825 1.427936 0.774274
0.000000 2.621259 0.774274
0.084753 2.621259 0.774274
0.211211 2.621259 0.774274
0.412189 2.621259 0.774274
0.774274 2.621259 0.774274
1.427936 2.621259 0.774274
2.621259 2.621259 0.774274
4.821825 2.621259 0.774274
0.000000 4.821825 0.774274
0.084753 4.821825 0.774274
0.211211 4.821825 0.774274
0.412189 4.821825 0.774274
0.774274 4.821825 0.774274
1.427936 4.821825 0.774274
2.621259 4.821825 0.774274
4.821825 4.821825 0.774274
0.000000 0.000000 1.427936
0.084753 0.000000 1.427936
0.211211 0.000000 1.427936
0.412189 0.000000 1.427936
0.774274 0.000000 1.427936
1.427936 0.000000 1.427936
2.621259 0.000000 1.427936
4.821825 0.000000 1.427936
0.000000 0.084753 1.427936
0.084753 0.084753 1.427936
0.211211 0.084753 1.427936
0.412189 0.084753 1.427936
0.774274 0.084753 1.427936
1.427936 0.084753 1.427936
2.621259 0.084753 1.427936
4.821825 0.084753 1.427936
0.000000 0.211211 1.427936
0.084753 0.211211 1.427936
0.211211 0.211211 1.427936
0.412189 0.211211 1.427936
0.774274 0.211211 1.427936
1.427936 0.211211 1.427936
2.621259 0.211211 1.427936
4.821825 0.211211 1.427936
0.000000 0.412189 1.427936
0.084753 0.412189 1.427936
0.211211 0.412189 1.427936
0.412189 0.412189 1.427936
0.774274 0.412189 1.427936
1.427936 0.412189 1.427936
2.621259 0.412189 1.427936
4.821825 0.412189 1.427936
0.000000 0.774274 1.427936
0.084753 0.774274 1.427936
0.211211 0.774274 1.427936
0.412189 0.774274 1.427936
0.774274 0.774274 1.427936
1.427936 0.774274 1.427936
2.621259 0.774274 1.427936
4.821825 0.774274 1.427936
0.000000 1.427936 1.427936
0.084753 1.427936 1.427936
0.211211 1.427936 1.427936
0.412189 1.427936 1.427936
0.774274 1.427936 1.427936
1.427936 1.427936 1.427936
2.621259 1.427936 1.427936
4.821825 1.427936 1.427936
0.000000 2.621259 1.427936
0.084753 2.621259 1.427936
0.211211 2.621259 1.427936
0.412189 2.621259 1.427936
0.774274 2.621259 1.427936
1.427936 2.621259 1.427936
2.621259 2.621259 1.427936
4.821825 2.621259 1.427936
0.000000 4.821825 1.427936
0.084753 4.821825 1.427936
0.211211 4.821825 1.427936
0.412189 4.821825 1.427936
0.774274 4.821825 1.427936
1.427936 4.821825 1.427936
2.621259 4.821825 1.427936
4.821825 4.821825 1.427936
0.000000 0.000000 2.621259
0.084753 0.000000 2.621259
0.211211 0.000000 2.621259
0.412189 0.000000 2.621259
0.774274 0.000000 2.621259
1.427936 0.000000 2.621259
2.621259 0.000000 2.621259
4.821825 0.000000 2.621259
0.000000 0.084753 2.621259
0.084753 0.084753 2.621259
0.211211 0.084753 2.621259
0.412189 0.084753 2.621259
0.774274 0.084753 2.621259
1.427936 0.084753 2.621259
2.621259 0.084753 2.621259
4.821825 0.084753 2.621259
0.000000 0.211211 2.621259
0.084753 0.211211 2.621259
0.211211 0.211211 2.621259
0.412189 0.211211 2.621259
0.774274 0.211211 2.621259
1.427936 0.211211 2.621259
2.621259 0.211211 2.621259
4.821825 0.211211 2.621259
0.000000 0.412189 2.621259
0.084753 0.412189 2.621259
0.211211 0.412189 2.621259
0.412189 0.412189 2.621259
0.774274 0.412189 2.621259
1.427936 0.412189 2.621259
2.621259 0.412189 2.621259
4.821825 0.412189 2.621259
0.000000 0.774274 2.621259
0.084753 0.774274 2.621259
0.211211 0.774274 2.621259
0.412189 0.774274 2.621259
0.774274 0.774274 2.621259
1.427936 0.774274 2.621259
2.621259 0.774274 2.621259
4.821825 0.774274 2.621259
0.000000 1.427936 2.621259
0.084753 1.427936 2.621259
0.211211 1.427936 2.621259
0.412189 1.427936 2.621259
0.774274 1.427936 2.621259
1.427936 1.427936 2.621259
2.621259 1.427936 2.621259
4.821825 1.427936 2.621259
0.000000 2.621259 2.621259
0.084753 2.621259 2.621259
0.211211 2.621259 2.621259
0.412189 2.621259 2.621259
0.774274 2.621259 2.621259
1.427936 2.621259 2.621259
2.621259 2.621259 2.621259
4.821825 2.621259 2.621259
0.000000 4.821825 2.621259
0.084753 4.821825 2.621259
0.211211 4.821825 2.621259
0.412189 4.821825 2.621259
0.774274 4.821825 2.621259
1.427936 4.821825 2.621259
2.621259 4.821825 2.621259
4.821825 4.821825 2.621259
0.000000 0.000000 4.821825
0.084753 0.000000 4.821825
0.211211 0.000000 4.821825
0.412189 0.000000 4.821825
0.774274 0.000000 4.821825
1.427936 0.000000 4.821825
2.621259 0.000000 4.821825
4.821825 0.000000 4.821825
0.000000 0.084753 4.821825
0.084753 0.084753 4.821825
0.211211 0.084753 4.821825
0.412189 0.084753 4.821825
0.774274 0.084753 4.821825
1.427936 0.084753 4.821825
2.621259 0.084753 4.821825
4.821825 0.084753 4.821825
0.000000 0.211211 4.821825
0.084753 0.211211 4.821825
0.211211 0.211211 4.821825
0.412189 0.211211 4.821825
0.774274 0.211211 4.821825
1.427936 0.211211 4.821825
2.621259 0.211211 4.821825
4.821825 0.211211 4.821825
0.000000 0.412189 4.821825
0.084753 0.412189 4.821825
0.211211 0.412189 4.821825
0.412189 0.412189 4.821825
0.774274 0.412189 4.821825
1.427936 0.412189 4.821825
2.621259 0.412189 4.821825
4.821825 0.412189 4.821825
0.000000 0.774274 4.821825
0.084753 0.774274 4.821825
0.211211 0.774274 4.821825
0.412189 0.774274 4.821825
0.774274 0.774274 4.821825
1.427936 0.774274 4.821825
2.621259 0.774274 4.821825
4.821825 0.774274 4.821825
0.000000 1.427936 4.821825
0.084753 1.427936 4.821825
0.211211 1.427936 4.821825
0.412189 1.427936 4.821825
0.774274 1.427936 4.821825
1.427936 1.427936 4.821825
2.621259 1.427936 4.821825
4.821825 1.427936 4.821825
0.000000 2.621259 4.821825
0.084753 2.621259 4.821825
0.211211 2.621259 4.821825
0.412189 2.621259 4.821825
0.774274 2.621259 4.821825
1.427936 2.621259 4.821825
2.621259 2.621259 4.821825
4.821825 2.621259 4.821825
0.000000 4.821825 4.821825
0.084753 4.821825 4.821825
0.211211 4.821825 4.821825
0.412189 4.821825 4.821825
0.774274 4.821825 4.821825
1.427936 4.821825 4.821825
2.621259 4.821825 4.821825
4.821825 4.821825 4.821825
