render_random/Assets/square_root.cube
TITLE "square_root.cube"
LUT_3D_SIZE 5
DOMAIN_MIN 0.000000 0.000000 0.000000
DOMAIN_MAX 0.903226 0.903226 0.903226
0.000000 0.000000 0.000000
0.174814 0.000000 0.000000
0.566569 0.000000 0.000000
1.663130 0.000000 0.000000
4.821825 0.000000 0.000000
0.000000 0.174814 0.000000
0.174814 0.174814 0.000000
0.566569 0.174814 0.000000
1.663130 0.174814 0.000000
4.821825 0.174814 0.000000
0.000000 0.566569 0.000000
0.174814 0.566569 0.000000
0.566569 0.566569 0.000000
1.663130 0.566569 0.000000
4.821825 0.566569 0.000000
0.000000 1.663130 0.000000
0.174814 1.663130 0.000000
0.566569 1.663130 0.000000
1.663130 1.663130 0.000000
4.821825 1.663130 0.000000
0.000000 4.821825 0.000000
0.174814 4.821825 0.000000
0.566569 4.821825 0.000000
1.663130 4.821825 0.000000
4.821825 4.821825 0.000000
0.000000 0.000000 0.174814
0.174814 0.000000 0.174814
0.566569 0.000000 0.174814
1.663130 0.000000 0.174814
4.821825 0.000000 0.174814
0.000000 0.174814 0.174814
0.174814 0.174814 0.174814
0.566569 0.174814 0.174814
1.663130 0.174814 0.174814
4.821825 0.174814 0.174814
0.000000 0.566569 0.174814
0.174814 0.566569 0.174814
0.566569 0.566569 0.174814
1.663130 0.566569 0.174814
4.821825 0.566569 0.174814
0.000000 1.663130 0.174814
0.174814 1.663130 0.174814
0.566569 1.663130 0.174814
1.663130 1.663130 0.174814
4.821825 1.663130 0.174814
0.000000 4.821825 0.174814
0.174814 4.821825 0.174814
0.566569 4.821825 0.174814
1.663130 4.821825 0.174814
4.821825 4.821825 0.174814
0.000000 0.000000 0.566569
0.174814 0.000000 0.566569
0.566569 0.000000 0.566569
1.663130 0.000000 0.566569
4.821825 0.000000 0.566569
0.000000 0.174814 0.566569
0.174814 0.174814 0.566569
0.566569 0.174814 0.566569
1.663130 0.174814 0.566569
4.821825 0.174814 0.566569
0.000000 0.566569 0.566569
0.174814 0.566569 0.566569
0.566569 0.566569 0.566569
1.663130 0.566569 0.566569
4.821825 0.566569 0.566569
0.000000 1.663130 0.566569
0.174814 1.663130 0.566569
0.566569 1.663130 0.566569
1.663130 1.663130 0.566569
4.821825 1.663130 0.566569
0.000000 4.821825 0.566569
0.174814 4.821825 0.566569
0.566569 4.821825 0.566569
1.663130 4.821825 0.566569
4.821825 4.821825 0.566569
0.000000 0.000000 1.663130
0.174814 0.000000 1.663130
0.566569 0.000000 1.663130
1.663130 0.000000 1.663130
4.821825 0.000000 1.663130
0.000000 0.174814 1.663130
0.174814 0.174814 1.663130
0.566569 0.174814 1.663130
1.663130 0.174814 1.663130
4.821825 0.174814 1.663130
0.000000 0.566569 1.663130
0.174814 0.566569 1.663130
0.566569 0.566569 1.663130
1.663130 0.566569 1.663130
4.821825 0.566569 1.663130
0.000000 1.663130 1.663130
0.174814 1.663130 1.663130
0.566569 1.663130 1.663130
1.663130 1.663130 1.663130
4.821825 1.663130 1.663130
0.000000 4.821825 1.663130
0.174814 4.821825 1.663130
0.566569 4.821825 1.663130
1.663130 4.821825 1.663130
4.821825 4.821825 1.663130
0.000000 0.000000 4.821825
0.174814 0.000000 4.821825
0.566569 0.000000 4.821825
1.663130 0.000000 4.821825
4.821825 0.000000 4.821825
0.000000 0.174814 4.821825
0.174814 0.174814 4.821825
0.566569 0.174814 4.821825
1.663130 0.174814 4.821825
4.821825 0.174814 4.821825
0.000000 0.566569 4.821825
0.174814 0.566569 4.821825
0.566569 0.566569 4.821825
1.663130 0.566569 4.821825
4.821825 0.566569 4.821825
0.000000 1.663130 4.821825
0.174814 1.663130 4.821825
0.566569 1.663130 4.821825
1.663130 1.663130 4.821825
4.821825 1.663130 4.821825
0.000000 4.821825 4.821825
0.174814 4.821825 4.821825
0.566569 4.821825 4.821825
1.663130 4.821825 4.821825
4.821825 4.821825 4.821825
