render_random/Assets/square_root.cube
TITLE "square_root.cube"
LUT_3D_SIZE 32
DOMAIN_MIN 0.0 0.0 0.0
DOMAIN_MAX 1.0 1.0 1.0
0.000000 0.000000 0.000000
0.000032 0.000000 0.000000
0.016100 0.000000 0.000000
0.055866 0.000000 0.000000
0.084753 0.000000 0.000000
0.112739 0.000000 0.000000
0.142583 0.000000 0.000000
0.174814 0.000000 0.000000
0.211211 0.000000 0.000000
0.252151 0.000000 0.000000
0.298010 0.000000 0.000000
0.352278 0.000000 0.000000
0.412189 0.000000 0.000000
0.484355 0.000000 0.000000
0.566569 0.000000 0.000000
0.662118 0.000000 0.000000
0.774274 0.000000 0.000000
0.898276 0.000000 0.000000
1.052141 0.000000 0.000000
1.223928 0.000000 0.000000
1.427936 0.000000 0.000000
1.663130 0.000000 0.000000
1.939072 0.000000 0.000000
2.252110 0.000000 0.000000
2.621259 0.000000 0.000000
3.065616 0.000000 0.000000
3.556684 0.000000 0.000000
4.153312 0.000000 0.000000
4.821825 0.000000 0.000000
5.604463 0.000000 0.000000
6.558201 0.000000 0.000000
7.598684 0.000000 0.000000
0.000000 0.000032 0.000000
0.000032 0.000032 0.000000
0.016100 0.000032 0.000000
0.055866 0.000032 0.000000
0.084753 0.000032 0.000000
0.112739 0.000032 0.000000
0.142583 0.000032 0.000000
0.174814 0.000032 0.000000
0.211211 0.000032 0.000000
0.252151 0.000032 0.000000
0.298010 0.000032 0.000000
0.352278 0.000032 0.000000
0.412189 0.000032 0.000000
0.484355 0.000032 0.000000
0.566569 0.000032 0.000000
0.662118 0.000032 0.000000
0.774274 0.000032 0.000000
0.898276 0.000032 0.000000
1.052141 0.000032 0.000000
1.223928 0.000032 0.000000
1.427936 0.000032 0.000000
1.663130 0.000032 0.000000
1.939072 0.000032 0.000000
2.252110 0.000032 0.000000
2.621259 0.000032 0.000000
3.065616 0.000032 0.000000
3.556684 0.000032 0.000000
4.153312 0.000032 0.000000
4.821825 0.000032 0.000000
5.604463 0.000032 0.000000
6.558201 0.000032 0.000000
7.598684 0.000032 0.000000
0.000000 0.016100 0.000000
0.000032 0.016100 0.000000
0.016100 0.016100 0.000000
0.055866 0.016100 0.000000
0.084753 0.016100 0.000000
0.112739 0.016100 0.000000
0.142583 0.016100 0.000000
0.174814 0.016100 0.000000
0.211211 0.016100 0.000000
0.252151 0.016100 0.000000
0.298010 0.016100 0.000000
0.352278 0.016100 0.000000
0.412189 0.016100 0.000000
0.484355 0.016100 0.000000
0.566569 0.016100 0.000000
0.662118 0.016100 0.000000
0.774274 0.016100 0.000000
0.898276 0.016100 0.000000
1.052141 0.016100 0.000000
1.223928 0.016100 0.000000
1.427936 0.016100 0.000000
1.663130 0.016100 0.000000
1.939072 0.016100 0.000000
2.252110 0.016100 0.000000
2.621259 0.016100 0.000000
3.065616 0.016100 0.000000
3.556684 0.016100 0.000000
4.153312 0.016100 0.000000
4.821825 0.016100 0.000000
5.604463 0.016100 0.000000
6.558201 0.016100 0.000000
7.598684 0.016100 0.000000
0.000000 0.055866 0.000000
0.000032 0.055866 0.000000
0.016100 0.055866 0.000000
0.055866 0.055866 0.000000
0.084753 0.055866 0.000000
0.112739 0.055866 0.000000
0.142583 0.055866 0.000000
0.174814 0.055866 0.000000
0.211211 0.055866 0.000000
0.252151 0.055866 0.000000
0.298010 0.055866 0.000000
0.352278 0.055866 0.000000
0.412189 0.055866 0.000000
0.484355 0.055866 0.000000
0.566569 0.055866 0.000000
0.662118 0.055866 0.000000
0.774274 0.055866 0.000000
0.898276 0.055866 0.000000
1.052141 0.055866 0.000000
1.223928 0.055866 0.000000
1.427936 0.055866 0.000000
1.663130 0.055866 0.000000
1.939072 0.055866 0.000000
2.252110 0.055866 0.000000
2.621259 0.055866 0.000000
3.065616 0.055866 0.000000
3.556684 0.055866 0.000000
4.153312 0.055866 0.000000
4.821825 0.055866 0.000000
5.604463 0.055866 0.000000
6.558201 0.055866 0.000000
7.598684 0.055866 0.000000
0.000000 0.084753 0.000000
0.000032 0.084753 0.000000
0.016100 0.084753 0.000000
0.055866 0.084753 0.000000
0.084753 0.084753 0.000000
0.112739 0.084753 0.000000
0.142583 0.084753 0.000000
0.174814 0.084753 0.000000
0.211211 0.084753 0.000000
0.252151 0.084753 0.000000
0.298010 0.084753 0.000000
0.352278 0.084753 0.000000
0.412189 0.084753 0.000000
0.484355 0.084753 0.000000
0.566569 0.084753 0.000000
0.662118 0.084753 0.000000
0.774274 0.084753 0.000000
0.898276 0.084753 0.000000
1.052141 0.084753 0.000000
1.223928 0.084753 0.000000
1.427936 0.084753 0.000000
1.663130 0.084753 0.000000
1.939072 0.084753 0.000000
2.252110 0.084753 0.000000
2.621259 0.084753 0.000000
3.065616 0.084753 0.000000
3.556684 0.084753 0.000000
4.153312 0.084753 0.000000
4.821825 0.084753 0.000000
5.604463 0.084753 0.000000
6.558201 0.084753 0.000000
7.598684 0.084753 0.000000
0.000000 0.112739 0.000000
0.000032 0.112739 0.000000
0.016100 0.112739 0.000000
0.055866 0.112739 0.000000
0.084753 0.112739 0.000000
0.112739 0.112739 0.000000
0.142583 0.112739 0.000000
0.174814 0.112739 0.000000
0.211211 0.112739 0.000000
0.252151 0.112739 0.000000
0.298010 0.112739 0.000000
0.352278 0.112739 0.000000
0.412189 0.112739 0.000000
0.484355 0.112739 0.000000
0.566569 0.112739 0.000000
0.662118 0.112739 0.000000
0.774274 0.112739 0.000000
0.898276 0.112739 0.000000
1.052141 0.112739 0.000000
1.223928 0.112739 0.000000
1.427936 0.112739 0.000000
1.663130 0.112739 0.000000
1.939072 0.112739 0.000000
2.252110 0.112739 0.000000
2.621259 0.112739 0.000000
3.065616 0.112739 0.000000
3.556684 0.112739 0.000000
4.153312 0.112739 0.000000
4.821825 0.112739 0.000000
5.604463 0.112739 0.000000
6.558201 0.112739 0.000000
7.598684 0.112739 0.000000
0.000000 0.142583 0.000000
0.000032 0.142583 0.000000
0.016100 0.142583 0.000000
0.055866 0.142583 0.000000
0.084753 0.142583 0.000000
0.112739 0.142583 0.000000
0.142583 0.142583 0.000000
0.174814 0.142583 0.000000
0.211211 0.142583 0.000000
0.252151 0.142583 0.000000
0.298010 0.142583 0.000000
0.352278 0.142583 0.000000
0.412189 0.142583 0.000000
0.484355 0.142583 0.000000
0.566569 0.142583 0.000000
0.662118 0.142583 0.000000
0.774274 0.142583 0.000000
0.898276 0.142583 0.000000
1.052141 0.142583 0.000000
1.223928 0.142583 0.000000
1.427936 0.142583 0.000000
1.663130 0.142583 0.000000
1.939072 0.142583 0.000000
2.252110 0.142583 0.000000
2.621259 0.142583 0.000000
3.065616 0.142583 0.000000
3.556684 0.142583 0.000000
4.153312 0.142583 0.000000
4.821825 0.142583 0.000000
5.604463 0.142583 0.000000
6.558201 0.142583 0.000000
7.598684 0.142583 0.000000
0.000000 0.174814 0.000000
0.000032 0.174814 0.000000
0.016100 0.174814 0.000000
0.055866 0.174814 0.000000
0.084753 0.174814 0.000000
0.112739 0.174814 0.000000
0.142583 0.174814 0.000000
0.174814 0.174814 0.000000
0.211211 0.174814 0.000000
0.252151 0.174814 0.000000
0.298010 0.174814 0.000000
0.352278 0.174814 0.000000
0.412189 0.174814 0.000000
0.484355 0.174814 0.000000
0.566569 0.174814 0.000000
0.662118 0.174814 0.000000
0.774274 0.174814 0.000000
0.898276 0.174814 0.000000
1.052141 0.174814 0.000000
1.223928 0.174814 0.000000
1.427936 0.174814 0.000000
1.663130 0.174814 0.000000
1.939072 0.174814 0.000000
2.252110 0.174814 0.000000
2.621259 0.174814 0.000000
3.065616 0.174814 0.000000
3.556684 0.174814 0.000000
4.153312 0.174814 0.000000
4.821825 0.174814 0.000000
5.604463 0.174814 0.000000
6.558201 0.174814 0.000000
7.598684 0.174814 0.000000
0.000000 0.211211 0.000000
0.000032 0.211211 0.000000
0.016100 0.211211 0.000000
0.055866 0.211211 0.000000
0.084753 0.211211 0.000000
0.112739 0.211211 0.000000
0.142583 0.211211 0.000000
0.174814 0.211211 0.000000
0.211211 0.211211 0.000000
0.252151 0.211211 0.000000
0.298010 0.211211 0.000000
0.352278 0.211211 0.000000
0.412189 0.211211 0.000000
0.484355 0.211211 0.000000
0.566569 0.211211 0.000000
0.662118 0.211211 0.000000
0.774274 0.211211 0.000000
0.898276 0.211211 0.000000
1.052141 0.211211 0.000000
1.223928 0.211211 0.000000
1.427936 0.211211 0.000000
1.663130 0.211211 0.000000
1.939072 0.211211 0.000000
2.252110 0.211211 0.000000
2.621259 0.211211 0.000000
3.065616 0.211211 0.000000
3.556684 0.211211 0.000000
4.153312 0.211211 0.000000
4.821825 0.211211 0.000000
5.604463 0.211211 0.000000
6.558201 0.211211 0.000000
7.598684 0.211211 0.000000
0.000000 0.252151 0.000000
0.000032 0.252151 0.000000
0.016100 0.252151 0.000000
0.055866 0.252151 0.000000
0.084753 0.252151 0.000000
0.112739 0.252151 0.000000
0.142583 0.252151 0.000000
0.174814 0.252151 0.000000
0.211211 0.252151 0.000000
0.252151 0.252151 0.000000
0.298010 0.252151 0.000000
0.352278 0.252151 0.000000
0.412189 0.252151 0.000000
0.484355 0.252151 0.000000
0.566569 0.252151 0.000000
0.662118 0.252151 0.000000
0.774274 0.252151 0.000000
0.898276 0.252151 0.000000
1.052141 0.252151 0.000000
1.223928 0.252151 0.000000
1.427936 0.252151 0.000000
1.663130 0.252151 0.000000
1.939072 0.252151 0.000000
2.252110 0.252151 0.000000
2.621259 0.252151 0.000000
3.065616 0.252151 0.000000
3.556684 0.252151 0.000000
4.153312 0.252151 0.000000
4.821825 0.252151 0.000000
5.604463 0.252151 0.000000
6.558201 0.252151 0.000000
7.598684 0.252151 0.000000
0.000000 0.298010 0.000000
0.000032 0.298010 0.000000
0.016100 0.298010 0.000000
0.055866 0.298010 0.000000
0.084753 0.298010 0.000000
0.112739 0.298010 0.000000
0.142583 0.298010 0.000000
0.174814 0.298010 0.000000
0.211211 0.298010 0.000000
0.252151 0.298010 0.000000
0.298010 0.298010 0.000000
0.352278 0.298010 0.000000
0.412189 0.298010 0.000000
0.484355 0.298010 0.000000
0.566569 0.298010 0.000000
0.662118 0.298010 0.000000
0.774274 0.298010 0.000000
0.898276 0.298010 0.000000
1.052141 0.298010 0.000000
1.223928 0.298010 0.000000
1.427936 0.298010 0.000000
1.663130 0.298010 0.000000
1.939072 0.298010 0.000000
2.252110 0.298010 0.000000
2.621259 0.298010 0.000000
3.065616 0.298010 0.000000
3.556684 0.298010 0.000000
4.153312 0.298010 0.000000
4.821825 0.298010 0.000000
5.604463 0.298010 0.000000
6.558201 0.298010 0.000000
7.598684 0.298010 0.000000
0.000000 0.352278 0.000000
0.000032 0.352278 0.000000
0.016100 0.352278 0.000000
0.055866 0.352278 0.000000
0.084753 0.352278 0.000000
0.112739 0.352278 0.000000
0.142583 0.352278 0.000000
0.174814 0.352278 0.000000
0.211211 0.352278 0.000000
0.252151 0.352278 0.000000
0.298010 0.352278 0.000000
0.352278 0.352278 0.000000
0.412189 0.352278 0.000000
0.484355 0.352278 0.000000
0.566569 0.352278 0.000000
0.662118 0.352278 0.000000
0.774274 0.352278 0.000000
0.898276 0.352278 0.000000
1.052141 0.352278 0.000000
1.223928 0.352278 0.000000
1.427936 0.352278 0.000000
1.663130 0.352278 0.000000
1.939072 0.352278 0.000000
2.252110 0.352278 0.000000
2.621259 0.352278 0.000000
3.065616 0.352278 0.000000
3.556684 0.352278 0.000000
4.153312 0.352278 0.000000
4.821825 0.352278 0.000000
5.604463 0.352278 0.000000
6.558201 0.352278 0.000000
7.598684 0.352278 0.000000
0.000000 0.412189 0.000000
0.000032 0.412189 0.000000
0.016100 0.412189 0.000000
0.055866 0.412189 0.000000
0.084753 0.412189 0.000000
0.112739 0.412189 0.000000
0.142583 0.412189 0.000000
0.174814 0.412189 0.000000
0.211211 0.412189 0.000000
0.252151 0.412189 0.000000
0.298010 0.412189 0.000000
0.352278 0.412189 0.000000
0.412189 0.412189 0.000000
0.484355 0.412189 0.000000
0.566569 0.412189 0.000000
0.662118 0.412189 0.000000
0.774274 0.412189 0.000000
0.898276 0.412189 0.000000
1.052141 0.412189 0.000000
1.223928 0.412189 0.000000
1.427936 0.412189 0.000000
1.663130 0.412189 0.000000
1.939072 0.412189 0.000000
2.252110 0.412189 0.000000
2.621259 0.412189 0.000000
3.065616 0.412189 0.000000
3.556684 0.412189 0.000000
4.153312 0.412189 0.000000
4.821825 0.412189 0.000000
5.604463 0.412189 0.000000
6.558201 0.412189 0.000000
7.598684 0.412189 0.000000
0.000000 0.484355 0.000000
0.000032 0.484355 0.000000
0.016100 0.484355 0.000000
0.055866 0.484355 0.000000
0.084753 0.484355 0.000000
0.112739 0.484355 0.000000
0.142583 0.484355 0.000000
0.174814 0.484355 0.000000
0.211211 0.484355 0.000000
0.252151 0.484355 0.000000
0.298010 0.484355 0.000000
0.352278 0.484355 0.000000
0.412189 0.484355 0.000000
0.484355 0.484355 0.000000
0.566569 0.484355 0.000000
0.662118 0.484355 0.000000
0.774274 0.484355 0.000000
0.898276 0.484355 0.000000
1.052141 0.484355 0.000000
1.223928 0.484355 0.000000
1.427936 0.484355 0.000000
1.663130 0.484355 0.000000
1.939072 0.484355 0.000000
2.252110 0.484355 0.000000
2.621259 0.484355 0.000000
3.065616 0.484355 0.000000
3.556684 0.484355 0.000000
4.153312 0.484355 0.000000
4.821825 0.484355 0.000000
5.604463 0.484355 0.000000
6.558201 0.484355 0.000000
7.598684 0.484355 0.000000
0.000000 0.566569 0.000000
0.000032 0.566569 0.000000
0.016100 0.566569 0.000000
0.055866 0.566569 0.000000
0.084753 0.566569 0.000000
0.112739 0.566569 0.000000
0.142583 0.566569 0.000000
0.174814 0.566569 0.000000
0.211211 0.566569 0.000000
0.252151 0.566569 0.000000
0.298010 0.566569 0.000000
0.352278 0.566569 0.000000
0.412189 0.566569 0.000000
0.484355 0.566569 0.000000
0.566569 0.566569 0.000000
0.662118 0.566569 0.000000
0.774274 0.566569 0.000000
0.898276 0.566569 0.000000
1.052141 0.566569 0.000000
1.223928 0.566569 0.000000
1.427936 0.566569 0.000000
1.663130 0.566569 0.000000
1.939072 0.566569 0.000000
2.252110 0.566569 0.000000
2.621259 0.566569 0.000000
3.065616 0.566569 0.000000
3.556684 0.566569 0.000000
4.153312 0.566569 0.000000
4.821825 0.566569 0.000000
5.604463 0.566569 0.000000
6.558201 0.566569 0.000000
7.598684 0.566569 0.000000
0.000000 0.662118 0.000000
0.000032 0.662118 0.000000
0.016100 0.662118 0.000000
0.055866 0.662118 0.000000
0.084753 0.662118 0.000000
0.112739 0.662118 0.000000
0.142583 0.662118 0.000000
0.174814 0.662118 0.000000
0.211211 0.662118 0.000000
0.252151 0.662118 0.000000
0.298010 0.662118 0.000000
0.352278 0.662118 0.000000
0.412189 0.662118 0.000000
0.484355 0.662118 0.000000
0.566569 0.662118 0.000000
0.662118 0.662118 0.000000
0.774274 0.662118 0.000000
0.898276 0.662118 0.000000
1.052141 0.662118 0.000000
1.223928 0.662118 0.000000
1.427936 0.662118 0.000000
1.663130 0.662118 0.000000
1.939072 0.662118 0.000000
2.252110 0.662118 0.000000
2.621259 0.662118 0.000000
3.065616 0.662118 0.000000
3.556684 0.662118 0.000000
4.153312 0.662118 0.000000
4.821825 0.662118 0.000000
5.604463 0.662118 0.000000
6.558201 0.662118 0.000000
7.598684 0.662118 0.000000
0.000000 0.774274 0.000000
0.000032 0.774274 0.000000
0.016100 0.774274 0.000000
0.055866 0.774274 0.000000
0.084753 0.774274 0.000000
0.112739 0.774274 0.000000
0.142583 0.774274 0.000000
0.174814 0.774274 0.000000
0.211211 0.774274 0.000000
0.252151 0.774274 0.000000
0.298010 0.774274 0.000000
0.352278 0.774274 0.000000
0.412189 0.774274 0.000000
0.484355 0.774274 0.000000
0.566569 0.774274 0.000000
0.662118 0.774274 0.000000
0.774274 0.774274 0.000000
0.898276 0.774274 0.000000
1.052141 0.774274 0.000000
1.223928 0.774274 0.000000
1.427936 0.774274 0.000000
1.663130 0.774274 0.000000
1.939072 0.774274 0.000000
2.252110 0.774274 0.000000
2.621259 0.774274 0.000000
3.065616 0.774274 0.000000
3.556684 0.774274 0.000000
4.153312 0.774274 0.000000
4.821825 0.774274 0.000000
5.604463 0.774274 0.000000
6.558201 0.774274 0.000000
7.598684 0.774274 0.000000
0.000000 0.898276 0.000000
0.000032 0.898276 0.000000
0.016100 0.898276 0.000000
0.055866 0.898276 0.000000
0.084753 0.898276 0.000000
0.112739 0.898276 0.000000
0.142583 0.898276 0.000000
0.174814 0.898276 0.000000
0.211211 0.898276 0.000000
0.252151 0.898276 0.000000
0.298010 0.898276 0.000000
0.352278 0.898276 0.000000
0.412189 0.898276 0.000000
0.484355 0.898276 0.000000
0.566569 0.898276 0.000000
0.662118 0.898276 0.000000
0.774274 0.898276 0.000000
0.898276 0.898276 0.000000
1.052141 0.898276 0.000000
1.223928 0.898276 0.000000
1.427936 0.898276 0.000000
1.663130 0.898276 0.000000
1.939072 0.898276 0.000000
2.252110 0.898276 0.000000
2.621259 0.898276 0.000000
3.065616 0.898276 0.000000
3.556684 0.898276 0.000000
4.153312 0.898276 0.000000
4.821825 0.898276 0.000000
5.604463 0.898276 0.000000
6.558201 0.898276 0.000000
7.598684 0.898276 0.000000
0.000000 1.052141 0.000000
0.000032 1.052141 0.000000
0.016100 1.052141 0.000000
0.055866 1.052141 0.000000
0.084753 1.052141 0.000000
0.112739 1.052141 0.000000
0.142583 1.052141 0.000000
0.174814 1.052141 0.000000
0.211211 1.052141 0.000000
0.252151 1.052141 0.000000
0.298010 1.052141 0.000000
0.352278 1.052141 0.000000
0.412189 1.052141 0.000000
0.484355 1.052141 0.000000
0.566569 1.052141 0.000000
0.662118 1.052141 0.000000
0.774274 1.052141 0.000000
0.898276 1.052141 0.000000
1.052141 1.052141 0.000000
1.223928 1.052141 0.000000
1.427936 1.052141 0.000000
1.663130 1.052141 0.000000
1.939072 1.052141 0.000000
2.252110 1.052141 0.000000
2.621259 1.052141 0.000000
3.065616 1.052141 0.000000
3.556684 1.052141 0.000000
4.153312 1.052141 0.000000
4.821825 1.052141 0.000000
5.604463 1.052141 0.000000
6.558201 1.052141 0.000000
7.598684 1.052141 0.000000
0.000000 1.223928 0.000000
0.000032 1.223928 0.000000
0.016100 1.223928 0.000000
0.055866 1.223928 0.000000
0.084753 1.223928 0.000000
0.112739 1.223928 0.000000
0.142583 1.223928 0.000000
0.174814 1.223928 0.000000
0.211211 1.223928 0.000000
0.252151 1.223928 0.000000
0.298010 1.223928 0.000000
0.352278 1.223928 0.000000
0.412189 1.223928 0.000000
0.484355 1.223928 0.000000
0.566569 1.223928 0.000000
0.662118 1.223928 0.000000
0.774274 1.223928 0.000000
0.898276 1.223928 0.000000
1.052141 1.223928 0.000000
1.223928 1.223928 0.000000
1.427936 1.223928 0.000000
1.663130 1.223928 0.000000
1.939072 1.223928 0.000000
2.252110 1.223928 0.000000
2.621259 1.223928 0.000000
3.065616 1.223928 0.000000
3.556684 1.223928 0.000000
4.153312 1.223928 0.000000
4.821825 1.223928 0.000000
5.604463 1.223928 0.000000
6.558201 1.223928 0.000000
7.598684 1.223928 0.000000
0.000000 1.427936 0.000000
0.000032 1.427936 0.000000
0.016100 1.427936 0.000000
0.055866 1.427936 0.000000
0.084753 1.427936 0.000000
0.112739 1.427936 0.000000
0.142583 1.427936 0.000000
0.174814 1.427936 0.000000
0.211211 1.427936 0.000000
0.252151 1.427936 0.000000
0.298010 1.427936 0.000000
0.352278 1.427936 0.000000
0.412189 1.427936 0.000000
0.484355 1.427936 0.000000
0.566569 1.427936 0.000000
0.662118 1.427936 0.000000
0.774274 1.427936 0.000000
0.898276 1.427936 0.000000
1.052141 1.427936 0.000000
1.223928 1.427936 0.000000
1.427936 1.427936 0.000000
1.663130 1.427936 0.000000
1.939072 1.427936 0.000000
2.252110 1.427936 0.000000
2.621259 1.427936 0.000000
3.065616 1.427936 0.000000
3.556684 1.427936 0.000000
4.153312 1.427936 0.000000
4.821825 1.427936 0.000000
5.604463 1.427936 0.000000
6.558201 1.427936 0.000000
7.598684 1.427936 0.000000
0.000000 1.663130 0.000000
0.000032 1.663130 0.000000
0.016100 1.663130 0.000000
0.055866 1.663130 0.000000
0.084753 1.663130 0.000000
0.112739 1.663130 0.000000
0.142583 1.663130 0.000000
0.174814 1.663130 0.000000
0.211211 1.663130 0.000000
0.252151 1.663130 0.000000
0.298010 1.663130 0.000000
0.352278 1.663130 0.000000
0.412189 1.663130 0.000000
0.484355 1.663130 0.000000
0.566569 1.663130 0.000000
0.662118 1.663130 0.000000
0.774274 1.663130 0.000000
0.898276 1.663130 0.000000
1.052141 1.663130 0.000000
1.223928 1.663130 0.000000
1.427936 1.663130 0.000000
1.663130 1.663130 0.000000
1.939072 1.663130 0.000000
2.252110 1.663130 0.000000
2.621259 1.663130 0.000000
3.065616 1.663130 0.000000
3.556684 1.663130 0.000000
4.153312 1.663130 0.000000
4.821825 1.663130 0.000000
5.604463 1.663130 0.000000
6.558201 1.663130 0.000000
7.598684 1.663130 0.000000
0.000000 1.939072 0.000000
0.000032 1.939072 0.000000
0.016100 1.939072 0.000000
0.055866 1.939072 0.000000
0.084753 1.939072 0.000000
0.112739 1.939072 0.000000
0.142583 1.939072 0.000000
0.174814 1.939072 0.000000
0.211211 1.939072 0.000000
0.252151 1.939072 0.000000
0.298010 1.939072 0.000000
0.352278 1.939072 0.000000
0.412189 1.939072 0.000000
0.484355 1.939072 0.000000
0.566569 1.939072 0.000000
0.662118 1.939072 0.000000
0.774274 1.939072 0.000000
0.898276 1.939072 0.000000
1.052141 1.939072 0.000000
1.223928 1.939072 0.000000
1.427936 1.939072 0.000000
1.663130 1.939072 0.000000
1.939072 1.939072 0.000000
2.252110 1.939072 0.000000
2.621259 1.939072 0.000000
3.065616 1.939072 0.000000
3.556684 1.939072 0.000000
4.153312 1.939072 0.000000
4.821825 1.939072 0.000000
5.604463 1.939072 0.000000
6.558201 1.939072 0.000000
7.598684 1.939072 0.000000
0.000000 2.252110 0.000000
0.000032 2.252110 0.000000
0.016100 2.252110 0.000000
0.055866 2.252110 0.000000
0.084753 2.252110 0.000000
0.112739 2.252110 0.000000
0.142583 2.252110 0.000000
0.174814 2.252110 0.000000
0.211211 2.252110 0.000000
0.252151 2.252110 0.000000
0.298010 2.252110 0.000000
0.352278 2.252110 0.000000
0.412189 2.252110 0.000000
0.484355 2.252110 0.000000
0.566569 2.252110 0.000000
0.662118 2.252110 0.000000
0.774274 2.252110 0.000000
0.898276 2.252110 0.000000
1.052141 2.252110 0.000000
1.223928 2.252110 0.000000
1.427936 2.252110 0.000000
1.663130 2.252110 0.000000
1.939072 2.252110 0.000000
2.252110 2.252110 0.000000
2.621259 2.252110 0.000000
3.065616 2.252110 0.000000
3.556684 2.252110 0.000000
4.153312 2.252110 0.000000
4.821825 2.252110 0.000000
5.604463 2.252110 0.000000
6.558201 2.252110 0.000000
7.598684 2.252110 0.000000
0.000000 2.621259 0.000000
0.000032 2.621259 0.000000
0.016100 2.621259 0.000000
0.055866 2.621259 0.000000
0.084753 2.621259 0.000000
0.112739 2.621259 0.000000
0.142583 2.621259 0.000000
0.174814 2.621259 0.000000
0.211211 2.621259 0.000000
0.252151 2.621259 0.000000
0.298010 2.621259 0.000000
0.352278 2.621259 0.000000
0.412189 2.621259 0.000000
0.484355 2.621259 0.000000
0.566569 2.621259 0.000000
0.662118 2.621259 0.000000
0.774274 2.621259 0.000000
0.898276 2.621259 0.000000
1.052141 2.621259 0.000000
1.223928 2.621259 0.000000
1.427936 2.621259 0.000000
1.663130 2.621259 0.000000
1.939072 2.621259 0.000000
2.252110 2.621259 0.000000
2.621259 2.621259 0.000000
3.065616 2.621259 0.000000
3.556684 2.621259 0.000000
4.153312 2.621259 0.000000
4.821825 2.621259 0.000000
5.604463 2.621259 0.000000
6.558201 2.621259 0.000000
7.598684 2.621259 0.000000
0.000000 3.065616 0.000000
0.000032 3.065616 0.000000
0.016100 3.065616 0.000000
0.055866 3.065616 0.000000
0.084753 3.065616 0.000000
0.112739 3.065616 0.000000
0.142583 3.065616 0.000000
0.174814 3.065616 0.000000
0.211211 3.065616 0.000000
0.252151 3.065616 0.000000
0.298010 3.065616 0.000000
0.352278 3.065616 0.000000
0.412189 3.065616 0.000000
0.484355 3.065616 0.000000
0.566569 3.065616 0.000000
0.662118 3.065616 0.000000
0.774274 3.065616 0.000000
0.898276 3.065616 0.000000
1.052141 3.065616 0.000000
1.223928 3.065616 0.000000
1.427936 3.065616 0.000000
1.663130 3.065616 0.000000
1.939072 3.065616 0.000000
2.252110 3.065616 0.000000
2.621259 3.065616 0.000000
3.065616 3.065616 0.000000
3.556684 3.065616 0.000000
4.153312 3.065616 0.000000
4.821825 3.065616 0.000000
5.604463 3.065616 0.000000
6.558201 3.065616 0.000000
7.598684 3.065616 0.000000
0.000000 3.556684 0.000000
0.000032 3.556684 0.000000
0.016100 3.556684 0.000000
0.055866 3.556684 0.000000
0.084753 3.556684 0.000000
0.112739 3.556684 0.000000
0.142583 3.556684 0.000000
0.174814 3.556684 0.000000
0.211211 3.556684 0.000000
0.252151 3.556684 0.000000
0.298010 3.556684 0.000000
0.352278 3.556684 0.000000
0.412189 3.556684 0.000000
0.484355 3.556684 0.000000
0.566569 3.556684 0.000000
0.662118 3.556684 0.000000
0.774274 3.556684 0.000000
0.898276 3.556684 0.000000
1.052141 3.556684 0.000000
1.223928 3.556684 0.000000
1.427936 3.556684 0.000000
1.663130 3.556684 0.000000
1.939072 3.556684 0.000000
2.252110 3.556684 0.000000
2.621259 3.556684 0.000000
3.065616 3.556684 0.000000
3.556684 3.556684 0.000000
4.153312 3.556684 0.000000
4.821825 3.556684 0.000000
5.604463 3.556684 0.000000
6.558201 3.556684 0.000000
7.598684 3.556684 0.000000
0.000000 4.153312 0.000000
0.000032 4.153312 0.000000
0.016100 4.153312 0.000000
0.055866 4.153312 0.000000
0.084753 4.153312 0.000000
0.112739 4.153312 0.000000
0.142583 4.153312 0.000000
0.174814 4.153312 0.000000
0.211211 4.153312 0.000000
0.252151 4.153312 0.000000
0.298010 4.153312 0.000000
0.352278 4.153312 0.000000
0.412189 4.153312 0.000000
0.484355 4.153312 0.000000
0.566569 4.153312 0.000000
0.662118 4.153312 0.000000
0.774274 4.153312 0.000000
0.898276 4.153312 0.000000
1.052141 4.153312 0.000000
1.223928 4.153312 0.000000
1.427936 4.153312 0.000000
