tests/cube/identity.cube
TITLE "cube/identity.cube"
LUT_3D_SIZE 8
DOMAIN_MIN 0.000000 0.000000 0.000000
DOMAIN_MAX 0.903226 0.903226 0.903226
0.000000 0.000000 0.000000
0.007122 0.000000 0.000000
0.044398 0.000000 0.000000
0.170428 0.000000 0.000000
0.596822 0.000000 0.000000
1.000000 0.000000 0.000000
1.000000 0.000000 0.000000
1.000000 0.000000 0.000000
0.000000 0.007122 0.000000
0.007122 0.007122 0.000000
0.044398 0.007122 0.000000
0.170428 0.007122 0.000000
0.596822 0.007122 0.000000
1.000000 0.007122 0.000000
1.000000 0.007122 0.000000
1.000000 0.007122 0.000000
0.000000 0.044398 0.000000
0.007122 0.044398 0.000000
0.044398 0.044398 0.000000
0.170428 0.044398 0.000000
0.596822 0.044398 0.000000
1.000000 0.044398 0.000000
1.000000 0.044398 0.000000
1.000000 0.044398 0.000000
0.000000 0.170428 0.000000
0.007122 0.170428 0.000000
0.044398 0.170428 0.000000
0.170428 0.170428 0.000000
0.596822 0.170428 0.000000
1.000000 0.170428 0.000000
1.000000 0.170428 0.000000
1.000000 0.170428 0.000000
0.000000 0.596822 0.000000
0.007122 0.596822 0.000000
0.044398 0.596822 0.000000
0.170428 0.596822 0.000000
0.596822 0.596822 0.000000
1.000000 0.596822 0.000000
1.000000 0.596822 0.000000
1.000000 0.596822 0.000000
0.000000 1.000000 0.000000
0.007122 1.000000 0.000000
0.044398 1.000000 0.000000
0.170428 1.000000 0.000000
0.596822 1.000000 0.000000
1.000000 1.000000 0.000000
1.000000 1.000000 0.000000
1.000000 1.000000 0.000000
0.000000 1.000000 0.000000
0.007122 1.000000 0.000000
0.044398 1.000000 0.000000
0.170428 1.000000 0.000000
0.596822 1.000000 0.000000
1.000000 1.000000 0.000000
1.000000 1.000000 0.000000
1.000000 1.000000 0.000000
0.000000 1.000000 0.000000
0.007122 1.000000 0.000000
0.044398 1.000000 0.000000
0.170428 1.000000 0.000000
0.596822 1.000000 0.000000
1.000000 1.000000 0.000000
1.000000 1.000000 0.000000
1.000000 1.000000 0.000000
0.000000 0.000000 0.007122
0.007122 0.000000 0.007122
0.044398 0.000000 0.007122
0.170428 0.000000 0.007122
0.596822 0.000000 0.007122
1.000000 0.000000 0.007122
1.000000 0.000000 0.007122
1.000000 0.000000 0.007122
0.000000 0.007122 0.007122
0.007122 0.007122 0.007122
0.044398 0.007122 0.007122
0.170428 0.007122 0.007122
0.596822 0.007122 0.007122
1.000000 0.007122 0.007122
1.000000 0.007122 0.007122
1.000000 0.007122 0.007122
0.000000 0.044398 0.007122
0.007122 0.044398 0.007122
0.044398 0.044398 0.007122
0.170428 0.044398 0.007122
0.596822 0.044398 0.007122
1.000000 0.044398 0.007122
1.000000 0.044398 0.007122
1.000000 0.044398 0.007122
0.000000 0.170428 0.007122
0.007122 0.170428 0.007122
0.044398 0.170428 0.007122
0.170428 0.170428 0.007122
0.596822 0.170428 0.007122
1.000000 0.170428 0.007122
1.000000 0.170428 0.007122
1.000000 0.170428 0.007122
0.000000 0.596822 0.007122
0.007122 0.596822 0.007122
0.044398 0.596822 0.007122
0.170428 0.596822 0.007122
0.596822 0.596822 0.007122
1.000000 0.596822 0.007122
1.000000 0.596822 0.007122
1.000000 0.596822 0.007122
0.000000 1.000000 0.007122
0.007122 1.000000 0.007122
0.044398 1.000000 0.007122
0.170428 1.000000 0.007122
0.596822 1.000000 0.007122
1.000000 1.000000 0.007122
1.000000 1.000000 0.007122
1.000000 1.000000 0.007122
0.000000 1.000000 0.007122
0.007122 1.000000 0.007122
0.044398 1.000000 0.007122
0.170428 1.000000 0.007122
0.596822 1.000000 0.007122
1.000000 1.000000 0.007122
1.000000 1.000000 0.007122
1.000000 1.000000 0.007122
0.000000 1.000000 0.007122
0.007122 1.000000 0.007122
0.044398 1.000000 0.007122
0.170428 1.000000 0.007122
0.596822 1.000000 0.007122
1.000000 1.000000 0.007122
1.000000 1.000000 0.007122
1.000000 1.000000 0.007122
0.000000 0.000000 0.044398
0.007122 0.000000 0.044398
0.044398 0.000000 0.044398
0.170428 0.000000 0.044398
0.596822 0.000000 0.044398
1.000000 0.000000 0.044398
1.000000 0.000000 0.044398
1.000000 0.000000 0.044398
0.000000 0.007122 0.044398
0.007122 0.007122 0.044398
0.044398 0.007122 0.044398
0.170428 0.007122 0.044398
0.596822 0.007122 0.044398
1.000000 0.007122 0.044398
1.000000 0.007122 0.044398
1.000000 0.007122 0.044398
0.000000 0.044398 0.044398
0.007122 0.044398 0.044398
0.044398 0.044398 0.044398
0.170428 0.044398 0.044398
0.596822 0.044398 0.044398
1.000000 0.044398 0.044398
1.000000 0.044398 0.044398
1.000000 0.044398 0.044398
0.000000 0.170428 0.044398
0.007122 0.170428 0.044398
0.044398 0.170428 0.044398
0.170428 0.170428 0.044398
0.596822 0.170428 0.044398
1.000000 0.170428 0.044398
1.000000 0.170428 0.044398
1.000000 0.170428 0.044398
0.000000 0.596822 0.044398
0.007122 0.596822 0.044398
0.044398 0.596822 0.044398
0.170428 0.596822 0.044398
0.596822 0.596822 0.044398
1.000000 0.596822 0.044398
1.000000 0.596822 0.044398
1.000000 0.596822 0.044398
0.000000 1.000000 0.044398
0.007122 1.000000 0.044398
0.044398 1.000000 0.044398
0.170428 1.000000 0.044398
0.596822 1.000000 0.044398
1.000000 1.000000 0.044398
1.000000 1.000000 0.044398
1.000000 1.000000 0.044398
0.000000 1.000000 0.044398
0.007122 1.000000 0.044398
0.044398 1.000000 0.044398
0.170428 1.000000 0.044398
0.596822 1.000000 0.044398
1.000000 1.000000 0.044398
1.000000 1.000000 0.044398
1.000000 1.000000 0.044398
0.000000 1.000000 0.044398
0.007122 1.000000 0.044398
0.044398 1.000000 0.044398
0.170428 1.000000 0.044398
0.596822 1.000000 0.044398
1.000000 1.000000 0.044398
1.000000 1.000000 0.044398
1.000000 1.000000 0.044398
0.000000 0.000000 0.170428
0.007122 0.000000 0.170428
0.044398 0.000000 0.170428
0.170428 0.000000 0.170428
0.596822 0.000000 0.170428
1.000000 0.000000 0.170428
1.000000 0.000000 0.170428
1.000000 0.000000 0.170428
0.000000 0.007122 0.170428
0.007122 0.007122 0.170428
0.044398 0.007122 0.170428
0.170428 0.007122 0.170428
0.596822 0.007122 0.170428
1.000000 0.007122 0.170428
1.000000 0.007122 0.170428
1.000000 0.007122 0.170428
0.000000 0.044398 0.170428
0.007122 0.044398 0.170428
0.044398 0.044398 0.170428
0.170428 0.044398 0.170428
0.596822 0.044398 0.170428
1.000000 0.044398 0.170428
1.000000 0.044398 0.170428
1.000000 0.044398 0.170428
0.000000 0.170428 0.170428
0.007122 0.170428 0.170428
0.044398 0.170428 0.170428
0.170428 0.170428 0.170428
0.596822 0.170428 0.170428
1.000000 0.170428 0.170428
1.000000 0.170428 0.170428
1.000000 0.170428 0.170428
0.000000 0.596822 0.170428
0.007122 0.596822 0.170428
0.044398 0.596822 0.170428
0.170428 0.596822 0.170428
0.596822 0.596822 0.170428
1.000000 0.596822 0.170428
1.000000 0.596822 0.170428
1.000000 0.596822 0.170428
0.000000 1.000000 0.170428
0.007122 1.000000 0.170428
0.044398 1.000000 0.170428
0.170428 1.000000 0.170428
0.596822 1.000000 0.170428
1.000000 1.000000 0.170428
1.000000 1.000000 0.170428
1.000000 1.000000 0.170428
0.000000 1.000000 0.170428
0.007122 1.000000 0.170428
0.044398 1.000000 0.170428
0.170428 1.000000 0.170428
0.596822 1.000000 0.170428
1.000000 1.000000 0.170428
1.000000 1.000000 0.170428
1.000000 1.000000 0.170428
0.000000 1.000000 0.170428
0.007122 1.000000 0.170428
0.044398 1.000000 0.170428
0.170428 1.000000 0.170428
0.596822 1.000000 0.170428
1.000000 1.000000 0.170428
1.000000 1.000000 0.170428
1.000000 1.000000 0.170428
0.000000 0.000000 0.596822
0.007122 0.000000 0.596822
0.044398 0.000000 0.596822
0.170428 0.000000 0.596822
0.596822 0.000000 0.596822
1.000000 0.000000 0.596822
1.000000 0.000000 0.596822
1.000000 0.000000 0.596822
0.000000 0.007122 0.596822
0.007122 0.007122 0.596822
0.044398 0.007122 0.596822
0.170428 0.007122 0.596822
0.596822 0.007122 0.596822
1.000000 0.007122 0.596822
1.000000 0.007122 0.596822
1.000000 0.007122 0.596822
0.000000 0.044398 0.596822
0.007122 0.044398 0.596822
0.044398 0.044398 0.596822
0.170428 0.044398 0.596822
0.596822 0.044398 0.596822
1.000000 0.044398 0.596822
1.000000 0.044398 0.596822
1.000000 0.044398 0.596822
0.000000 0.170428 0.596822
0.007122 0.170428 0.596822
0.044398 0.170428 0.596822
0.170428 0.170428 0.596822
0.596822 0.170428 0.596822
1.000000 0.170428 0.596822
1.000000 0.170428 0.596822
1.000000 0.170428 0.596822
0.000000 0.596822 0.596822
0.007122 0.596822 0.596822
0.044398 0.596822 0.596822
0.170428 0.596822 0.596822
0.596822 0.596822 0.596822
1.000000 0.596822 0.596822
1.000000 0.596822 0.596822
1.000000 0.596822 0.596822
0.000000 1.000000 0.596822
0.007122 1.000000 0.596822
0.044398 1.000000 0.596822
0.170428 1.000000 0.596822
0.596822 1.000000 0.596822
1.000000 1.000000 0.596822
1.000000 1.000000 0.596822
1.000000 1.000000 0.596822
0.000000 1.000000 0.596822
0.007122 1.000000 0.596822
0.044398 1.000000 0.596822
0.170428 1.000000 0.596822
0.596822 1.000000 0.596822
1.000000 1.000000 0.596822
1.000000 1.000000 0.596822
1.000000 1.000000 0.596822
0.000000 1.000000 0.596822
0.007122 1.000000 0.596822
0.044398 1.000000 0.596822
0.170428 1.000000 0.596822
0.596822 1.000000 0.596822
1.000000 1.000000 0.596822
1.000000 1.000000 0.596822
1.000000 1.000000 0.596822
0.000000 0.000000 1.000000
0.007122 0.000000 1.000000
0.044398 0.000000 1.000000
0.170428 0.000000 1.000000
0.596822 0.000000 1.000000
1.000000 0.000000 1.000000
1.000000 0.000000 1.000000
1.000000 0.000000 1.000000
0.000000 0.007122 1.000000
0.007122 0.007122 1.000000
0.044398 0.007122 1.000000
0.170428 0.007122 1.000000
0.596822 0.007122 1.000000
1.000000 0.007122 1.000000
1.000000 0.007122 1.000000
1.000000 0.007122 1.000000
0.000000 0.044398 1.000000
0.007122 0.044398 1.000000
0.044398 0.044398 1.000000
0.170428 0.044398 1.000000
0.596822 0.044398 1.000000
1.000000 0.044398 1.000000
1.000000 0.044398 1.000000
1.000000 0.044398 1.000000
0.000000 0.170428 1.000000
0.007122 0.170428 1.000000
0.044398 0.170428 1.000000
0.170428 0.170428 1.000000
0.596822 0.170428 1.000000
1.000000 0.170428 1.000000
1.000000 0.170428 1.000000
1.000000 0.170428 1.000000
0.000000 0.596822 1.000000
0.007122 0.596822 1.000000
0.044398 0.596822 1.000000
0.170428 0.596822 1.000000
0.596822 0.596822 1.000000
1.000000 0.596822 1.000000
1.000000 0.596822 1.000000
1.000000 0.596822 1.000000
0.000000 1.000000 1.000000
0.007122 1.000000 1.000000
0.044398 1.000000 1.000000
0.170428 1.000000 1.000000
0.596822 1.000000 1.000000
1.000000 1.000000 1.000000
1.000000 1.000000 1.000000
1.000000 1.000000 1.000000
0.000000 1.000000 1.000000
0.007122 1.000000 1.000000
0.044398 1.000000 1.000000
0.170428 1.000000 1.000000
0.596822 1.000000 1.000000
1.000000 1.000000 1.000000
1.000000 1.000000 1.000000
1.000000 1.000000 1.000000
0.000000 1.000000 1.000000
0.007122 1.000000 1.000000
0.044398 1.000000 1.000000
0.170428 1.000000 1.000000
0.596822 1.000000 1.000000
1.000000 1.000000 1.000000
1.000000 1.000000 1.000000
1.000000 1.000000 1.000000
0.000000 0.000000 1.000000
0.007122 0.000000 1.000000
0.044398 0.000000 1.000000
0.170428 0.000000 1.000000
0.596822 0.000000 1.000000
1.000000 0.000000 1.000000
1.000000 0.000000 1.000000
1.000000 0.000000 1.000000
0.000000 0.007122 1.000000
0.007122 0.007122 1.000000
0.044398 0.007122 1.000000
0.170428 0.007122 1.000000
0.596822 0.007122 1.000000
1.000000 0.007122 1.000000
1.000000 0.007122 1.000000
1.000000 0.007122 1.000000
0.000000 0.044398 1.000000
0.007122 0.044398 1.000000
0.044398 0.044398 1.000000
0.170428 0.044398 1.000000
0.596822 0.044398 1.000000
1.000000 0.044398 1.000000
1.000000 0.044398 1.000000
1.000000 0.044398 1.000000
0.000000 0.170428 1.000000
0.007122 0.170428 1.000000
0.044398 0.170428 1.000000
0.170428 0.170428 1.000000
0.596822 0.170428 1.000000
1.000000 0.170428 1.000000
1.000000 0.170428 1.000000
1.000000 0.170428 1.000000
0.000000 0.596822 1.000000
0.007122 0.596822 1.000000
0.044398 0.596822 1.000000
0.170428 0.596822 1.000000
0.596822 0.596822 1.000000
1.000000 0.596822 1.000000
1.000000 0.596822 1.000000
1.000000 0.596822 1.000000
0.000000 1.000000 1.000000
0.007122 1.000000 1.000000
0.044398 1.000000 1.000000
0.170428 1.000000 1.000000
0.596822 1.000000 1.000000
1.000000 1.000000 1.000000
1.000000 1.000000 1.000000
1.000000 1.000000 1.000000
0.000000 1.000000 1.000000
0.007122 1.000000 1.000000
0.044398 1.000000 1.000000
0.170428 1.000000 1.000000
0.596822 1.000000 1.000000
1.000000 1.000000 1.000000
1.000000 1.000000 1.000000
1.000000 1.000000 1.000000
0.000000 1.000000 1.000000
0.007122 1.000000 1.000000
0.044398 1.000000 1.000000
0.170428 1.000000 1.000000
0.596822 1.000000 1.000000
1.000000 1.000000 1.000000
1.000000 1.000000 1.000000
1.000000 1.000000 1.000000
0.000000 0.000000 1.000000
0.007122 0.000000 1.000000
0.044398 0.000000 1.000000
0.170428 0.000000 1.000000
0.596822 0.000000 1.000000
1.000000 0.000000 1.000000
1.000000 0.000000 1.000000
1.000000 0.000000 1.000000
0.000000 0.007122 1.000000
0.007122 0.007122 1.000000
0.044398 0.007122 1.000000
0.170428 0.007122 1.000000
0.596822 0.007122 1.000000
1.000000 0.007122 1.000000
1.000000 0.007122 1.000000
1.000000 0.007122 1.000000
0.000000 0.044398 1.000000
0.007122 0.044398 1.000000
0.044398 0.044398 1.000000
0.170428 0.044398 1.000000
0.596822 0.044398 1.000000
1.000000 0.044398 1.000000
1.000000 0.044398 1.000000
1.000000 0.044398 1.000000
0.000000 0.170428 1.000000
0.007122 0.170428 1.000000
0.044398 0.170428 1.000000
0.170428 0.170428 1.000000
0.596822 0.170428 1.000000
1.000000 0.170428 1.000000
1.000000 0.170428 1.000000
1.000000 0.170428 1.000000
0.000000 0.596822 1.000000
0.007122 0.596822 1.000000
0.044398 0.596822 1.000000
0.170428 0.596822 1.000000
0.596822 0.596822 1.000000
1.000000 0.596822 1.000000
1.000000 0.596822 1.000000
1.000000 0.596822 1.000000
0.000000 1.000000 1.000000
0.007122 1.000000 1.000000
0.044398 1.000000 1.000000
0.170428 1.000000 1.000000
0.596822 1.000000 1.000000
1.000000 1.000000 1.000000
1.000000 1.000000 1.000000
1.000000 1.000000 1.000000
0.000000 1.000000 1.000000
0.007122 1.000000 1.000000
0.044398 1.000000 1.000000
0.170428 1.000000 1.000000
0.596822 1.000000 1.000000
1.000000 1.000000 1.000000
1.000000 1.000000 1.000000
1.000000 1.000000 1.000000
0.000000 1.000000 1.000000
0.007122 1.000000 1.000000
0.044398 1.000000 1.000000
0.170428 1.000000 1.000000
0.596822 1.000000 1.000000
1.000000 1.000000 1.000000
1.000000 1.000000 1.000000
1.000000 1.000000 1.000000
