tests/cube/identity.cube
TITLE "cube/identity.cube"
LUT_3D_SIZE 5
DOMAIN_MIN 0.000000 0.000000 0.000000
DOMAIN_MAX 0.903226 0.903226 0.903226
0.000000 0.000000 0.000000
0.030486 0.000000 0.000000
0.320778 0.000000 0.000000
1.000000 0.000000 0.000000
1.000000 0.000000 0.000000
0.000000 0.030486 0.000000
0.030486 0.030486 0.000000
0.320778 0.030486 0.000000
1.000000 0.030486 0.000000
1.000000 0.030486 0.000000
0.000000 0.320778 0.000000
0.030486 0.320778 0.000000
0.320778 0.320778 0.000000
1.000000 0.320778 0.000000
1.000000 0.320778 0.000000
0.000000 1.000000 0.000000
0.030486 1.000000 0.000000
0.320778 1.000000 0.000000
1.000000 1.000000 0.000000
1.000000 1.000000 0.000000
0.000000 1.000000 0.000000
0.030486 1.000000 0.000000
0.320778 1.000000 0.000000
1.000000 1.000000 0.000000
1.000000 1.000000 0.000000
0.000000 0.000000 0.030486
0.030486 0.000000 0.030486
0.320778 0.000000 0.030486
1.000000 0.000000 0.030486
1.000000 0.000000 0.030486
0.000000 0.030486 0.030486
0.030486 0.030486 0.030486
0.320778 0.030486 0.030486
1.000000 0.030486 0.030486
1.000000 0.030486 0.030486
0.000000 0.320778 0.030486
0.030486 0.320778 0.030486
0.320778 0.320778 0.030486
1.000000 0.320778 0.030486
1.000000 0.320778 0.030486
0.000000 1.000000 0.030486
0.030486 1.000000 0.030486
0.320778 1.000000 0.030486
1.000000 1.000000 0.030486
1.000000 1.000000 0.030486
0.000000 1.000000 0.030486
0.030486 1.000000 0.030486
0.320778 1.000000 0.030486
1.000000 1.000000 0.030486
1.000000 1.000000 0.030486
0.000000 0.000000 0.320778
0.030486 0.000000 0.320778
0.320778 0.000000 0.320778
1.000000 0.000000 0.320778
1.000000 0.000000 0.320778
0.000000 0.030486 0.320778
0.030486 0.030486 0.320778
0.320778 0.030486 0.320778
1.000000 0.030486 0.320778
1.000000 0.030486 0.320778
0.000000 0.320778 0.320778
0.030486 0.320778 0.320778
0.320778 0.320778 0.320778
1.000000 0.320778 0.320778
1.000000 0.320778 0.320778
0.000000 1.000000 0.320778
0.030486 1.000000 0.320778
0.320778 1.000000 0.320778
1.000000 1.000000 0.320778
1.000000 1.000000 0.320778
0.000000 1.000000 0.320778
0.030486 1.000000 0.320778
0.320778 1.000000 0.320778
1.000000 1.000000 0.320778
1.000000 1.000000 0.320778
0.000000 0.000000 1.000000
0.030486 0.000000 1.000000
0.320778 0.000000 1.000000
1.000000 0.000000 1.000000
1.000000 0.000000 1.000000
0.000000 0.030486 1.000000
0.030486 0.030486 1.000000
0.320778 0.030486 1.000000
1.000000 0.030486 1.000000
1.000000 0.030486 1.000000
0.000000 0.320778 1.000000
0.030486 0.320778 1.000000
0.320778 0.320778 1.000000
1.000000 0.320778 1.000000
1.000000 0.320778 1.000000
0.000000 1.000000 1.000000
0.030486 1.000000 1.000000
0.320778 1.000000 1.000000
1.000000 1.000000 1.000000
1.000000 1.000000 1.000000
0.000000 1.000000 1.000000
0.030486 1.000000 1.000000
0.320778 1.000000 1.000000
1.000000 1.000000 1.000000
1.000000 1.000000 1.000000
0.000000 0.000000 1.000000
0.030486 0.000000 1.000000
0.320778 0.000000 1.000000
1.000000 0.000000 1.000000
1.000000 0.000000 1.000000
0.000000 0.030486 1.000000
0.030486 0.030486 1.000000
0.320778 0.030486 1.000000
1.000000 0.030486 1.000000
1.000000 0.030486 1.000000
0.000000 0.320778 1.000000
0.030486 0.320778 1.000000
0.320778 0.320778 1.000000
1.000000 0.320778 1.000000
1.000000 0.320778 1.000000
0.000000 1.000000 1.000000
0.030486 1.000000 1.000000
0.320778 1.000000 1.000000
1.000000 1.000000 1.000000
1.000000 1.000000 1.000000
0.000000 1.000000 1.000000
0.030486 1.000000 1.000000
0.320778 1.000000 1.000000
1.000000 1.000000 1.000000
1.000000 1.000000 1.000000
