tests/cube/identity.cube
TITLE "cube/identity.cube"
LUT_3D_SIZE 32
DOMAIN_MIN 0.0 0.0 0.0
DOMAIN_MAX 1.0 1.0 1.0
0.000000 0.000000 0.000000
0.000000 0.000000 0.000000
0.000262 0.000000 0.000000
0.003079 0.000000 0.000000
0.007122 0.000000 0.000000
0.012683 0.000000 0.000000
0.020262 0.000000 0.000000
0.030486 0.000000 0.000000
0.044398 0.000000 0.000000
0.063221 0.000000 0.000000
0.088775 0.000000 0.000000
0.123360 0.000000 0.000000
0.170428 0.000000 0.000000
0.233719 0.000000 0.000000
0.320778 0.000000 0.000000
0.436246 0.000000 0.000000
0.596822 0.000000 0.000000
0.808909 0.000000 0.000000
1.103839 0.000000 0.000000
1.000000 0.000000 0.000000
1.000000 0.000000 0.000000
1.000000 0.000000 0.000000
1.000000 0.000000 0.000000
1.000000 0.000000 0.000000
1.000000 0.000000 0.000000
1.000000 0.000000 0.000000
1.000000 0.000000 0.000000
1.000000 0.000000 0.000000
1.000000 0.000000 0.000000
1.000000 0.000000 0.000000
1.000000 0.000000 0.000000
1.000000 0.000000 0.000000
0.000000 0.000000 0.000000
0.000000 0.000000 0.000000
0.000262 0.000000 0.000000
0.003079 0.000000 0.000000
0.007122 0.000000 0.000000
0.012683 0.000000 0.000000
0.020262 0.000000 0.000000
0.030486 0.000000 0.000000
0.044398 0.000000 0.000000
0.063221 0.000000 0.000000
0.088775 0.000000 0.000000
0.123360 0.000000 0.000000
0.170428 0.000000 0.000000
0.233719 0.000000 0.000000
0.320778 0.000000 0.000000
0.436246 0.000000 0.000000
0.596822 0.000000 0.000000
0.808909 0.000000 0.000000
1.103839 0.000000 0.000000
1.000000 0.000000 0.000000
1.000000 0.000000 0.000000
1.000000 0.000000 0.000000
1.000000 0.000000 0.000000
1.000000 0.000000 0.000000
1.000000 0.000000 0.000000
1.000000 0.000000 0.000000
1.000000 0.000000 0.000000
1.000000 0.000000 0.000000
1.000000 0.000000 0.000000
1.000000 0.000000 0.000000
1.000000 0.000000 0.000000
1.000000 0.000000 0.000000
0.000000 0.000262 0.000000
0.000000 0.000262 0.000000
0.000262 0.000262 0.000000
0.003079 0.000262 0.000000
0.007122 0.000262 0.000000
0.012683 0.000262 0.000000
0.020262 0.000262 0.000000
0.030486 0.000262 0.000000
0.044398 0.000262 0.000000
0.063221 0.000262 0.000000
0.088775 0.000262 0.000000
0.123360 0.000262 0.000000
0.170428 0.000262 0.000000
0.233719 0.000262 0.000000
0.320778 0.000262 0.000000
0.436246 0.000262 0.000000
0.596822 0.000262 0.000000
0.808909 0.000262 0.000000
1.103839 0.000262 0.000000
1.000000 0.000262 0.000000
1.000000 0.000262 0.000000
1.000000 0.000262 0.000000
1.000000 0.000262 0.000000
1.000000 0.000262 0.000000
1.000000 0.000262 0.000000
1.000000 0.000262 0.000000
1.000000 0.000262 0.000000
1.000000 0.000262 0.000000
1.000000 0.000262 0.000000
1.000000 0.000262 0.000000
1.000000 0.000262 0.000000
1.000000 0.000262 0.000000
0.000000 0.003079 0.000000
0.000000 0.003079 0.000000
0.000262 0.003079 0.000000
0.003079 0.003079 0.000000
0.007122 0.003079 0.000000
0.012683 0.003079 0.000000
0.020262 0.003079 0.000000
0.030486 0.003079 0.000000
0.044398 0.003079 0.000000
0.063221 0.003079 0.000000
0.088775 0.003079 0.000000
0.123360 0.003079 0.000000
0.170428 0.003079 0.000000
0.233719 0.003079 0.000000
0.320778 0.003079 0.000000
0.436246 0.003079 0.000000
0.596822 0.003079 0.000000
0.808909 0.003079 0.000000
1.103839 0.003079 0.000000
1.000000 0.003079 0.000000
1.000000 0.003079 0.000000
1.000000 0.003079 0.000000
1.000000 0.003079 0.000000
1.000000 0.003079 0.000000
1.000000 0.003079 0.000000
1.000000 0.003079 0.000000
1.000000 0.003079 0.000000
1.000000 0.003079 0.000000
1.000000 0.003079 0.000000
1.000000 0.003079 0.000000
1.000000 0.003079 0.000000
1.000000 0.003079 0.000000
0.000000 0.007122 0.000000
0.000000 0.007122 0.000000
0.000262 0.007122 0.000000
0.003079 0.007122 0.000000
0.007122 0.007122 0.000000
0.012683 0.007122 0.000000
0.020262 0.007122 0.000000
0.030486 0.007122 0.000000
0.044398 0.007122 0.000000
0.063221 0.007122 0.000000
0.088775 0.007122 0.000000
0.123360 0.007122 0.000000
0.170428 0.007122 0.000000
0.233719 0.007122 0.000000
0.320778 0.007122 0.000000
0.436246 0.007122 0.000000
0.596822 0.007122 0.000000
0.808909 0.007122 0.000000
1.103839 0.007122 0.000000
1.000000 0.007122 0.000000
1.000000 0.007122 0.000000
1.000000 0.007122 0.000000
1.000000 0.007122 0.000000
1.000000 0.007122 0.000000
1.000000 0.007122 0.000000
1.000000 0.007122 0.000000
1.000000 0.007122 0.000000
1.000000 0.007122 0.000000
1.000000 0.007122 0.000000
1.000000 0.007122 0.000000
1.000000 0.007122 0.000000
1.000000 0.007122 0.000000
0.000000 0.012683 0.000000
0.000000 0.012683 0.000000
0.000262 0.012683 0.000000
0.003079 0.012683 0.000000
0.007122 0.012683 0.000000
0.012683 0.012683 0.000000
0.020262 0.012683 0.000000
0.030486 0.012683 0.000000
0.044398 0.012683 0.000000
0.063221 0.012683 0.000000
0.088775 0.012683 0.000000
0.123360 0.012683 0.000000
0.170428 0.012683 0.000000
0.233719 0.012683 0.000000
0.320778 0.012683 0.000000
0.436246 0.012683 0.000000
0.596822 0.012683 0.000000
0.808909 0.012683 0.000000
1.103839 0.012683 0.000000
1.000000 0.012683 0.000000
1.000000 0.012683 0.000000
1.000000 0.012683 0.000000
1.000000 0.012683 0.000000
1.000000 0.012683 0.000000
1.000000 0.012683 0.000000
1.000000 0.012683 0.000000
1.000000 0.012683 0.000000
1.000000 0.012683 0.000000
1.000000 0.012683 0.000000
1.000000 0.012683 0.000000
1.000000 0.012683 0.000000
1.000000 0.012683 0.000000
0.000000 0.020262 0.000000
0.000000 0.020262 0.000000
0.000262 0.020262 0.000000
0.003079 0.020262 0.000000
0.007122 0.020262 0.000000
0.012683 0.020262 0.000000
0.020262 0.020262 0.000000
0.030486 0.020262 0.000000
0.044398 0.020262 0.000000
0.063221 0.020262 0.000000
0.088775 0.020262 0.000000
0.123360 0.020262 0.000000
0.170428 0.020262 0.000000
0.233719 0.020262 0.000000
0.320778 0.020262 0.000000
0.436246 0.020262 0.000000
0.596822 0.020262 0.000000
0.808909 0.020262 0.000000
1.103839 0.020262 0.000000
1.000000 0.020262 0.000000
1.000000 0.020262 0.000000
1.000000 0.020262 0.000000
1.000000 0.020262 0.000000
1.000000 0.020262 0.000000
1.000000 0.020262 0.000000
1.000000 0.020262 0.000000
1.000000 0.020262 0.000000
1.000000 0.020262 0.000000
1.000000 0.020262 0.000000
1.000000 0.020262 0.000000
1.000000 0.020262 0.000000
1.000000 0.020262 0.000000
0.000000 0.030486 0.000000
0.000000 0.030486 0.000000
0.000262 0.030486 0.000000
0.003079 0.030486 0.000000
0.007122 0.030486 0.000000
0.012683 0.030486 0.000000
0.020262 0.030486 0.000000
0.030486 0.030486 0.000000
0.044398 0.030486 0.000000
0.063221 0.030486 0.000000
0.088775 0.030486 0.000000
0.123360 0.030486 0.000000
0.170428 0.030486 0.000000
0.233719 0.030486 0.000000
0.320778 0.030486 0.000000
0.436246 0.030486 0.000000
0.596822 0.030486 0.000000
0.808909 0.030486 0.000000
1.103839 0.030486 0.000000
1.000000 0.030486 0.000000
1.000000 0.030486 0.000000
1.000000 0.030486 0.000000
1.000000 0.030486 0.000000
1.000000 0.030486 0.000000
1.000000 0.030486 0.000000
1.000000 0.030486 0.000000
1.000000 0.030486 0.000000
1.000000 0.030486 0.000000
1.000000 0.030486 0.000000
1.000000 0.030486 0.000000
1.000000 0.030486 0.000000
1.000000 0.030486 0.000000
0.000000 0.044398 0.000000
0.000000 0.044398 0.000000
0.000262 0.044398 0.000000
0.003079 0.044398 0.000000
0.007122 0.044398 0.000000
0.012683 0.044398 0.000000
0.020262 0.044398 0.000000
0.030486 0.044398 0.000000
0.044398 0.044398 0.000000
0.063221 0.044398 0.000000
0.088775 0.044398 0.000000
0.123360 0.044398 0.000000
0.170428 0.044398 0.000000
0.233719 0.044398 0.000000
0.320778 0.044398 0.000000
0.436246 0.044398 0.000000
0.596822 0.044398 0.000000
0.808909 0.044398 0.000000
1.103839 0.044398 0.000000
1.000000 0.044398 0.000000
1.000000 0.044398 0.000000
1.000000 0.044398 0.000000
1.000000 0.044398 0.000000
1.000000 0.044398 0.000000
1.000000 0.044398 0.000000
1.000000 0.044398 0.000000
1.000000 0.044398 0.000000
1.000000 0.044398 0.000000
1.000000 0.044398 0.000000
1.000000 0.044398 0.000000
1.000000 0.044398 0.000000
1.000000 0.044398 0.000000
0.000000 0.063221 0.000000
0.000000 0.063221 0.000000
0.000262 0.063221 0.000000
0.003079 0.063221 0.000000
0.007122 0.063221 0.000000
0.012683 0.063221 0.000000
0.020262 0.063221 0.000000
0.030486 0.063221 0.000000
0.044398 0.063221 0.000000
0.063221 0.063221 0.000000
0.088775 0.063221 0.000000
0.123360 0.063221 0.000000
0.170428 0.063221 0.000000
0.233719 0.063221 0.000000
0.320778 0.063221 0.000000
0.436246 0.063221 0.000000
0.596822 0.063221 0.000000
0.808909 0.063221 0.000000
1.103839 0.063221 0.000000
1.000000 0.063221 0.000000
1.000000 0.063221 0.000000
1.000000 0.063221 0.000000
1.000000 0.063221 0.000000
1.000000 0.063221 0.000000
1.000000 0.063221 0.000000
1.000000 0.063221 0.000000
1.000000 0.063221 0.000000
1.000000 0.063221 0.000000
1.000000 0.063221 0.000000
1.000000 0.063221 0.000000
1.000000 0.063221 0.000000
1.000000 0.063221 0.000000
0.000000 0.088775 0.000000
0.000000 0.088775 0.000000
0.000262 0.088775 0.000000
0.003079 0.088775 0.000000
0.007122 0.088775 0.000000
0.012683 0.088775 0.000000
0.020262 0.088775 0.000000
0.030486 0.088775 0.000000
0.044398 0.088775 0.000000
0.063221 0.088775 0.000000
0.088775 0.088775 0.000000
0.123360 0.088775 0.000000
0.170428 0.088775 0.000000
0.233719 0.088775 0.000000
0.320778 0.088775 0.000000
0.436246 0.088775 0.000000
0.596822 0.088775 0.000000
0.808909 0.088775 0.000000
1.103839 0.088775 0.000000
1.000000 0.088775 0.000000
1.000000 0.088775 0.000000
1.000000 0.088775 0.000000
1.000000 0.088775 0.000000
1.000000 0.088775 0.000000
1.000000 0.088775 0.000000
1.000000 0.088775 0.000000
1.000000 0.088775 0.000000
1.000000 0.088775 0.000000
1.000000 0.088775 0.000000
1.000000 0.088775 0.000000
1.000000 0.088775 0.000000
1.000000 0.088775 0.000000
0.000000 0.123360 0.000000
0.000000 0.123360 0.000000
0.000262 0.123360 0.000000
0.003079 0.123360 0.000000
0.007122 0.123360 0.000000
0.012683 0.123360 0.000000
0.020262 0.123360 0.000000
0.030486 0.123360 0.000000
0.044398 0.123360 0.000000
0.063221 0.123360 0.000000
0.088775 0.123360 0.000000
0.123360 0.123360 0.000000
0.170428 0.123360 0.000000
0.233719 0.123360 0.000000
0.320778 0.123360 0.000000
0.436246 0.123360 0.000000
0.596822 0.123360 0.000000
0.808909 0.123360 0.000000
1.103839 0.123360 0.000000
1.000000 0.123360 0.000000
1.000000 0.123360 0.000000
1.000000 0.123360 0.000000
1.000000 0.123360 0.000000
1.000000 0.123360 0.000000
1.000000 0.123360 0.000000
1.000000 0.123360 0.000000
1.000000 0.123360 0.000000
1.000000 0.123360 0.000000
1.000000 0.123360 0.000000
1.000000 0.123360 0.000000
1.000000 0.123360 0.000000
1.000000 0.123360 0.000000
0.000000 0.170428 0.000000
0.000000 0.170428 0.000000
0.000262 0.170428 0.000000
0.003079 0.170428 0.000000
0.007122 0.170428 0.000000
0.012683 0.170428 0.000000
0.020262 0.170428 0.000000
0.030486 0.170428 0.000000
0.044398 0.170428 0.000000
0.063221 0.170428 0.000000
0.088775 0.170428 0.000000
0.123360 0.170428 0.000000
0.170428 0.170428 0.000000
0.233719 0.170428 0.000000
0.320778 0.170428 0.000000
0.436246 0.170428 0.000000
0.596822 0.170428 0.000000
0.808909 0.170428 0.000000
1.103839 0.170428 0.000000
1.000000 0.170428 0.000000
1.000000 0.170428 0.000000
1.000000 0.170428 0.000000
1.000000 0.170428 0.000000
1.000000 0.170428 0.000000
1.000000 0.170428 0.000000
1.000000 0.170428 0.000000
1.000000 0.170428 0.000000
1.000000 0.170428 0.000000
1.000000 0.170428 0.000000
1.000000 0.170428 0.000000
1.000000 0.170428 0.000000
1.000000 0.170428 0.000000
0.000000 0.233719 0.000000
0.000000 0.233719 0.000000
0.000262 0.233719 0.000000
0.003079 0.233719 0.000000
0.007122 0.233719 0.000000
0.012683 0.233719 0.000000
0.020262 0.233719 0.000000
0.030486 0.233719 0.000000
0.044398 0.233719 0.000000
0.063221 0.233719 0.000000
0.088775 0.233719 0.000000
0.123360 0.233719 0.000000
0.170428 0.233719 0.000000
0.233719 0.233719 0.000000
0.320778 0.233719 0.000000
0.436246 0.233719 0.000000
0.596822 0.233719 0.000000
0.808909 0.233719 0.000000
1.103839 0.233719 0.000000
1.000000 0.233719 0.000000
1.000000 0.233719 0.000000
1.000000 0.233719 0.000000
1.000000 0.233719 0.000000
1.000000 0.233719 0.000000
1.000000 0.233719 0.000000
1.000000 0.233719 0.000000
1.000000 0.233719 0.000000
1.000000 0.233719 0.000000
1.000000 0.233719 0.000000
1.000000 0.233719 0.000000
1.000000 0.233719 0.000000
1.000000 0.233719 0.000000
0.000000 0.320778 0.000000
0.000000 0.320778 0.000000
0.000262 0.320778 0.000000
0.003079 0.320778 0.000000
0.007122 0.320778 0.000000
0.012683 0.320778 0.000000
0.020262 0.320778 0.000000
0.030486 0.320778 0.000000
0.044398 0.320778 0.000000
0.063221 0.320778 0.000000
0.088775 0.320778 0.000000
0.123360 0.320778 0.000000
0.170428 0.320778 0.000000
0.233719 0.320778 0.000000
0.320778 0.320778 0.000000
0.436246 0.320778 0.000000
0.596822 0.320778 0.000000
0.808909 0.320778 0.000000
1.103839 0.320778 0.000000
1.000000 0.320778 0.000000
1.000000 0.320778 0.000000
1.000000 0.320778 0.000000
1.000000 0.320778 0.000000
1.000000 0.320778 0.000000
1.000000 0.320778 0.000000
1.000000 0.320778 0.000000
1.000000 0.320778 0.000000
1.000000 0.320778 0.000000
1.000000 0.320778 0.000000
1.000000 0.320778 0.000000
1.000000 0.320778 0.000000
1.000000 0.320778 0.000000
0.000000 0.436246 0.000000
0.000000 0.436246 0.000000
0.000262 0.436246 0.000000
0.003079 0.436246 0.000000
0.007122 0.436246 0.000000
0.012683 0.436246 0.000000
0.020262 0.436246 0.000000
0.030486 0.436246 0.000000
0.044398 0.436246 0.000000
0.063221 0.436246 0.000000
0.088775 0.436246 0.000000
0.123360 0.436246 0.000000
0.170428 0.436246 0.000000
0.233719 0.436246 0.000000
0.320778 0.436246 0.000000
0.436246 0.436246 0.000000
0.596822 0.436246 0.000000
0.808909 0.436246 0.000000
1.103839 0.436246 0.000000
1.000000 0.436246 0.000000
1.000000 0.436246 0.000000
1.000000 0.436246 0.000000
1.000000 0.436246 0.000000
1.000000 0.436246 0.000000
1.000000 0.436246 0.000000
1.000000 0.436246 0.000000
1.000000 0.436246 0.000000
1.000000 0.436246 0.000000
1.000000 0.436246 0.000000
1.000000 0.436246 0.000000
1.000000 0.436246 0.000000
1.000000 0.436246 0.000000
0.000000 0.596822 0.000000
0.000000 0.596822 0.000000
0.000262 0.596822 0.000000
0.003079 0.596822 0.000000
0.007122 0.596822 0.000000
0.012683 0.596822 0.000000
0.020262 0.596822 0.000000
0.030486 0.596822 0.000000
0.044398 0.596822 0.000000
0.063221 0.596822 0.000000
0.088775 0.596822 0.000000
0.123360 0.596822 0.000000
0.170428 0.596822 0.000000
0.233719 0.596822 0.000000
0.320778 0.596822 0.000000
0.436246 0.596822 0.000000
0.596822 0.596822 0.000000
0.808909 0.596822 0.000000
1.103839 0.596822 0.000000
1.000000 0.596822 0.000000
1.000000 0.596822 0.000000
1.000000 0.596822 0.000000
1.000000 0.596822 0.000000
1.000000 0.596822 0.000000
1.000000 0.596822 0.000000
1.000000 0.596822 0.000000
1.000000 0.596822 0.000000
1.000000 0.596822 0.000000
1.000000 0.596822 0.000000
1.000000 0.596822 0.000000
1.000000 0.596822 0.000000
1.000000 0.596822 0.000000
0.000000 0.808909 0.000000
0.000000 0.808909 0.000000
0.000262 0.808909 0.000000
0.003079 0.808909 0.000000
0.007122 0.808909 0.000000
0.012683 0.808909 0.000000
0.020262 0.808909 0.000000
0.030486 0.808909 0.000000
0.044398 0.808909 0.000000
0.063221 0.808909 0.000000
0.088775 0.808909 0.000000
0.123360 0.808909 0.000000
0.170428 0.808909 0.000000
0.233719 0.808909 0.000000
0.320778 0.808909 0.000000
0.436246 0.808909 0.000000
0.596822 0.808909 0.000000
0.808909 0.808909 0.000000
1.103839 0.808909 0.000000
1.000000 0.808909 0.000000
1.000000 0.808909 0.000000
1.000000 0.808909 0.000000
1.000000 0.808909 0.000000
1.000000 0.808909 0.000000
1.000000 0.808909 0.000000
1.000000 0.808909 0.000000
1.000000 0.808909 0.000000
1.000000 0.808909 0.000000
1.000000 0.808909 0.000000
1.000000 0.808909 0.000000
1.000000 0.808909 0.000000
1.000000 0.808909 0.000000
0.000000 1.103839 0.000000
0.000000 1.103839 0.000000
0.000262 1.103839 0.000000
0.003079 1.103839 0.000000
0.007122 1.103839 0.000000
0.012683 1.103839 0.000000
0.020262 1.103839 0.000000
0.030486 1.103839 0.000000
0.044398 1.103839 0.000000
0.063221 1.103839 0.000000
0.088775 1.103839 0.000000
0.123360 1.103839 0.000000
0.170428 1.103839 0.000000
0.233719 1.103839 0.000000
0.320778 1.103839 0.000000
0.436246 1.103839 0.000000
0.596822 1.103839 0.000000
0.808909 1.103839 0.000000
1.103839 1.103839 0.000000
1.000000 1.103839 0.000000
1.000000 1.103839 0.000000
1.000000 1.103839 0.000000
1.000000 1.103839 0.000000
1.000000 1.103839 0.000000
1.000000 1.103839 0.000000
1.000000 1.103839 0.000000
1.000000 1.103839 0.000000
1.000000 1.103839 0.000000
1.000000 1.103839 0.000000
1.000000 1.103839 0.000000
1.000000 1.103839 0.000000
1.000000 1.103839 0.000000
0.000000 1.000000 0.000000
0.000000 1.000000 0.000000
0.000262 1.000000 0.000000
0.003079 1.000000 0.000000
0.007122 1.000000 0.000000
0.012683 1.000000 0.000000
0.020262 1.000000 0.000000
0.030486 1.000000 0.000000
0.044398 1.000000 0.000000
0.063221 1.000000 0.000000
0.088775 1.000000 0.000000
0.123360 1.000000 0.000000
0.170428 1.000000 0.000000
0.233719 1.000000 0.000000
0.320778 1.000000 0.000000
0.436246 1.000000 0.000000
0.596822 1.000000 0.000000
0.808909 1.000000 0.000000
1.103839 1.000000 0.000000
1.000000 1.000000 0.000000
1.000000 1.000000 0.000000
1.000000 1.000000 0.000000
1.000000 1.000000 0.000000
1.000000 1.000000 0.000000
1.000000 1.000000 0.000000
1.000000 1.000000 0.000000
1.000000 1.000000 0.000000
1.000000 1.000000 0.000000
1.000000 1.000000 0.000000
1.000000 1.000000 0.000000
1.000000 1.000000 0.000000
1.000000 1.000000 0.000000
0.000000 1.000000 0.000000
0.000000 1.000000 0.000000
0.000262 1.000000 0.000000
0.003079 1.000000 0.000000
0.007122 1.000000 0.000000
0.012683 1.000000 0.000000
0.020262 1.000000 0.000000
0.030486 1.000000 0.000000
0.044398 1.000000 0.000000
0.063221 1.000000 0.000000
0.088775 1.000000 0.000000
0.123360 1.000000 0.000000
0.170428 1.000000 0.000000
0.233719 1.000000 0.000000
0.320778 1.000000 0.000000
0.436246 1.000000 0.000000
0.596822 1.000000 0.000000
0.808909 1.000000 0.000000
1.103839 1.000000 0.000000
1.000000 1.000000 0.000000
1.000000 1.000000 0.000000
1.000000 1.000000 0.000000
1.000000 1.000000 0.000000
1.000000 1.000000 0.000000
1.000000 1.000000 0.000000
1.000000 1.000000 0.000000
1.000000 1.000000 0.000000
1.000000 1.000000 0.000000
1.000000 1.000000 0.000000
1.000000 1.000000 0.000000
1.000000 1.000000 0.000000
1.000000 1.000000 0.000000
0.000000 1.000000 0.000000
0.000000 1.000000 0.000000
0.000262 1.000000 0.000000
0.003079 1.000000 0.000000
0.007122 1.000000 0.000000
0.012683 1.000000 0.000000
0.020262 1.000000 0.000000
0.030486 1.000000 0.000000
0.044398 1.000000 0.000000
0.063221 1.000000 0.000000
0.088775 1.000000 0.000000
0.123360 1.000000 0.000000
0.170428 1.000000 0.000000
0.233719 1.000000 0.000000
0.320778 1.000000 0.000000
0.436246 1.000000 0.000000
0.596822 1.000000 0.000000
0.808909 1.000000 0.000000
1.103839 1.000000 0.000000
1.000000 1.000000 0.000000
1.000000 1.000000 0.000000
1.000000 1.000000 0.000000
1.000000 1.000000 0.000000
1.000000 1.000000 0.000000
1.000000 1.000000 0.000000
1.000000 1.000000 0.000000
1.000000 1.000000 0.000000
1.000000 1.000000 0.000000
1.000000 1.000000 0.000000
1.000000 1.000000 0.000000
1.000000 1.000000 0.000000
1.000000 1.000000 0.000000
0.000000 1.000000 0.000000
0.000000 1.000000 0.000000
0.000262 1.000000 0.000000
0.003079 1.000000 0.000000
0.007122 1.000000 0.000000
0.012683 1.000000 0.000000
0.020262 1.000000 0.000000
0.030486 1.000000 0.000000
0.044398 1.000000 0.000000
0.063221 1.000000 0.000000
0.088775 1.000000 0.000000
0.123360 1.000000 0.000000
0.170428 1.000000 0.000000
0.233719 1.000000 0.000000
0.320778 1.000000 0.000000
0.436246 1.000000 0.000000
0.596822 1.000000 0.000000
0.808909 1.000000 0.000000
1.103839 1.000000 0.000000
1.000000 1.000000 0.000000
1.000000 1.000000 0.000000
1.000000 1.000000 0.000000
1.000000 1.000000 0.000000
1.000000 1.000000 0.000000
1.000000 1.000000 0.000000
1.000000 1.000000 0.000000
1.000000 1.000000 0.000000
1.000000 1.000000 0.000000
1.000000 1.000000 0.000000
1.000000 1.000000 0.000000
1.000000 1.000000 0.000000
1.000000 1.000000 0.000000
0.000000 1.000000 0.000000
0.000000 1.000000 0.000000
0.000262 1.000000 0.000000
0.003079 1.000000 0.000000
0.007122 1.000000 0.000000
0.012683 1.000000 0.000000
0.020262 1.000000 0.000000
0.030486 1.000000 0.000000
0.044398 1.000000 0.000000
0.063221 1.000000 0.000000
0.088775 1.000000 0.000000
0.123360 1.000000 0.000000
0.170428 1.000000 0.000000
0.233719 1.000000 0.000000
0.320778 1.000000 0.000000
0.436246 1.000000 0.000000
0.596822 1.000000 0.000000
0.808909 1.000000 0.000000
1.103839 1.000000 0.000000
1.000000 1.000000 0.000000
1.000000 1.000000 0.000000
1.000000 1.000000 0.000000
1.000000 1.000000 0.000000
1.000000 1.000000 0.000000
1.000000 1.000000 0.000000
1.000000 1.000000 0.000000
1.000000 1.000000 0.000000
1.000000 1.000000 0.000000
1.000000 1.000000 0.000000
1.000000 1.000000 0.000000
1.000000 1.000000 0.000000
1.000000 1.000000 0.000000
0.000000 1.000000 0.000000
0.000000 1.000000 0.000000
0.000262 1.000000 0.000000
0.003079 1.000000 0.000000
0.007122 1.000000 0.000000
0.012683 1.000000 0.000000
0.020262 1.000000 0.000000
0.030486 1.000000 0.000000
0.044398 1.000000 0.000000
0.063221 1.000000 0.000000
0.088775 1.000000 0.000000
0.123360 1.000000 0.000000
0.170428 1.000000 0.000000
0.233719 1.000000 0.000000
0.320778 1.000000 0.000000
0.436246 1.000000 0.000000
0.596822 1.000000 0.000000
0.808909 1.000000 0.000000
1.103839 1.000000 0.000000
1.000000 1.000000 0.000000
1.000000 1.000000 0.000000
1.000000 1.000000 0.000000
1.000000 1.000000 0.000000
1.000000 1.000000 0.000000
1.000000 1.000000 0.000000
1.000000 1.000000 0.000000
1.000000 1.000000 0.000000
1.000000 1.000000 0.000000
1.000000 1.000000 0.000000
1.000000 1.000000 0.000000
1.000000 1.000000 0.000000
1.000000 1.000000 0.000000
0.000000 1.000000 0.000000
0.000000 1.000000 0.000000
0.000262 1.000000 0.000000
0.003079 1.000000 0.000000
0.007122 1.000000 0.000000
0.012683 1.000000 0.000000
0.020262 1.000000 0.000000
0.030486 1.000000 0.000000
0.044398 1.000000 0.000000
0.063221 1.000000 0.000000
0.088775 1.000000 0.000000
0.123360 1.000000 0.000000
0.170428 1.000000 0.000000
0.233719 1.000000 0.000000
0.320778 1.000000 0.000000
0.436246 1.000000 0.000000
0.596822 1.000000 0.000000
0.808909 1.000000 0.000000
1.103839 1.000000 0.000000
1.000000 1.000000 0.000000
1.000000 1.000000 0.000000
1.000000 1.000000 0.000000
1.000000 1.000000 0.000000
1.000000 1.000000 0.000000
1.000000 1.000000 0.000000
1.000000 1.000000 0.000000
1.000000 1.000000 0.000000
1.000000 1.000000 0.000000
1.000000 1.000000 0.000000
1.000000 1.000000 0.000000
1.000000 1.000000 0.000000
1.000000 1.000000 0.000000
0.000000 1.000000 0.000000
0.000000 1.000000 0.000000
0.000262 1.000000 0.000000
0.003079 1.000000 0.000000
0.007122 1.000000 0.000000
0.012683 1.000000 0.000000
0.020262 1.000000 0.000000
0.030486 1.000000 0.000000
0.044398 1.000000 0.000000
0.063221 1.000000 0.000000
0.088775 1.000000 0.000000
0.123360 1.000000 0.000000
0.170428 1.000000 0.000000
0.233719 1.000000 0.000000
0.320778 1.000000 0.000000
0.436246 1.000000 0.000000
0.596822 1.000000 0.000000
0.808909 1.000000 0.000000
1.103839 1.000000 0.000000
1.000000 1.000000 0.000000
1.000000 1.000000 0.000000
1.000000 1.000000 0.000000
1.000000 1.000000 0.000000
1.000000 1.000000 0.000000
1.000000 1.000000 0.000000
1.000000 1.000000 0.000000
1.000000 1.000000 0.000000
1.000000 1.000000 0.000000
1.000000 1.000000 0.000000
1.000000 1.000000 0.000000
1.000000 1.000000 0.000000
1.000000 1.000000 0.000000
0.000000 1.000000 0.000000
0.000000 1.000000 0.000000
0.000262 1.000000 0.000000
0.003079 1.000000 0.000000
0.007122 1.000000 0.000000
0.012683 1.000000 0.000000
0.020262 1.000000 0.000000
0.030486 1.000000 0.000000
0.044398 1.000000 0.000000
0.063221 1.000000 0.000000
0.088775 1.000000 0.000000
0.123360 1.000000 0.000000
0.170428 1.000000 0.000000
0.233719 1.000000 0.000000
0.320778 1.000000 0.000000
0.436246 1.000000 0.000000
0.596822 1.000000 0.000000
0.808909 1.000000 0.000000
1.103839 1.000000 0.000000
1.000000 1.000000 0.000000
1.000000 1.000000 0.000000
