tests/cube/linear.cube
TITLE "cube/linear.cube"
LUT_3D_SIZE 8
DOMAIN_MIN 0.000000 0.000000 0.000000
DOMAIN_MAX 0.903226 0.903226 0.903226
0.000000 0.000000 0.000000
0.000124 0.000000 0.000000
0.000770 0.000000 0.000000
0.002956 0.000000 0.000000
0.010350 0.000000 0.000000
0.035240 0.000000 0.000000
0.119038 0.000000 0.000000
0.403031 0.000000 0.000000
0.000000 0.000124 0.000000
0.000124 0.000124 0.000000
0.000770 0.000124 0.000000
0.002956 0.000124 0.000000
0.010350 0.000124 0.000000
0.035240 0.000124 0.000000
0.119038 0.000124 0.000000
0.403031 0.000124 0.000000
0.000000 0.000770 0.000000
0.000124 0.000770 0.000000
0.000770 0.000770 0.000000
0.002956 0.000770 0.000000
0.010350 0.000770 0.000000
0.035240 0.000770 0.000000
0.119038 0.000770 0.000000
0.403031 0.000770 0.000000
0.000000 0.002956 0.000000
0.000124 0.002956 0.000000
0.000770 0.002956 0.000000
0.002956 0.002956 0.000000
0.010350 0.002956 0.000000
0.035240 0.002956 0.000000
0.119038 0.002956 0.000000
0.403031 0.002956 0.000000
0.000000 0.010350 0.000000
0.000124 0.010350 0.000000
0.000770 0.010350 0.000000
0.002956 0.010350 0.000000
0.010350 0.010350 0.000000
0.035240 0.010350 0.000000
0.119038 0.010350 0.000000
0.403031 0.010350 0.000000
0.000000 0.035240 0.000000
0.000124 0.035240 0.000000
0.000770 0.035240 0.000000
0.002956 0.035240 0.000000
0.010350 0.035240 0.000000
0.035240 0.035240 0.000000
0.119038 0.035240 0.000000
0.403031 0.035240 0.000000
0.000000 0.119038 0.000000
0.000124 0.119038 0.000000
0.000770 0.119038 0.000000
0.002956 0.119038 0.000000
0.010350 0.119038 0.000000
0.035240 0.119038 0.000000
0.119038 0.119038 0.000000
0.403031 0.119038 0.000000
0.000000 0.403031 0.000000
0.000124 0.403031 0.000000
0.000770 0.403031 0.000000
0.002956 0.403031 0.000000
0.010350 0.403031 0.000000
0.035240 0.403031 0.000000
0.119038 0.403031 0.000000
0.403031 0.403031 0.000000
0.000000 0.000000 0.000124
0.000124 0.000000 0.000124
0.000770 0.000000 0.000124
0.002956 0.000000 0.000124
0.010350 0.000000 0.000124
0.035240 0.000000 0.000124
0.119038 0.000000 0.000124
0.403031 0.000000 0.000124
0.000000 0.000124 0.000124
0.000124 0.000124 0.000124
0.000770 0.000124 0.000124
0.002956 0.000124 0.000124
0.010350 0.000124 0.000124
0.035240 0.000124 0.000124
0.119038 0.000124 0.000124
0.403031 0.000124 0.000124
0.000000 0.000770 0.000124
0.000124 0.000770 0.000124
0.000770 0.000770 0.000124
0.002956 0.000770 0.000124
0.010350 0.000770 0.000124
0.035240 0.000770 0.000124
0.119038 0.000770 0.000124
0.403031 0.000770 0.000124
0.000000 0.002956 0.000124
0.000124 0.002956 0.000124
0.000770 0.002956 0.000124
0.002956 0.002956 0.000124
0.010350 0.002956 0.000124
0.035240 0.002956 0.000124
0.119038 0.002956 0.000124
0.403031 0.002956 0.000124
0.000000 0.010350 0.000124
0.000124 0.010350 0.000124
0.000770 0.010350 0.000124
0.002956 0.010350 0.000124
0.010350 0.010350 0.000124
0.035240 0.010350 0.000124
0.119038 0.010350 0.000124
0.403031 0.010350 0.000124
0.000000 0.035240 0.000124
0.000124 0.035240 0.000124
0.000770 0.035240 0.000124
0.002956 0.035240 0.000124
0.010350 0.035240 0.000124
0.035240 0.035240 0.000124
0.119038 0.035240 0.000124
0.403031 0.035240 0.000124
0.000000 0.119038 0.000124
0.000124 0.119038 0.000124
0.000770 0.119038 0.000124
0.002956 0.119038 0.000124
0.010350 0.119038 0.000124
0.035240 0.119038 0.000124
0.119038 0.119038 0.000124
0.403031 0.119038 0.000124
0.000000 0.403031 0.000124
0.000124 0.403031 0.000124
0.000770 0.403031 0.000124
0.002956 0.403031 0.000124
0.010350 0.403031 0.000124
0.035240 0.403031 0.000124
0.119038 0.403031 0.000124
0.403031 0.403031 0.000124
0.000000 0.000000 0.000770
0.000124 0.000000 0.000770
0.000770 0.000000 0.000770
0.002956 0.000000 0.000770
0.010350 0.000000 0.000770
0.035240 0.000000 0.000770
0.119038 0.000000 0.000770
0.403031 0.000000 0.000770
0.000000 0.000124 0.000770
0.000124 0.000124 0.000770
0.000770 0.000124 0.000770
0.002956 0.000124 0.000770
0.010350 0.000124 0.000770
0.035240 0.000124 0.000770
0.119038 0.000124 0.000770
0.403031 0.000124 0.000770
0.000000 0.000770 0.000770
0.000124 0.000770 0.000770
0.000770 0.000770 0.000770
0.002956 0.000770 0.000770
0.010350 0.000770 0.000770
0.035240 0.000770 0.000770
0.119038 0.000770 0.000770
0.403031 0.000770 0.000770
0.000000 0.002956 0.000770
0.000124 0.002956 0.000770
0.000770 0.002956 0.000770
0.002956 0.002956 0.000770
0.010350 0.002956 0.000770
0.035240 0.002956 0.000770
0.119038 0.002956 0.000770
0.403031 0.002956 0.000770
0.000000 0.010350 0.000770
0.000124 0.010350 0.000770
0.000770 0.010350 0.000770
0.002956 0.010350 0.000770
0.010350 0.010350 0.000770
0.035240 0.010350 0.000770
0.119038 0.010350 0.000770
0.403031 0.010350 0.000770
0.000000 0.035240 0.000770
0.000124 0.035240 0.000770
0.000770 0.035240 0.000770
0.002956 0.035240 0.000770
0.010350 0.035240 0.000770
0.035240 0.035240 0.000770
0.119038 0.035240 0.000770
0.403031 0.035240 0.000770
0.000000 0.119038 0.000770
0.000124 0.119038 0.000770
0.000770 0.119038 0.000770
0.002956 0.119038 0.000770
0.010350 0.119038 0.000770
0.035240 0.119038 0.000770
0.119038 0.119038 0.000770
0.403031 0.119038 0.000770
0.000000 0.403031 0.000770
0.000124 0.403031 0.000770
0.000770 0.403031 0.000770
0.002956 0.403031 0.000770
0.010350 0.403031 0.000770
0.035240 0.403031 0.000770
0.119038 0.403031 0.000770
0.403031 0.403031 0.000770
0.000000 0.000000 0.002956
0.000124 0.000000 0.002956
0.000770 0.000000 0.002956
0.002956 0.000000 0.002956
0.010350 0.000000 0.002956
0.035240 0.000000 0.002956
0.119038 0.000000 0.002956
0.403031 0.000000 0.002956
0.000000 0.000124 0.002956
0.000124 0.000124 0.002956
0.000770 0.000124 0.002956
0.002956 0.000124 0.002956
0.010350 0.000124 0.002956
0.035240 0.000124 0.002956
0.119038 0.000124 0.002956
0.403031 0.000124 0.002956
0.000000 0.000770 0.002956
0.000124 0.000770 0.002956
0.000770 0.000770 0.002956
0.002956 0.000770 0.002956
0.010350 0.000770 0.002956
0.035240 0.000770 0.002956
0.119038 0.000770 0.002956
0.403031 0.000770 0.002956
0.000000 0.002956 0.002956
0.000124 0.002956 0.002956
0.000770 0.002956 0.002956
0.002956 0.002956 0.002956
0.010350 0.002956 0.002956
0.035240 0.002956 0.002956
0.119038 0.002956 0.002956
0.403031 0.002956 0.002956
0.000000 0.010350 0.002956
0.000124 0.010350 0.002956
0.000770 0.010350 0.002956
0.002956 0.010350 0.002956
0.010350 0.010350 0.002956
0.035240 0.010350 0.002956
0.119038 0.010350 0.002956
0.403031 0.010350 0.002956
0.000000 0.035240 0.002956
0.000124 0.035240 0.002956
0.000770 0.035240 0.002956
0.002956 0.035240 0.002956
0.010350 0.035240 0.002956
0.035240 0.035240 0.002956
0.119038 0.035240 0.002956
0.403031 0.035240 0.002956
0.000000 0.119038 0.002956
0.000124 0.119038 0.002956
0.000770 0.119038 0.002956
0.002956 0.119038 0.002956
0.010350 0.119038 0.002956
0.035240 0.119038 0.002956
0.119038 0.119038 0.002956
0.403031 0.119038 0.002956
0.000000 0.403031 0.002956
0.000124 0.403031 0.002956
0.000770 0.403031 0.002956
0.002956 0.403031 0.002956
0.010350 0.403031 0.002956
0.035240 0.403031 0.002956
0.119038 0.403031 0.002956
0.403031 0.403031 0.002956
0.000000 0.000000 0.010350
0.000124 0.000000 0.010350
0.000770 0.000000 0.010350
0.002956 0.000000 0.010350
0.010350 0.000000 0.010350
0.035240 0.000000 0.010350
0.119038 0.000000 0.010350
0.403031 0.000000 0.010350
0.000000 0.000124 0.010350
0.000124 0.000124 0.010350
0.000770 0.000124 0.010350
0.002956 0.000124 0.010350
0.010350 0.000124 0.010350
0.035240 0.000124 0.010350
0.119038 0.000124 0.010350
0.403031 0.000124 0.010350
0.000000 0.000770 0.010350
0.000124 0.000770 0.010350
0.000770 0.000770 0.010350
0.002956 0.000770 0.010350
0.010350 0.000770 0.010350
0.035240 0.000770 0.010350
0.119038 0.000770 0.010350
0.403031 0.000770 0.010350
0.000000 0.002956 0.010350
0.000124 0.002956 0.010350
0.000770 0.002956 0.010350
0.002956 0.002956 0.010350
0.010350 0.002956 0.010350
0.035240 0.002956 0.010350
0.119038 0.002956 0.010350
0.403031 0.002956 0.010350
0.000000 0.010350 0.010350
0.000124 0.010350 0.010350
0.000770 0.010350 0.010350
0.002956 0.010350 0.010350
0.010350 0.010350 0.010350
0.035240 0.010350 0.010350
0.119038 0.010350 0.010350
0.403031 0.010350 0.010350
0.000000 0.035240 0.010350
0.000124 0.035240 0.010350
0.000770 0.035240 0.010350
0.002956 0.035240 0.010350
0.010350 0.035240 0.010350
0.035240 0.035240 0.010350
0.119038 0.035240 0.010350
0.403031 0.035240 0.010350
0.000000 0.119038 0.010350
0.000124 0.119038 0.010350
0.000770 0.119038 0.010350
0.002956 0.119038 0.010350
0.010350 0.119038 0.010350
0.035240 0.119038 0.010350
0.119038 0.119038 0.010350
0.403031 0.119038 0.010350
0.000000 0.403031 0.010350
0.000124 0.403031 0.010350
0.000770 0.403031 0.010350
0.002956 0.403031 0.010350
0.010350 0.403031 0.010350
0.035240 0.403031 0.010350
0.119038 0.403031 0.010350
0.403031 0.403031 0.010350
0.000000 0.000000 0.035240
0.000124 0.000000 0.035240
0.000770 0.000000 0.035240
0.002956 0.000000 0.035240
0.010350 0.000000 0.035240
0.035240 0.000000 0.035240
0.119038 0.000000 0.035240
0.403031 0.000000 0.035240
0.000000 0.000124 0.035240
0.000124 0.000124 0.035240
0.000770 0.000124 0.035240
0.002956 0.000124 0.035240
0.010350 0.000124 0.035240
0.035240 0.000124 0.035240
0.119038 0.000124 0.035240
0.403031 0.000124 0.035240
0.000000 0.000770 0.035240
0.000124 0.000770 0.035240
0.000770 0.000770 0.035240
0.002956 0.000770 0.035240
0.010350 0.000770 0.035240
0.035240 0.000770 0.035240
0.119038 0.000770 0.035240
0.403031 0.000770 0.035240
0.000000 0.002956 0.035240
0.000124 0.002956 0.035240
0.000770 0.002956 0.035240
0.002956 0.002956 0.035240
0.010350 0.002956 0.035240
0.035240 0.002956 0.035240
0.119038 0.002956 0.035240
0.403031 0.002956 0.035240
0.000000 0.010350 0.035240
0.000124 0.010350 0.035240
0.000770 0.010350 0.035240
0.002956 0.010350 0.035240
0.010350 0.010350 0.035240
0.035240 0.010350 0.035240
0.119038 0.010350 0.035240
0.403031 0.010350 0.035240
0.000000 0.035240 0.035240
0.000124 0.035240 0.035240
0.000770 0.035240 0.035240
0.002956 0.035240 0.035240
0.010350 0.035240 0.035240
0.035240 0.035240 0.035240
0.119038 0.035240 0.035240
0.403031 0.035240 0.035240
0.000000 0.119038 0.035240
0.000124 0.119038 0.035240
0.000770 0.119038 0.035240
0.002956 0.119038 0.035240
0.010350 0.119038 0.035240
0.035240 0.119038 0.035240
0.119038 0.119038 0.035240
0.403031 0.119038 0.035240
0.000000 0.403031 0.035240
0.000124 0.403031 0.035240
0.000770 0.403031 0.035240
0.002956 0.403031 0.035240
0.010350 0.403031 0.035240
0.035240 0.403031 0.035240
0.119038 0.403031 0.035240
0.403031 0.403031 0.035240
0.000000 0.000000 0.119038
0.000124 0.000000 0.119038
0.000770 0.000000 0.119038
0.002956 0.000000 0.119038
0.010350 0.000000 0.119038
0.035240 0.000000 0.119038
0.119038 0.000000 0.119038
0.403031 0.000000 0.119038
0.000000 0.000124 0.119038
0.000124 0.000124 0.119038
0.000770 0.000124 0.119038
0.002956 0.000124 0.119038
0.010350 0.000124 0.119038
0.035240 0.000124 0.119038
0.119038 0.000124 0.119038
0.403031 0.000124 0.119038
0.000000 0.000770 0.119038
0.000124 0.000770 0.119038
0.000770 0.000770 0.119038
0.002956 0.000770 0.119038
0.010350 0.000770 0.119038
0.035240 0.000770 0.119038
0.119038 0.000770 0.119038
0.403031 0.000770 0.119038
0.000000 0.002956 0.119038
0.000124 0.002956 0.119038
0.000770 0.002956 0.119038
0.002956 0.002956 0.119038
0.010350 0.002956 0.119038
0.035240 0.002956 0.119038
0.119038 0.002956 0.119038
0.403031 0.002956 0.119038
0.000000 0.010350 0.119038
0.000124 0.010350 0.119038
0.000770 0.010350 0.119038
0.002956 0.010350 0.119038
0.010350 0.010350 0.119038
0.035240 0.010350 0.119038
0.119038 0.010350 0.119038
0.403031 0.010350 0.119038
0.000000 0.035240 0.119038
0.000124 0.035240 0.119038
0.000770 0.035240 0.119038
0.002956 0.035240 0.119038
0.010350 0.035240 0.119038
0.035240 0.035240 0.119038
0.119038 0.035240 0.119038
0.403031 0.035240 0.119038
0.000000 0.119038 0.119038
0.000124 0.119038 0.119038
0.000770 0.119038 0.119038
0.002956 0.119038 0.119038
0.010350 0.119038 0.119038
0.035240 0.119038 0.119038
0.119038 0.119038 0.119038
0.403031 0.119038 0.119038
0.000000 0.403031 0.119038
0.000124 0.403031 0.119038
0.000770 0.403031 0.119038
0.002956 0.403031 0.119038
0.010350 0.403031 0.119038
0.035240 0.403031 0.119038
0.119038 0.403031 0.119038
0.403031 0.403031 0.119038
0.000000 0.000000 0.403031
0.000124 0.000000 0.403031
0.000770 0.000000 0.403031
0.002956 0.000000 0.403031
0.010350 0.000000 0.403031
0.035240 0.000000 0.403031
0.119038 0.000000 0.403031
0.403031 0.000000 0.403031
0.000000 0.000124 0.403031
0.000124 0.000124 0.403031
0.000770 0.000124 0.403031
0.002956 0.000124 0.403031
0.010350 0.000124 0.403031
0.035240 0.000124 0.403031
0.119038 0.000124 0.403031
0.403031 0.000124 0.403031
0.000000 0.000770 0.403031
0.000124 0.000770 0.403031
0.000770 0.000770 0.403031
0.002956 0.000770 0.403031
0.010350 0.000770 0.403031
0.035240 0.000770 0.403031
0.119038 0.000770 0.403031
0.403031 0.000770 0.403031
0.000000 0.002956 0.403031
0.000124 0.002956 0.403031
0.000770 0.002956 0.403031
0.002956 0.002956 0.403031
0.010350 0.002956 0.403031
0.035240 0.002956 0.403031
0.119038 0.002956 0.403031
0.403031 0.002956 0.403031
0.000000 0.010350 0.403031
0.000124 0.010350 0.403031
0.000770 0.010350 0.403031
0.002956 0.010350 0.403031
0.010350 0.010350 0.403031
0.035240 0.010350 0.403031
0.119038 0.010350 0.403031
0.403031 0.010350 0.403031
0.000000 0.035240 0.403031
0.000124 0.035240 0.403031
0.000770 0.035240 0.403031
0.002956 0.035240 0.403031
0.010350 0.035240 0.403031
0.035240 0.035240 0.403031
0.119038 0.035240 0.403031
0.403031 0.035240 0.403031
0.000000 0.119038 0.403031
0.000124 0.119038 0.403031
0.000770 0.119038 0.403031
0.002956 0.119038 0.403031
0.010350 0.119038 0.403031
0.035240 0.119038 0.403031
0.119038 0.119038 0.403031
0.403031 0.119038 0.403031
0.000000 0.403031 0.403031
0.000124 0.403031 0.403031
0.000770 0.403031 0.403031
0.002956 0.403031 0.403031
0.010350 0.403031 0.403031
0.035240 0.403031 0.403031
0.119038 0.403031 0.403031
0.403031 0.403031 0.403031
