tests/cube/linear_max1.cube
TITLE "cube/linear_max1.cube"
LUT_3D_SIZE 32
DOMAIN_MIN 0.0 0.0 0.0
DOMAIN_MAX 1.0 1.0 1.0
0.000000 0.000000 0.000000
0.000000 0.000000 0.000000
0.000000 0.000000 0.000000
0.002905 0.000000 0.000000
0.007161 0.000000 0.000000
0.012732 0.000000 0.000000
0.020524 0.000000 0.000000
0.031055 0.000000 0.000000
0.045044 0.000000 0.000000
0.064288 0.000000 0.000000
0.090246 0.000000 0.000000
0.125466 0.000000 0.000000
0.173288 0.000000 0.000000
0.237135 0.000000 0.000000
0.326482 0.000000 0.000000
0.441934 0.000000 0.000000
0.605188 0.000000 0.000000
0.821220 0.000000 0.000000
1.103840 0.000000 0.000000
1.000000 0.000000 0.000000
1.000000 0.000000 0.000000
1.000000 0.000000 0.000000
1.000000 0.000000 0.000000
1.000000 0.000000 0.000000
1.000000 0.000000 0.000000
1.000000 0.000000 0.000000
1.000000 0.000000 0.000000
1.000000 0.000000 0.000000
1.000000 0.000000 0.000000
1.000000 0.000000 0.000000
1.000000 0.000000 0.000000
1.000000 0.000000 0.000000
0.000000 0.000000 0.000000
0.000000 0.000000 0.000000
0.000000 0.000000 0.000000
0.002905 0.000000 0.000000
0.007161 0.000000 0.000000
0.012732 0.000000 0.000000
0.020524 0.000000 0.000000
0.031055 0.000000 0.000000
0.045044 0.000000 0.000000
0.064288 0.000000 0.000000
0.090246 0.000000 0.000000
0.125466 0.000000 0.000000
0.173288 0.000000 0.000000
0.237135 0.000000 0.000000
0.326482 0.000000 0.000000
0.441934 0.000000 0.000000
0.605188 0.000000 0.000000
0.821220 0.000000 0.000000
1.103840 0.000000 0.000000
1.000000 0.000000 0.000000
1.000000 0.000000 0.000000
1.000000 0.000000 0.000000
1.000000 0.000000 0.000000
1.000000 0.000000 0.000000
1.000000 0.000000 0.000000
1.000000 0.000000 0.000000
1.000000 0.000000 0.000000
1.000000 0.000000 0.000000
1.000000 0.000000 0.000000
1.000000 0.000000 0.000000
1.000000 0.000000 0.000000
1.000000 0.000000 0.000000
0.000000 0.000000 0.000000
0.000000 0.000000 0.000000
0.000000 0.000000 0.000000
0.002905 0.000000 0.000000
0.007161 0.000000 0.000000
0.012732 0.000000 0.000000
0.020524 0.000000 0.000000
0.031055 0.000000 0.000000
0.045044 0.000000 0.000000
0.064288 0.000000 0.000000
0.090246 0.000000 0.000000
0.125466 0.000000 0.000000
0.173288 0.000000 0.000000
0.237135 0.000000 0.000000
0.326482 0.000000 0.000000
0.441934 0.000000 0.000000
0.605188 0.000000 0.000000
0.821220 0.000000 0.000000
1.103840 0.000000 0.000000
1.000000 0.000000 0.000000
1.000000 0.000000 0.000000
1.000000 0.000000 0.000000
1.000000 0.000000 0.000000
1.000000 0.000000 0.000000
1.000000 0.000000 0.000000
1.000000 0.000000 0.000000
1.000000 0.000000 0.000000
1.000000 0.000000 0.000000
1.000000 0.000000 0.000000
1.000000 0.000000 0.000000
1.000000 0.000000 0.000000
1.000000 0.000000 0.000000
0.000000 0.002905 0.000000
0.000000 0.002905 0.000000
0.000000 0.002905 0.000000
0.002905 0.002905 0.000000
0.007161 0.002905 0.000000
0.012732 0.002905 0.000000
0.020524 0.002905 0.000000
0.031055 0.002905 0.000000
0.045044 0.002905 0.000000
0.064288 0.002905 0.000000
0.090246 0.002905 0.000000
0.125466 0.002905 0.000000
0.173288 0.002905 0.000000
0.237135 0.002905 0.000000
0.326482 0.002905 0.000000
0.441934 0.002905 0.000000
0.605188 0.002905 0.000000
0.821220 0.002905 0.000000
1.103840 0.002905 0.000000
1.000000 0.002905 0.000000
1.000000 0.002905 0.000000
1.000000 0.002905 0.000000
1.000000 0.002905 0.000000
1.000000 0.002905 0.000000
1.000000 0.002905 0.000000
1.000000 0.002905 0.000000
1.000000 0.002905 0.000000
1.000000 0.002905 0.000000
1.000000 0.002905 0.000000
1.000000 0.002905 0.000000
1.000000 0.002905 0.000000
1.000000 0.002905 0.000000
0.000000 0.007161 0.000000
0.000000 0.007161 0.000000
0.000000 0.007161 0.000000
0.002905 0.007161 0.000000
0.007161 0.007161 0.000000
0.012732 0.007161 0.000000
0.020524 0.007161 0.000000
0.031055 0.007161 0.000000
0.045044 0.007161 0.000000
0.064288 0.007161 0.000000
0.090246 0.007161 0.000000
0.125466 0.007161 0.000000
0.173288 0.007161 0.000000
0.237135 0.007161 0.000000
0.326482 0.007161 0.000000
0.441934 0.007161 0.000000
0.605188 0.007161 0.000000
0.821220 0.007161 0.000000
1.103840 0.007161 0.000000
1.000000 0.007161 0.000000
1.000000 0.007161 0.000000
1.000000 0.007161 0.000000
1.000000 0.007161 0.000000
1.000000 0.007161 0.000000
1.000000 0.007161 0.000000
1.000000 0.007161 0.000000
1.000000 0.007161 0.000000
1.000000 0.007161 0.000000
1.000000 0.007161 0.000000
1.000000 0.007161 0.000000
1.000000 0.007161 0.000000
1.000000 0.007161 0.000000
0.000000 0.012732 0.000000
0.000000 0.012732 0.000000
0.000000 0.012732 0.000000
0.002905 0.012732 0.000000
0.007161 0.012732 0.000000
0.012732 0.012732 0.000000
0.020524 0.012732 0.000000
0.031055 0.012732 0.000000
0.045044 0.012732 0.000000
0.064288 0.012732 0.000000
0.090246 0.012732 0.000000
0.125466 0.012732 0.000000
0.173288 0.012732 0.000000
0.237135 0.012732 0.000000
0.326482 0.012732 0.000000
0.441934 0.012732 0.000000
0.605188 0.012732 0.000000
0.821220 0.012732 0.000000
1.103840 0.012732 0.000000
1.000000 0.012732 0.000000
1.000000 0.012732 0.000000
1.000000 0.012732 0.000000
1.000000 0.012732 0.000000
1.000000 0.012732 0.000000
1.000000 0.012732 0.000000
1.000000 0.012732 0.000000
1.000000 0.012732 0.000000
1.000000 0.012732 0.000000
1.000000 0.012732 0.000000
1.000000 0.012732 0.000000
1.000000 0.012732 0.000000
1.000000 0.012732 0.000000
0.000000 0.020524 0.000000
0.000000 0.020524 0.000000
0.000000 0.020524 0.000000
0.002905 0.020524 0.000000
0.007161 0.020524 0.000000
0.012732 0.020524 0.000000
0.020524 0.020524 0.000000
0.031055 0.020524 0.000000
0.045044 0.020524 0.000000
0.064288 0.020524 0.000000
0.090246 0.020524 0.000000
0.125466 0.020524 0.000000
0.173288 0.020524 0.000000
0.237135 0.020524 0.000000
0.326482 0.020524 0.000000
0.441934 0.020524 0.000000
0.605188 0.020524 0.000000
0.821220 0.020524 0.000000
1.103840 0.020524 0.000000
1.000000 0.020524 0.000000
1.000000 0.020524 0.000000
1.000000 0.020524 0.000000
1.000000 0.020524 0.000000
1.000000 0.020524 0.000000
1.000000 0.020524 0.000000
1.000000 0.020524 0.000000
1.000000 0.020524 0.000000
1.000000 0.020524 0.000000
1.000000 0.020524 0.000000
1.000000 0.020524 0.000000
1.000000 0.020524 0.000000
1.000000 0.020524 0.000000
0.000000 0.031055 0.000000
0.000000 0.031055 0.000000
0.000000 0.031055 0.000000
0.002905 0.031055 0.000000
0.007161 0.031055 0.000000
0.012732 0.031055 0.000000
0.020524 0.031055 0.000000
0.031055 0.031055 0.000000
0.045044 0.031055 0.000000
0.064288 0.031055 0.000000
0.090246 0.031055 0.000000
0.125466 0.031055 0.000000
0.173288 0.031055 0.000000
0.237135 0.031055 0.000000
0.326482 0.031055 0.000000
0.441934 0.031055 0.000000
0.605188 0.031055 0.000000
0.821220 0.031055 0.000000
1.103840 0.031055 0.000000
1.000000 0.031055 0.000000
1.000000 0.031055 0.000000
1.000000 0.031055 0.000000
1.000000 0.031055 0.000000
1.000000 0.031055 0.000000
1.000000 0.031055 0.000000
1.000000 0.031055 0.000000
1.000000 0.031055 0.000000
1.000000 0.031055 0.000000
1.000000 0.031055 0.000000
1.000000 0.031055 0.000000
1.000000 0.031055 0.000000
1.000000 0.031055 0.000000
0.000000 0.045044 0.000000
0.000000 0.045044 0.000000
0.000000 0.045044 0.000000
0.002905 0.045044 0.000000
0.007161 0.045044 0.000000
0.012732 0.045044 0.000000
0.020524 0.045044 0.000000
0.031055 0.045044 0.000000
0.045044 0.045044 0.000000
0.064288 0.045044 0.000000
0.090246 0.045044 0.000000
0.125466 0.045044 0.000000
0.173288 0.045044 0.000000
0.237135 0.045044 0.000000
0.326482 0.045044 0.000000
0.441934 0.045044 0.000000
0.605188 0.045044 0.000000
0.821220 0.045044 0.000000
1.103840 0.045044 0.000000
1.000000 0.045044 0.000000
1.000000 0.045044 0.000000
1.000000 0.045044 0.000000
1.000000 0.045044 0.000000
1.000000 0.045044 0.000000
1.000000 0.045044 0.000000
1.000000 0.045044 0.000000
1.000000 0.045044 0.000000
1.000000 0.045044 0.000000
1.000000 0.045044 0.000000
1.000000 0.045044 0.000000
1.000000 0.045044 0.000000
1.000000 0.045044 0.000000
0.000000 0.064288 0.000000
0.000000 0.064288 0.000000
0.000000 0.064288 0.000000
0.002905 0.064288 0.000000
0.007161 0.064288 0.000000
0.012732 0.064288 0.000000
0.020524 0.064288 0.000000
0.031055 0.064288 0.000000
0.045044 0.064288 0.000000
0.064288 0.064288 0.000000
0.090246 0.064288 0.000000
0.125466 0.064288 0.000000
0.173288 0.064288 0.000000
0.237135 0.064288 0.000000
0.326482 0.064288 0.000000
0.441934 0.064288 0.000000
0.605188 0.064288 0.000000
0.821220 0.064288 0.000000
1.103840 0.064288 0.000000
1.000000 0.064288 0.000000
1.000000 0.064288 0.000000
1.000000 0.064288 0.000000
1.000000 0.064288 0.000000
1.000000 0.064288 0.000000
1.000000 0.064288 0.000000
1.000000 0.064288 0.000000
1.000000 0.064288 0.000000
1.000000 0.064288 0.000000
1.000000 0.064288 0.000000
1.000000 0.064288 0.000000
1.000000 0.064288 0.000000
1.000000 0.064288 0.000000
0.000000 0.090246 0.000000
0.000000 0.090246 0.000000
0.000000 0.090246 0.000000
0.002905 0.090246 0.000000
0.007161 0.090246 0.000000
0.012732 0.090246 0.000000
0.020524 0.090246 0.000000
0.031055 0.090246 0.000000
0.045044 0.090246 0.000000
0.064288 0.090246 0.000000
0.090246 0.090246 0.000000
0.125466 0.090246 0.000000
0.173288 0.090246 0.000000
0.237135 0.090246 0.000000
0.326482 0.090246 0.000000
0.441934 0.090246 0.000000
0.605188 0.090246 0.000000
0.821220 0.090246 0.000000
1.103840 0.090246 0.000000
1.000000 0.090246 0.000000
1.000000 0.090246 0.000000
1.000000 0.090246 0.000000
1.000000 0.090246 0.000000
1.000000 0.090246 0.000000
1.000000 0.090246 0.000000
1.000000 0.090246 0.000000
1.000000 0.090246 0.000000
1.000000 0.090246 0.000000
1.000000 0.090246 0.000000
1.000000 0.090246 0.000000
1.000000 0.090246 0.000000
1.000000 0.090246 0.000000
0.000000 0.125466 0.000000
0.000000 0.125466 0.000000
0.000000 0.125466 0.000000
0.002905 0.125466 0.000000
0.007161 0.125466 0.000000
0.012732 0.125466 0.000000
0.020524 0.125466 0.000000
0.031055 0.125466 0.000000
0.045044 0.125466 0.000000
0.064288 0.125466 0.000000
0.090246 0.125466 0.000000
0.125466 0.125466 0.000000
0.173288 0.125466 0.000000
0.237135 0.125466 0.000000
0.326482 0.125466 0.000000
0.441934 0.125466 0.000000
0.605188 0.125466 0.000000
0.821220 0.125466 0.000000
1.103840 0.125466 0.000000
1.000000 0.125466 0.000000
1.000000 0.125466 0.000000
1.000000 0.125466 0.000000
1.000000 0.125466 0.000000
1.000000 0.125466 0.000000
1.000000 0.125466 0.000000
1.000000 0.125466 0.000000
1.000000 0.125466 0.000000
1.000000 0.125466 0.000000
1.000000 0.125466 0.000000
1.000000 0.125466 0.000000
1.000000 0.125466 0.000000
1.000000 0.125466 0.000000
0.000000 0.173288 0.000000
0.000000 0.173288 0.000000
0.000000 0.173288 0.000000
0.002905 0.173288 0.000000
0.007161 0.173288 0.000000
0.012732 0.173288 0.000000
0.020524 0.173288 0.000000
0.031055 0.173288 0.000000
0.045044 0.173288 0.000000
0.064288 0.173288 0.000000
0.090246 0.173288 0.000000
0.125466 0.173288 0.000000
0.173288 0.173288 0.000000
0.237135 0.173288 0.000000
0.326482 0.173288 0.000000
0.441934 0.173288 0.000000
0.605188 0.173288 0.000000
0.821220 0.173288 0.000000
1.103840 0.173288 0.000000
1.000000 0.173288 0.000000
1.000000 0.173288 0.000000
1.000000 0.173288 0.000000
1.000000 0.173288 0.000000
1.000000 0.173288 0.000000
1.000000 0.173288 0.000000
1.000000 0.173288 0.000000
1.000000 0.173288 0.000000
1.000000 0.173288 0.000000
1.000000 0.173288 0.000000
1.000000 0.173288 0.000000
1.000000 0.173288 0.000000
1.000000 0.173288 0.000000
0.000000 0.237135 0.000000
0.000000 0.237135 0.000000
0.000000 0.237135 0.000000
0.002905 0.237135 0.000000
0.007161 0.237135 0.000000
0.012732 0.237135 0.000000
0.020524 0.237135 0.000000
0.031055 0.237135 0.000000
0.045044 0.237135 0.000000
0.064288 0.237135 0.000000
0.090246 0.237135 0.000000
0.125466 0.237135 0.000000
0.173288 0.237135 0.000000
0.237135 0.237135 0.000000
0.326482 0.237135 0.000000
0.441934 0.237135 0.000000
0.605188 0.237135 0.000000
0.821220 0.237135 0.000000
1.103840 0.237135 0.000000
1.000000 0.237135 0.000000
1.000000 0.237135 0.000000
1.000000 0.237135 0.000000
1.000000 0.237135 0.000000
1.000000 0.237135 0.000000
1.000000 0.237135 0.000000
1.000000 0.237135 0.000000
1.000000 0.237135 0.000000
1.000000 0.237135 0.000000
1.000000 0.237135 0.000000
1.000000 0.237135 0.000000
1.000000 0.237135 0.000000
1.000000 0.237135 0.000000
0.000000 0.326482 0.000000
0.000000 0.326482 0.000000
0.000000 0.326482 0.000000
0.002905 0.326482 0.000000
0.007161 0.326482 0.000000
0.012732 0.326482 0.000000
0.020524 0.326482 0.000000
0.031055 0.326482 0.000000
0.045044 0.326482 0.000000
0.064288 0.326482 0.000000
0.090246 0.326482 0.000000
0.125466 0.326482 0.000000
0.173288 0.326482 0.000000
0.237135 0.326482 0.000000
0.326482 0.326482 0.000000
0.441934 0.326482 0.000000
0.605188 0.326482 0.000000
0.821220 0.326482 0.000000
1.103840 0.326482 0.000000
1.000000 0.326482 0.000000
1.000000 0.326482 0.000000
1.000000 0.326482 0.000000
1.000000 0.326482 0.000000
1.000000 0.326482 0.000000
1.000000 0.326482 0.000000
1.000000 0.326482 0.000000
1.000000 0.326482 0.000000
1.000000 0.326482 0.000000
1.000000 0.326482 0.000000
1.000000 0.326482 0.000000
1.000000 0.326482 0.000000
1.000000 0.326482 0.000000
0.000000 0.441934 0.000000
0.000000 0.441934 0.000000
0.000000 0.441934 0.000000
0.002905 0.441934 0.000000
0.007161 0.441934 0.000000
0.012732 0.441934 0.000000
0.020524 0.441934 0.000000
0.031055 0.441934 0.000000
0.045044 0.441934 0.000000
0.064288 0.441934 0.000000
0.090246 0.441934 0.000000
0.125466 0.441934 0.000000
0.173288 0.441934 0.000000
0.237135 0.441934 0.000000
0.326482 0.441934 0.000000
0.441934 0.441934 0.000000
0.605188 0.441934 0.000000
0.821220 0.441934 0.000000
1.103840 0.441934 0.000000
1.000000 0.441934 0.000000
1.000000 0.441934 0.000000
1.000000 0.441934 0.000000
1.000000 0.441934 0.000000
1.000000 0.441934 0.000000
1.000000 0.441934 0.000000
1.000000 0.441934 0.000000
1.000000 0.441934 0.000000
1.000000 0.441934 0.000000
1.000000 0.441934 0.000000
1.000000 0.441934 0.000000
1.000000 0.441934 0.000000
1.000000 0.441934 0.000000
0.000000 0.605188 0.000000
0.000000 0.605188 0.000000
0.000000 0.605188 0.000000
0.002905 0.605188 0.000000
0.007161 0.605188 0.000000
0.012732 0.605188 0.000000
0.020524 0.605188 0.000000
0.031055 0.605188 0.000000
0.045044 0.605188 0.000000
0.064288 0.605188 0.000000
0.090246 0.605188 0.000000
0.125466 0.605188 0.000000
0.173288 0.605188 0.000000
0.237135 0.605188 0.000000
0.326482 0.605188 0.000000
0.441934 0.605188 0.000000
0.605188 0.605188 0.000000
0.821220 0.605188 0.000000
1.103840 0.605188 0.000000
1.000000 0.605188 0.000000
1.000000 0.605188 0.000000
1.000000 0.605188 0.000000
1.000000 0.605188 0.000000
1.000000 0.605188 0.000000
1.000000 0.605188 0.000000
1.000000 0.605188 0.000000
1.000000 0.605188 0.000000
1.000000 0.605188 0.000000
1.000000 0.605188 0.000000
1.000000 0.605188 0.000000
1.000000 0.605188 0.000000
1.000000 0.605188 0.000000
0.000000 0.821220 0.000000
0.000000 0.821220 0.000000
0.000000 0.821220 0.000000
0.002905 0.821220 0.000000
0.007161 0.821220 0.000000
0.012732 0.821220 0.000000
0.020524 0.821220 0.000000
0.031055 0.821220 0.000000
0.045044 0.821220 0.000000
0.064288 0.821220 0.000000
0.090246 0.821220 0.000000
0.125466 0.821220 0.000000
0.173288 0.821220 0.000000
0.237135 0.821220 0.000000
0.326482 0.821220 0.000000
0.441934 0.821220 0.000000
0.605188 0.821220 0.000000
0.821220 0.821220 0.000000
1.103840 0.821220 0.000000
1.000000 0.821220 0.000000
1.000000 0.821220 0.000000
1.000000 0.821220 0.000000
1.000000 0.821220 0.000000
1.000000 0.821220 0.000000
1.000000 0.821220 0.000000
1.000000 0.821220 0.000000
1.000000 0.821220 0.000000
1.000000 0.821220 0.000000
1.000000 0.821220 0.000000
1.000000 0.821220 0.000000
1.000000 0.821220 0.000000
1.000000 0.821220 0.000000
0.000000 1.103840 0.000000
0.000000 1.103840 0.000000
0.000000 1.103840 0.000000
0.002905 1.103840 0.000000
0.007161 1.103840 0.000000
0.012732 1.103840 0.000000
0.020524 1.103840 0.000000
0.031055 1.103840 0.000000
0.045044 1.103840 0.000000
0.064288 1.103840 0.000000
0.090246 1.103840 0.000000
0.125466 1.103840 0.000000
0.173288 1.103840 0.000000
0.237135 1.103840 0.000000
0.326482 1.103840 0.000000
0.441934 1.103840 0.000000
0.605188 1.103840 0.000000
0.821220 1.103840 0.000000
1.103840 1.103840 0.000000
1.000000 1.103840 0.000000
1.000000 1.103840 0.000000
1.000000 1.103840 0.000000
1.000000 1.103840 0.000000
1.000000 1.103840 0.000000
1.000000 1.103840 0.000000
1.000000 1.103840 0.000000
1.000000 1.103840 0.000000
1.000000 1.103840 0.000000
1.000000 1.103840 0.000000
1.000000 1.103840 0.000000
1.000000 1.103840 0.000000
1.000000 1.103840 0.000000
0.000000 1.000000 0.000000
0.000000 1.000000 0.000000
0.000000 1.000000 0.000000
0.002905 1.000000 0.000000
0.007161 1.000000 0.000000
0.012732 1.000000 0.000000
0.020524 1.000000 0.000000
0.031055 1.000000 0.000000
0.045044 1.000000 0.000000
0.064288 1.000000 0.000000
0.090246 1.000000 0.000000
0.125466 1.000000 0.000000
0.173288 1.000000 0.000000
0.237135 1.000000 0.000000
0.326482 1.000000 0.000000
0.441934 1.000000 0.000000
0.605188 1.000000 0.000000
0.821220 1.000000 0.000000
1.103840 1.000000 0.000000
1.000000 1.000000 0.000000
1.000000 1.000000 0.000000
1.000000 1.000000 0.000000
1.000000 1.000000 0.000000
1.000000 1.000000 0.000000
1.000000 1.000000 0.000000
1.000000 1.000000 0.000000
1.000000 1.000000 0.000000
1.000000 1.000000 0.000000
1.000000 1.000000 0.000000
1.000000 1.000000 0.000000
1.000000 1.000000 0.000000
1.000000 1.000000 0.000000
0.000000 1.000000 0.000000
0.000000 1.000000 0.000000
0.000000 1.000000 0.000000
0.002905 1.000000 0.000000
0.007161 1.000000 0.000000
0.012732 1.000000 0.000000
0.020524 1.000000 0.000000
0.031055 1.000000 0.000000
0.045044 1.000000 0.000000
0.064288 1.000000 0.000000
0.090246 1.000000 0.000000
0.125466 1.000000 0.000000
0.173288 1.000000 0.000000
0.237135 1.000000 0.000000
0.326482 1.000000 0.000000
0.441934 1.000000 0.000000
0.605188 1.000000 0.000000
0.821220 1.000000 0.000000
1.103840 1.000000 0.000000
1.000000 1.000000 0.000000
1.000000 1.000000 0.000000
1.000000 1.000000 0.000000
1.000000 1.000000 0.000000
1.000000 1.000000 0.000000
1.000000 1.000000 0.000000
1.000000 1.000000 0.000000
1.000000 1.000000 0.000000
1.000000 1.000000 0.000000
1.000000 1.000000 0.000000
1.000000 1.000000 0.000000
1.000000 1.000000 0.000000
1.000000 1.000000 0.000000
0.000000 1.000000 0.000000
0.000000 1.000000 0.000000
0.000000 1.000000 0.000000
0.002905 1.000000 0.000000
0.007161 1.000000 0.000000
0.012732 1.000000 0.000000
0.020524 1.000000 0.000000
0.031055 1.000000 0.000000
0.045044 1.000000 0.000000
0.064288 1.000000 0.000000
0.090246 1.000000 0.000000
0.125466 1.000000 0.000000
0.173288 1.000000 0.000000
0.237135 1.000000 0.000000
0.326482 1.000000 0.000000
0.441934 1.000000 0.000000
0.605188 1.000000 0.000000
0.821220 1.000000 0.000000
1.103840 1.000000 0.000000
1.000000 1.000000 0.000000
1.000000 1.000000 0.000000
1.000000 1.000000 0.000000
1.000000 1.000000 0.000000
1.000000 1.000000 0.000000
1.000000 1.000000 0.000000
1.000000 1.000000 0.000000
1.000000 1.000000 0.000000
1.000000 1.000000 0.000000
1.000000 1.000000 0.000000
1.000000 1.000000 0.000000
1.000000 1.000000 0.000000
1.000000 1.000000 0.000000
0.000000 1.000000 0.000000
0.000000 1.000000 0.000000
0.000000 1.000000 0.000000
0.002905 1.000000 0.000000
0.007161 1.000000 0.000000
0.012732 1.000000 0.000000
0.020524 1.000000 0.000000
0.031055 1.000000 0.000000
0.045044 1.000000 0.000000
0.064288 1.000000 0.000000
0.090246 1.000000 0.000000
0.125466 1.000000 0.000000
0.173288 1.000000 0.000000
0.237135 1.000000 0.000000
0.326482 1.000000 0.000000
0.441934 1.000000 0.000000
0.605188 1.000000 0.000000
0.821220 1.000000 0.000000
1.103840 1.000000 0.000000
1.000000 1.000000 0.000000
1.000000 1.000000 0.000000
1.000000 1.000000 0.000000
1.000000 1.000000 0.000000
1.000000 1.000000 0.000000
1.000000 1.000000 0.000000
1.000000 1.000000 0.000000
1.000000 1.000000 0.000000
1.000000 1.000000 0.000000
1.000000 1.000000 0.000000
1.000000 1.000000 0.000000
1.000000 1.000000 0.000000
1.000000 1.000000 0.000000
0.000000 1.000000 0.000000
0.000000 1.000000 0.000000
0.000000 1.000000 0.000000
0.002905 1.000000 0.000000
0.007161 1.000000 0.000000
0.012732 1.000000 0.000000
0.020524 1.000000 0.000000
0.031055 1.000000 0.000000
0.045044 1.000000 0.000000
0.064288 1.000000 0.000000
0.090246 1.000000 0.000000
0.125466 1.000000 0.000000
0.173288 1.000000 0.000000
0.237135 1.000000 0.000000
0.326482 1.000000 0.000000
0.441934 1.000000 0.000000
0.605188 1.000000 0.000000
0.821220 1.000000 0.000000
1.103840 1.000000 0.000000
1.000000 1.000000 0.000000
1.000000 1.000000 0.000000
1.000000 1.000000 0.000000
1.000000 1.000000 0.000000
1.000000 1.000000 0.000000
1.000000 1.000000 0.000000
1.000000 1.000000 0.000000
1.000000 1.000000 0.000000
1.000000 1.000000 0.000000
1.000000 1.000000 0.000000
1.000000 1.000000 0.000000
1.000000 1.000000 0.000000
1.000000 1.000000 0.000000
0.000000 1.000000 0.000000
0.000000 1.000000 0.000000
0.000000 1.000000 0.000000
0.002905 1.000000 0.000000
0.007161 1.000000 0.000000
0.012732 1.000000 0.000000
0.020524 1.000000 0.000000
0.031055 1.000000 0.000000
0.045044 1.000000 0.000000
0.064288 1.000000 0.000000
0.090246 1.000000 0.000000
0.125466 1.000000 0.000000
0.173288 1.000000 0.000000
0.237135 1.000000 0.000000
0.326482 1.000000 0.000000
0.441934 1.000000 0.000000
0.605188 1.000000 0.000000
0.821220 1.000000 0.000000
1.103840 1.000000 0.000000
1.000000 1.000000 0.000000
1.000000 1.000000 0.000000
1.000000 1.000000 0.000000
1.000000 1.000000 0.000000
1.000000 1.000000 0.000000
1.000000 1.000000 0.000000
1.000000 1.000000 0.000000
1.000000 1.000000 0.000000
1.000000 1.000000 0.000000
1.000000 1.000000 0.000000
1.000000 1.000000 0.000000
1.000000 1.000000 0.000000
1.000000 1.000000 0.000000
0.000000 1.000000 0.000000
0.000000 1.000000 0.000000
0.000000 1.000000 0.000000
0.002905 1.000000 0.000000
0.007161 1.000000 0.000000
0.012732 1.000000 0.000000
0.020524 1.000000 0.000000
0.031055 1.000000 0.000000
0.045044 1.000000 0.000000
0.064288 1.000000 0.000000
0.090246 1.000000 0.000000
0.125466 1.000000 0.000000
0.173288 1.000000 0.000000
0.237135 1.000000 0.000000
0.326482 1.000000 0.000000
0.441934 1.000000 0.000000
0.605188 1.000000 0.000000
0.821220 1.000000 0.000000
1.103840 1.000000 0.000000
1.000000 1.000000 0.000000
1.000000 1.000000 0.000000
1.000000 1.000000 0.000000
1.000000 1.000000 0.000000
1.000000 1.000000 0.000000
1.000000 1.000000 0.000000
1.000000 1.000000 0.000000
1.000000 1.000000 0.000000
1.000000 1.000000 0.000000
1.000000 1.000000 0.000000
1.000000 1.000000 0.000000
1.000000 1.000000 0.000000
1.000000 1.000000 0.000000
0.000000 1.000000 0.000000
0.000000 1.000000 0.000000
0.000000 1.000000 0.000000
0.002905 1.000000 0.000000
0.007161 1.000000 0.000000
0.012732 1.000000 0.000000
0.020524 1.000000 0.000000
0.031055 1.000000 0.000000
0.045044 1.000000 0.000000
0.064288 1.000000 0.000000
0.090246 1.000000 0.000000
0.125466 1.000000 0.000000
0.173288 1.000000 0.000000
0.237135 1.000000 0.000000
0.326482 1.000000 0.000000
0.441934 1.000000 0.000000
0.605188 1.000000 0.000000
0.821220 1.000000 0.000000
1.103840 1.000000 0.000000
1.000000 1.000000 0.000000
1.000000 1.000000 0.000000
1.000000 1.000000 0.000000
1.000000 1.000000 0.000000
1.000000 1.000000 0.000000
1.000000 1.000000 0.000000
1.000000 1.000000 0.000000
1.000000 1.000000 0.000000
1.000000 1.000000 0.000000
1.000000 1.000000 0.000000
1.000000 1.000000 0.000000
1.000000 1.000000 0.000000
1.000000 1.000000 0.000000
0.000000 1.000000 0.000000
0.000000 1.000000 0.000000
0.000000 1.000000 0.000000
0.002905 1.000000 0.000000
0.007161 1.000000 0.000000
0.012732 1.000000 0.000000
0.020524 1.000000 0.000000
0.031055 1.000000 0.000000
0.045044 1.000000 0.000000
0.064288 1.000000 0.000000
0.090246 1.000000 0.000000
0.125466 1.000000 0.000000
0.173288 1.000000 0.000000
0.237135 1.000000 0.000000
0.326482 1.000000 0.000000
0.441934 1.000000 0.000000
0.605188 1.000000 0.000000
0.821220 1.000000 0.000000
1.103840 1.000000 0.000000
1.000000 1.000000 0.000000
1.000000 1.000000 0.000000
