tests/cube/linear.cube
TITLE "cube/linear.cube"
LUT_3D_SIZE 32
DOMAIN_MIN 0.0 0.0 0.0
DOMAIN_MAX 1.0 1.0 1.0
0.000000 0.000000 0.000000
0.000000 0.000000 0.000000
0.000005 0.000000 0.000000
0.000053 0.000000 0.000000
0.000124 0.000000 0.000000
0.000220 0.000000 0.000000
0.000351 0.000000 0.000000
0.000529 0.000000 0.000000
0.000770 0.000000 0.000000
0.001096 0.000000 0.000000
0.001540 0.000000 0.000000
0.002139 0.000000 0.000000
0.002956 0.000000 0.000000
0.004053 0.000000 0.000000
0.005563 0.000000 0.000000
0.007565 0.000000 0.000000
0.010350 0.000000 0.000000
0.014028 0.000000 0.000000
0.019142 0.000000 0.000000
0.025919 0.000000 0.000000
0.035240 0.000000 0.000000
0.047802 0.000000 0.000000
0.064826 0.000000 0.000000
0.088146 0.000000 0.000000
0.119038 0.000000 0.000000
0.162095 0.000000 0.000000
0.218843 0.000000 0.000000
0.297924 0.000000 0.000000
0.403031 0.000000 0.000000
0.545929 0.000000 0.000000
0.741396 0.000000 0.000000
1.000000 0.000000 0.000000
0.000000 0.000000 0.000000
0.000000 0.000000 0.000000
0.000005 0.000000 0.000000
0.000053 0.000000 0.000000
0.000124 0.000000 0.000000
0.000220 0.000000 0.000000
0.000351 0.000000 0.000000
0.000529 0.000000 0.000000
0.000770 0.000000 0.000000
0.001096 0.000000 0.000000
0.001540 0.000000 0.000000
0.002139 0.000000 0.000000
0.002956 0.000000 0.000000
0.004053 0.000000 0.000000
0.005563 0.000000 0.000000
0.007565 0.000000 0.000000
0.010350 0.000000 0.000000
0.014028 0.000000 0.000000
0.019142 0.000000 0.000000
0.025919 0.000000 0.000000
0.035240 0.000000 0.000000
0.047802 0.000000 0.000000
0.064826 0.000000 0.000000
0.088146 0.000000 0.000000
0.119038 0.000000 0.000000
0.162095 0.000000 0.000000
0.218843 0.000000 0.000000
0.297924 0.000000 0.000000
0.403031 0.000000 0.000000
0.545929 0.000000 0.000000
0.741396 0.000000 0.000000
1.000000 0.000000 0.000000
0.000000 0.000005 0.000000
0.000000 0.000005 0.000000
0.000005 0.000005 0.000000
0.000053 0.000005 0.000000
0.000124 0.000005 0.000000
0.000220 0.000005 0.000000
0.000351 0.000005 0.000000
0.000529 0.000005 0.000000
0.000770 0.000005 0.000000
0.001096 0.000005 0.000000
0.001540 0.000005 0.000000
0.002139 0.000005 0.000000
0.002956 0.000005 0.000000
0.004053 0.000005 0.000000
0.005563 0.000005 0.000000
0.007565 0.000005 0.000000
0.010350 0.000005 0.000000
0.014028 0.000005 0.000000
0.019142 0.000005 0.000000
0.025919 0.000005 0.000000
0.035240 0.000005 0.000000
0.047802 0.000005 0.000000
0.064826 0.000005 0.000000
0.088146 0.000005 0.000000
0.119038 0.000005 0.000000
0.162095 0.000005 0.000000
0.218843 0.000005 0.000000
0.297924 0.000005 0.000000
0.403031 0.000005 0.000000
0.545929 0.000005 0.000000
0.741396 0.000005 0.000000
1.000000 0.000005 0.000000
0.000000 0.000053 0.000000
0.000000 0.000053 0.000000
0.000005 0.000053 0.000000
0.000053 0.000053 0.000000
0.000124 0.000053 0.000000
0.000220 0.000053 0.000000
0.000351 0.000053 0.000000
0.000529 0.000053 0.000000
0.000770 0.000053 0.000000
0.001096 0.000053 0.000000
0.001540 0.000053 0.000000
0.002139 0.000053 0.000000
0.002956 0.000053 0.000000
0.004053 0.000053 0.000000
0.005563 0.000053 0.000000
0.007565 0.000053 0.000000
0.010350 0.000053 0.000000
0.014028 0.000053 0.000000
0.019142 0.000053 0.000000
0.025919 0.000053 0.000000
0.035240 0.000053 0.000000
0.047802 0.000053 0.000000
0.064826 0.000053 0.000000
0.088146 0.000053 0.000000
0.119038 0.000053 0.000000
0.162095 0.000053 0.000000
0.218843 0.000053 0.000000
0.297924 0.000053 0.000000
0.403031 0.000053 0.000000
0.545929 0.000053 0.000000
0.741396 0.000053 0.000000
1.000000 0.000053 0.000000
0.000000 0.000124 0.000000
0.000000 0.000124 0.000000
0.000005 0.000124 0.000000
0.000053 0.000124 0.000000
0.000124 0.000124 0.000000
0.000220 0.000124 0.000000
0.000351 0.000124 0.000000
0.000529 0.000124 0.000000
0.000770 0.000124 0.000000
0.001096 0.000124 0.000000
0.001540 0.000124 0.000000
0.002139 0.000124 0.000000
0.002956 0.000124 0.000000
0.004053 0.000124 0.000000
0.005563 0.000124 0.000000
0.007565 0.000124 0.000000
0.010350 0.000124 0.000000
0.014028 0.000124 0.000000
0.019142 0.000124 0.000000
0.025919 0.000124 0.000000
0.035240 0.000124 0.000000
0.047802 0.000124 0.000000
0.064826 0.000124 0.000000
0.088146 0.000124 0.000000
0.119038 0.000124 0.000000
0.162095 0.000124 0.000000
0.218843 0.000124 0.000000
0.297924 0.000124 0.000000
0.403031 0.000124 0.000000
0.545929 0.000124 0.000000
0.741396 0.000124 0.000000
1.000000 0.000124 0.000000
0.000000 0.000220 0.000000
0.000000 0.000220 0.000000
0.000005 0.000220 0.000000
0.000053 0.000220 0.000000
0.000124 0.000220 0.000000
0.000220 0.000220 0.000000
0.000351 0.000220 0.000000
0.000529 0.000220 0.000000
0.000770 0.000220 0.000000
0.001096 0.000220 0.000000
0.001540 0.000220 0.000000
0.002139 0.000220 0.000000
0.002956 0.000220 0.000000
0.004053 0.000220 0.000000
0.005563 0.000220 0.000000
0.007565 0.000220 0.000000
0.010350 0.000220 0.000000
0.014028 0.000220 0.000000
0.019142 0.000220 0.000000
0.025919 0.000220 0.000000
0.035240 0.000220 0.000000
0.047802 0.000220 0.000000
0.064826 0.000220 0.000000
0.088146 0.000220 0.000000
0.119038 0.000220 0.000000
0.162095 0.000220 0.000000
0.218843 0.000220 0.000000
0.297924 0.000220 0.000000
0.403031 0.000220 0.000000
0.545929 0.000220 0.000000
0.741396 0.000220 0.000000
1.000000 0.000220 0.000000
0.000000 0.000351 0.000000
0.000000 0.000351 0.000000
0.000005 0.000351 0.000000
0.000053 0.000351 0.000000
0.000124 0.000351 0.000000
0.000220 0.000351 0.000000
0.000351 0.000351 0.000000
0.000529 0.000351 0.000000
0.000770 0.000351 0.000000
0.001096 0.000351 0.000000
0.001540 0.000351 0.000000
0.002139 0.000351 0.000000
0.002956 0.000351 0.000000
0.004053 0.000351 0.000000
0.005563 0.000351 0.000000
0.007565 0.000351 0.000000
0.010350 0.000351 0.000000
0.014028 0.000351 0.000000
0.019142 0.000351 0.000000
0.025919 0.000351 0.000000
0.035240 0.000351 0.000000
0.047802 0.000351 0.000000
0.064826 0.000351 0.000000
0.088146 0.000351 0.000000
0.119038 0.000351 0.000000
0.162095 0.000351 0.000000
0.218843 0.000351 0.000000
0.297924 0.000351 0.000000
0.403031 0.000351 0.000000
0.545929 0.000351 0.000000
0.741396 0.000351 0.000000
1.000000 0.000351 0.000000
0.000000 0.000529 0.000000
0.000000 0.000529 0.000000
0.000005 0.000529 0.000000
0.000053 0.000529 0.000000
0.000124 0.000529 0.000000
0.000220 0.000529 0.000000
0.000351 0.000529 0.000000
0.000529 0.000529 0.000000
0.000770 0.000529 0.000000
0.001096 0.000529 0.000000
0.001540 0.000529 0.000000
0.002139 0.000529 0.000000
0.002956 0.000529 0.000000
0.004053 0.000529 0.000000
0.005563 0.000529 0.000000
0.007565 0.000529 0.000000
0.010350 0.000529 0.000000
0.014028 0.000529 0.000000
0.019142 0.000529 0.000000
0.025919 0.000529 0.000000
0.035240 0.000529 0.000000
0.047802 0.000529 0.000000
0.064826 0.000529 0.000000
0.088146 0.000529 0.000000
0.119038 0.000529 0.000000
0.162095 0.000529 0.000000
0.218843 0.000529 0.000000
0.297924 0.000529 0.000000
0.403031 0.000529 0.000000
0.545929 0.000529 0.000000
0.741396 0.000529 0.000000
1.000000 0.000529 0.000000
0.000000 0.000770 0.000000
0.000000 0.000770 0.000000
0.000005 0.000770 0.000000
0.000053 0.000770 0.000000
0.000124 0.000770 0.000000
0.000220 0.000770 0.000000
0.000351 0.000770 0.000000
0.000529 0.000770 0.000000
0.000770 0.000770 0.000000
0.001096 0.000770 0.000000
0.001540 0.000770 0.000000
0.002139 0.000770 0.000000
0.002956 0.000770 0.000000
0.004053 0.000770 0.000000
0.005563 0.000770 0.000000
0.007565 0.000770 0.000000
0.010350 0.000770 0.000000
0.014028 0.000770 0.000000
0.019142 0.000770 0.000000
0.025919 0.000770 0.000000
0.035240 0.000770 0.000000
0.047802 0.000770 0.000000
0.064826 0.000770 0.000000
0.088146 0.000770 0.000000
0.119038 0.000770 0.000000
0.162095 0.000770 0.000000
0.218843 0.000770 0.000000
0.297924 0.000770 0.000000
0.403031 0.000770 0.000000
0.545929 0.000770 0.000000
0.741396 0.000770 0.000000
1.000000 0.000770 0.000000
0.000000 0.001096 0.000000
0.000000 0.001096 0.000000
0.000005 0.001096 0.000000
0.000053 0.001096 0.000000
0.000124 0.001096 0.000000
0.000220 0.001096 0.000000
0.000351 0.001096 0.000000
0.000529 0.001096 0.000000
0.000770 0.001096 0.000000
0.001096 0.001096 0.000000
0.001540 0.001096 0.000000
0.002139 0.001096 0.000000
0.002956 0.001096 0.000000
0.004053 0.001096 0.000000
0.005563 0.001096 0.000000
0.007565 0.001096 0.000000
0.010350 0.001096 0.000000
0.014028 0.001096 0.000000
0.019142 0.001096 0.000000
0.025919 0.001096 0.000000
0.035240 0.001096 0.000000
0.047802 0.001096 0.000000
0.064826 0.001096 0.000000
0.088146 0.001096 0.000000
0.119038 0.001096 0.000000
0.162095 0.001096 0.000000
0.218843 0.001096 0.000000
0.297924 0.001096 0.000000
0.403031 0.001096 0.000000
0.545929 0.001096 0.000000
0.741396 0.001096 0.000000
1.000000 0.001096 0.000000
0.000000 0.001540 0.000000
0.000000 0.001540 0.000000
0.000005 0.001540 0.000000
0.000053 0.001540 0.000000
0.000124 0.001540 0.000000
0.000220 0.001540 0.000000
0.000351 0.001540 0.000000
0.000529 0.001540 0.000000
0.000770 0.001540 0.000000
0.001096 0.001540 0.000000
0.001540 0.001540 0.000000
0.002139 0.001540 0.000000
0.002956 0.001540 0.000000
0.004053 0.001540 0.000000
0.005563 0.001540 0.000000
0.007565 0.001540 0.000000
0.010350 0.001540 0.000000
0.014028 0.001540 0.000000
0.019142 0.001540 0.000000
0.025919 0.001540 0.000000
0.035240 0.001540 0.000000
0.047802 0.001540 0.000000
0.064826 0.001540 0.000000
0.088146 0.001540 0.000000
0.119038 0.001540 0.000000
0.162095 0.001540 0.000000
0.218843 0.001540 0.000000
0.297924 0.001540 0.000000
0.403031 0.001540 0.000000
0.545929 0.001540 0.000000
0.741396 0.001540 0.000000
1.000000 0.001540 0.000000
0.000000 0.002139 0.000000
0.000000 0.002139 0.000000
0.000005 0.002139 0.000000
0.000053 0.002139 0.000000
0.000124 0.002139 0.000000
0.000220 0.002139 0.000000
0.000351 0.002139 0.000000
0.000529 0.002139 0.000000
0.000770 0.002139 0.000000
0.001096 0.002139 0.000000
0.001540 0.002139 0.000000
0.002139 0.002139 0.000000
0.002956 0.002139 0.000000
0.004053 0.002139 0.000000
0.005563 0.002139 0.000000
0.007565 0.002139 0.000000
0.010350 0.002139 0.000000
0.014028 0.002139 0.000000
0.019142 0.002139 0.000000
0.025919 0.002139 0.000000
0.035240 0.002139 0.000000
0.047802 0.002139 0.000000
0.064826 0.002139 0.000000
0.088146 0.002139 0.000000
0.119038 0.002139 0.000000
0.162095 0.002139 0.000000
0.218843 0.002139 0.000000
0.297924 0.002139 0.000000
0.403031 0.002139 0.000000
0.545929 0.002139 0.000000
0.741396 0.002139 0.000000
1.000000 0.002139 0.000000
0.000000 0.002956 0.000000
0.000000 0.002956 0.000000
0.000005 0.002956 0.000000
0.000053 0.002956 0.000000
0.000124 0.002956 0.000000
0.000220 0.002956 0.000000
0.000351 0.002956 0.000000
0.000529 0.002956 0.000000
0.000770 0.002956 0.000000
0.001096 0.002956 0.000000
0.001540 0.002956 0.000000
0.002139 0.002956 0.000000
0.002956 0.002956 0.000000
0.004053 0.002956 0.000000
0.005563 0.002956 0.000000
0.007565 0.002956 0.000000
0.010350 0.002956 0.000000
0.014028 0.002956 0.000000
0.019142 0.002956 0.000000
0.025919 0.002956 0.000000
0.035240 0.002956 0.000000
0.047802 0.002956 0.000000
0.064826 0.002956 0.000000
0.088146 0.002956 0.000000
0.119038 0.002956 0.000000
0.162095 0.002956 0.000000
0.218843 0.002956 0.000000
0.297924 0.002956 0.000000
0.403031 0.002956 0.000000
0.545929 0.002956 0.000000
0.741396 0.002956 0.000000
1.000000 0.002956 0.000000
0.000000 0.004053 0.000000
0.000000 0.004053 0.000000
0.000005 0.004053 0.000000
0.000053 0.004053 0.000000
0.000124 0.004053 0.000000
0.000220 0.004053 0.000000
0.000351 0.004053 0.000000
0.000529 0.004053 0.000000
0.000770 0.004053 0.000000
0.001096 0.004053 0.000000
0.001540 0.004053 0.000000
0.002139 0.004053 0.000000
0.002956 0.004053 0.000000
0.004053 0.004053 0.000000
0.005563 0.004053 0.000000
0.007565 0.004053 0.000000
0.010350 0.004053 0.000000
0.014028 0.004053 0.000000
0.019142 0.004053 0.000000
0.025919 0.004053 0.000000
0.035240 0.004053 0.000000
0.047802 0.004053 0.000000
0.064826 0.004053 0.000000
0.088146 0.004053 0.000000
0.119038 0.004053 0.000000
0.162095 0.004053 0.000000
0.218843 0.004053 0.000000
0.297924 0.004053 0.000000
0.403031 0.004053 0.000000
0.545929 0.004053 0.000000
0.741396 0.004053 0.000000
1.000000 0.004053 0.000000
0.000000 0.005563 0.000000
0.000000 0.005563 0.000000
0.000005 0.005563 0.000000
0.000053 0.005563 0.000000
0.000124 0.005563 0.000000
0.000220 0.005563 0.000000
0.000351 0.005563 0.000000
0.000529 0.005563 0.000000
0.000770 0.005563 0.000000
0.001096 0.005563 0.000000
0.001540 0.005563 0.000000
0.002139 0.005563 0.000000
0.002956 0.005563 0.000000
0.004053 0.005563 0.000000
0.005563 0.005563 0.000000
0.007565 0.005563 0.000000
0.010350 0.005563 0.000000
0.014028 0.005563 0.000000
0.019142 0.005563 0.000000
0.025919 0.005563 0.000000
0.035240 0.005563 0.000000
0.047802 0.005563 0.000000
0.064826 0.005563 0.000000
0.088146 0.005563 0.000000
0.119038 0.005563 0.000000
0.162095 0.005563 0.000000
0.218843 0.005563 0.000000
0.297924 0.005563 0.000000
0.403031 0.005563 0.000000
0.545929 0.005563 0.000000
0.741396 0.005563 0.000000
1.000000 0.005563 0.000000
0.000000 0.007565 0.000000
0.000000 0.007565 0.000000
0.000005 0.007565 0.000000
0.000053 0.007565 0.000000
0.000124 0.007565 0.000000
0.000220 0.007565 0.000000
0.000351 0.007565 0.000000
0.000529 0.007565 0.000000
0.000770 0.007565 0.000000
0.001096 0.007565 0.000000
0.001540 0.007565 0.000000
0.002139 0.007565 0.000000
0.002956 0.007565 0.000000
0.004053 0.007565 0.000000
0.005563 0.007565 0.000000
0.007565 0.007565 0.000000
0.010350 0.007565 0.000000
0.014028 0.007565 0.000000
0.019142 0.007565 0.000000
0.025919 0.007565 0.000000
0.035240 0.007565 0.000000
0.047802 0.007565 0.000000
0.064826 0.007565 0.000000
0.088146 0.007565 0.000000
0.119038 0.007565 0.000000
0.162095 0.007565 0.000000
0.218843 0.007565 0.000000
0.297924 0.007565 0.000000
0.403031 0.007565 0.000000
0.545929 0.007565 0.000000
0.741396 0.007565 0.000000
1.000000 0.007565 0.000000
0.000000 0.010350 0.000000
0.000000 0.010350 0.000000
0.000005 0.010350 0.000000
0.000053 0.010350 0.000000
0.000124 0.010350 0.000000
0.000220 0.010350 0.000000
0.000351 0.010350 0.000000
0.000529 0.010350 0.000000
0.000770 0.010350 0.000000
0.001096 0.010350 0.000000
0.001540 0.010350 0.000000
0.002139 0.010350 0.000000
0.002956 0.010350 0.000000
0.004053 0.010350 0.000000
0.005563 0.010350 0.000000
0.007565 0.010350 0.000000
0.010350 0.010350 0.000000
0.014028 0.010350 0.000000
0.019142 0.010350 0.000000
0.025919 0.010350 0.000000
0.035240 0.010350 0.000000
0.047802 0.010350 0.000000
0.064826 0.010350 0.000000
0.088146 0.010350 0.000000
0.119038 0.010350 0.000000
0.162095 0.010350 0.000000
0.218843 0.010350 0.000000
0.297924 0.010350 0.000000
0.403031 0.010350 0.000000
0.545929 0.010350 0.000000
0.741396 0.010350 0.000000
1.000000 0.010350 0.000000
0.000000 0.014028 0.000000
0.000000 0.014028 0.000000
0.000005 0.014028 0.000000
0.000053 0.014028 0.000000
0.000124 0.014028 0.000000
0.000220 0.014028 0.000000
0.000351 0.014028 0.000000
0.000529 0.014028 0.000000
0.000770 0.014028 0.000000
0.001096 0.014028 0.000000
0.001540 0.014028 0.000000
0.002139 0.014028 0.000000
0.002956 0.014028 0.000000
0.004053 0.014028 0.000000
0.005563 0.014028 0.000000
0.007565 0.014028 0.000000
0.010350 0.014028 0.000000
0.014028 0.014028 0.000000
0.019142 0.014028 0.000000
0.025919 0.014028 0.000000
0.035240 0.014028 0.000000
0.047802 0.014028 0.000000
0.064826 0.014028 0.000000
0.088146 0.014028 0.000000
0.119038 0.014028 0.000000
0.162095 0.014028 0.000000
0.218843 0.014028 0.000000
0.297924 0.014028 0.000000
0.403031 0.014028 0.000000
0.545929 0.014028 0.000000
0.741396 0.014028 0.000000
1.000000 0.014028 0.000000
0.000000 0.019142 0.000000
0.000000 0.019142 0.000000
0.000005 0.019142 0.000000
0.000053 0.019142 0.000000
0.000124 0.019142 0.000000
0.000220 0.019142 0.000000
0.000351 0.019142 0.000000
0.000529 0.019142 0.000000
0.000770 0.019142 0.000000
0.001096 0.019142 0.000000
0.001540 0.019142 0.000000
0.002139 0.019142 0.000000
0.002956 0.019142 0.000000
0.004053 0.019142 0.000000
0.005563 0.019142 0.000000
0.007565 0.019142 0.000000
0.010350 0.019142 0.000000
0.014028 0.019142 0.000000
0.019142 0.019142 0.000000
0.025919 0.019142 0.000000
0.035240 0.019142 0.000000
0.047802 0.019142 0.000000
0.064826 0.019142 0.000000
0.088146 0.019142 0.000000
0.119038 0.019142 0.000000
0.162095 0.019142 0.000000
0.218843 0.019142 0.000000
0.297924 0.019142 0.000000
0.403031 0.019142 0.000000
0.545929 0.019142 0.000000
0.741396 0.019142 0.000000
1.000000 0.019142 0.000000
0.000000 0.025919 0.000000
0.000000 0.025919 0.000000
0.000005 0.025919 0.000000
0.000053 0.025919 0.000000
0.000124 0.025919 0.000000
0.000220 0.025919 0.000000
0.000351 0.025919 0.000000
0.000529 0.025919 0.000000
0.000770 0.025919 0.000000
0.001096 0.025919 0.000000
0.001540 0.025919 0.000000
0.002139 0.025919 0.000000
0.002956 0.025919 0.000000
0.004053 0.025919 0.000000
0.005563 0.025919 0.000000
0.007565 0.025919 0.000000
0.010350 0.025919 0.000000
0.014028 0.025919 0.000000
0.019142 0.025919 0.000000
0.025919 0.025919 0.000000
0.035240 0.025919 0.000000
0.047802 0.025919 0.000000
0.064826 0.025919 0.000000
0.088146 0.025919 0.000000
0.119038 0.025919 0.000000
0.162095 0.025919 0.000000
0.218843 0.025919 0.000000
0.297924 0.025919 0.000000
0.403031 0.025919 0.000000
0.545929 0.025919 0.000000
0.741396 0.025919 0.000000
1.000000 0.025919 0.000000
0.000000 0.035240 0.000000
0.000000 0.035240 0.000000
0.000005 0.035240 0.000000
0.000053 0.035240 0.000000
0.000124 0.035240 0.000000
0.000220 0.035240 0.000000
0.000351 0.035240 0.000000
0.000529 0.035240 0.000000
0.000770 0.035240 0.000000
0.001096 0.035240 0.000000
0.001540 0.035240 0.000000
0.002139 0.035240 0.000000
0.002956 0.035240 0.000000
0.004053 0.035240 0.000000
0.005563 0.035240 0.000000
0.007565 0.035240 0.000000
0.010350 0.035240 0.000000
0.014028 0.035240 0.000000
0.019142 0.035240 0.000000
0.025919 0.035240 0.000000
0.035240 0.035240 0.000000
0.047802 0.035240 0.000000
0.064826 0.035240 0.000000
0.088146 0.035240 0.000000
0.119038 0.035240 0.000000
0.162095 0.035240 0.000000
0.218843 0.035240 0.000000
0.297924 0.035240 0.000000
0.403031 0.035240 0.000000
0.545929 0.035240 0.000000
0.741396 0.035240 0.000000
1.000000 0.035240 0.000000
0.000000 0.047802 0.000000
0.000000 0.047802 0.000000
0.000005 0.047802 0.000000
0.000053 0.047802 0.000000
0.000124 0.047802 0.000000
0.000220 0.047802 0.000000
0.000351 0.047802 0.000000
0.000529 0.047802 0.000000
0.000770 0.047802 0.000000
0.001096 0.047802 0.000000
0.001540 0.047802 0.000000
0.002139 0.047802 0.000000
0.002956 0.047802 0.000000
0.004053 0.047802 0.000000
0.005563 0.047802 0.000000
0.007565 0.047802 0.000000
0.010350 0.047802 0.000000
0.014028 0.047802 0.000000
0.019142 0.047802 0.000000
0.025919 0.047802 0.000000
0.035240 0.047802 0.000000
0.047802 0.047802 0.000000
0.064826 0.047802 0.000000
0.088146 0.047802 0.000000
0.119038 0.047802 0.000000
0.162095 0.047802 0.000000
0.218843 0.047802 0.000000
0.297924 0.047802 0.000000
0.403031 0.047802 0.000000
0.545929 0.047802 0.000000
0.741396 0.047802 0.000000
1.000000 0.047802 0.000000
0.000000 0.064826 0.000000
0.000000 0.064826 0.000000
0.000005 0.064826 0.000000
0.000053 0.064826 0.000000
0.000124 0.064826 0.000000
0.000220 0.064826 0.000000
0.000351 0.064826 0.000000
0.000529 0.064826 0.000000
0.000770 0.064826 0.000000
0.001096 0.064826 0.000000
0.001540 0.064826 0.000000
0.002139 0.064826 0.000000
0.002956 0.064826 0.000000
0.004053 0.064826 0.000000
0.005563 0.064826 0.000000
0.007565 0.064826 0.000000
0.010350 0.064826 0.000000
0.014028 0.064826 0.000000
0.019142 0.064826 0.000000
0.025919 0.064826 0.000000
0.035240 0.064826 0.000000
0.047802 0.064826 0.000000
0.064826 0.064826 0.000000
0.088146 0.064826 0.000000
0.119038 0.064826 0.000000
0.162095 0.064826 0.000000
0.218843 0.064826 0.000000
0.297924 0.064826 0.000000
0.403031 0.064826 0.000000
0.545929 0.064826 0.000000
0.741396 0.064826 0.000000
1.000000 0.064826 0.000000
0.000000 0.088146 0.000000
0.000000 0.088146 0.000000
0.000005 0.088146 0.000000
0.000053 0.088146 0.000000
0.000124 0.088146 0.000000
0.000220 0.088146 0.000000
0.000351 0.088146 0.000000
0.000529 0.088146 0.000000
0.000770 0.088146 0.000000
0.001096 0.088146 0.000000
0.001540 0.088146 0.000000
0.002139 0.088146 0.000000
0.002956 0.088146 0.000000
0.004053 0.088146 0.000000
0.005563 0.088146 0.000000
0.007565 0.088146 0.000000
0.010350 0.088146 0.000000
0.014028 0.088146 0.000000
0.019142 0.088146 0.000000
0.025919 0.088146 0.000000
0.035240 0.088146 0.000000
0.047802 0.088146 0.000000
0.064826 0.088146 0.000000
0.088146 0.088146 0.000000
0.119038 0.088146 0.000000
0.162095 0.088146 0.000000
0.218843 0.088146 0.000000
0.297924 0.088146 0.000000
0.403031 0.088146 0.000000
0.545929 0.088146 0.000000
0.741396 0.088146 0.000000
1.000000 0.088146 0.000000
0.000000 0.119038 0.000000
0.000000 0.119038 0.000000
0.000005 0.119038 0.000000
0.000053 0.119038 0.000000
0.000124 0.119038 0.000000
0.000220 0.119038 0.000000
0.000351 0.119038 0.000000
0.000529 0.119038 0.000000
0.000770 0.119038 0.000000
0.001096 0.119038 0.000000
0.001540 0.119038 0.000000
0.002139 0.119038 0.000000
0.002956 0.119038 0.000000
0.004053 0.119038 0.000000
0.005563 0.119038 0.000000
0.007565 0.119038 0.000000
0.010350 0.119038 0.000000
0.014028 0.119038 0.000000
0.019142 0.119038 0.000000
0.025919 0.119038 0.000000
0.035240 0.119038 0.000000
0.047802 0.119038 0.000000
0.064826 0.119038 0.000000
0.088146 0.119038 0.000000
0.119038 0.119038 0.000000
0.162095 0.119038 0.000000
0.218843 0.119038 0.000000
0.297924 0.119038 0.000000
0.403031 0.119038 0.000000
0.545929 0.119038 0.000000
0.741396 0.119038 0.000000
1.000000 0.119038 0.000000
0.000000 0.162095 0.000000
0.000000 0.162095 0.000000
0.000005 0.162095 0.000000
0.000053 0.162095 0.000000
0.000124 0.162095 0.000000
0.000220 0.162095 0.000000
0.000351 0.162095 0.000000
0.000529 0.162095 0.000000
0.000770 0.162095 0.000000
0.001096 0.162095 0.000000
0.001540 0.162095 0.000000
0.002139 0.162095 0.000000
0.002956 0.162095 0.000000
0.004053 0.162095 0.000000
0.005563 0.162095 0.000000
0.007565 0.162095 0.000000
0.010350 0.162095 0.000000
0.014028 0.162095 0.000000
0.019142 0.162095 0.000000
0.025919 0.162095 0.000000
0.035240 0.162095 0.000000
0.047802 0.162095 0.000000
0.064826 0.162095 0.000000
0.088146 0.162095 0.000000
0.119038 0.162095 0.000000
0.162095 0.162095 0.000000
0.218843 0.162095 0.000000
0.297924 0.162095 0.000000
0.403031 0.162095 0.000000
0.545929 0.162095 0.000000
0.741396 0.162095 0.000000
1.000000 0.162095 0.000000
0.000000 0.218843 0.000000
0.000000 0.218843 0.000000
0.000005 0.218843 0.000000
0.000053 0.218843 0.000000
0.000124 0.218843 0.000000
0.000220 0.218843 0.000000
0.000351 0.218843 0.000000
0.000529 0.218843 0.000000
0.000770 0.218843 0.000000
0.001096 0.218843 0.000000
0.001540 0.218843 0.000000
0.002139 0.218843 0.000000
0.002956 0.218843 0.000000
0.004053 0.218843 0.000000
0.005563 0.218843 0.000000
0.007565 0.218843 0.000000
0.010350 0.218843 0.000000
0.014028 0.218843 0.000000
0.019142 0.218843 0.000000
0.025919 0.218843 0.000000
0.035240 0.218843 0.000000
0.047802 0.218843 0.000000
0.064826 0.218843 0.000000
0.088146 0.218843 0.000000
0.119038 0.218843 0.000000
0.162095 0.218843 0.000000
0.218843 0.218843 0.000000
0.297924 0.218843 0.000000
0.403031 0.218843 0.000000
0.545929 0.218843 0.000000
0.741396 0.218843 0.000000
1.000000 0.218843 0.000000
0.000000 0.297924 0.000000
0.000000 0.297924 0.000000
0.000005 0.297924 0.000000
0.000053 0.297924 0.000000
0.000124 0.297924 0.000000
0.000220 0.297924 0.000000
0.000351 0.297924 0.000000
0.000529 0.297924 0.000000
0.000770 0.297924 0.000000
0.001096 0.297924 0.000000
0.001540 0.297924 0.000000
0.002139 0.297924 0.000000
0.002956 0.297924 0.000000
0.004053 0.297924 0.000000
0.005563 0.297924 0.000000
0.007565 0.297924 0.000000
0.010350 0.297924 0.000000
0.014028 0.297924 0.000000
0.019142 0.297924 0.000000
0.025919 0.297924 0.000000
0.035240 0.297924 0.000000
