tests/cube/linear_max1.cube
TITLE "cube/linear_max1.cube"
LUT_3D_SIZE 8
DOMAIN_MIN 0.000000 0.000000 0.000000
DOMAIN_MAX 0.903226 0.903226 0.903226
0.000000 0.000000 0.000000
0.007161 0.000000 0.000000
0.045044 0.000000 0.000000
0.173288 0.000000 0.000000
0.605188 0.000000 0.000000
1.000000 0.000000 0.000000
1.000000 0.000000 0.000000
1.000000 0.000000 0.000000
0.000000 0.007161 0.000000
0.007161 0.007161 0.000000
0.045044 0.007161 0.000000
0.173288 0.007161 0.000000
0.605188 0.007161 0.000000
1.000000 0.007161 0.000000
1.000000 0.007161 0.000000
1.000000 0.007161 0.000000
0.000000 0.045044 0.000000
0.007161 0.045044 0.000000
0.045044 0.045044 0.000000
0.173288 0.045044 0.000000
0.605188 0.045044 0.000000
1.000000 0.045044 0.000000
1.000000 0.045044 0.000000
1.000000 0.045044 0.000000
0.000000 0.173288 0.000000
0.007161 0.173288 0.000000
0.045044 0.173288 0.000000
0.173288 0.173288 0.000000
0.605188 0.173288 0.000000
1.000000 0.173288 0.000000
1.000000 0.173288 0.000000
1.000000 0.173288 0.000000
0.000000 0.605188 0.000000
0.007161 0.605188 0.000000
0.045044 0.605188 0.000000
0.173288 0.605188 0.000000
0.605188 0.605188 0.000000
1.000000 0.605188 0.000000
1.000000 0.605188 0.000000
1.000000 0.605188 0.000000
0.000000 1.000000 0.000000
0.007161 1.000000 0.000000
0.045044 1.000000 0.000000
0.173288 1.000000 0.000000
0.605188 1.000000 0.000000
1.000000 1.000000 0.000000
1.000000 1.000000 0.000000
1.000000 1.000000 0.000000
0.000000 1.000000 0.000000
0.007161 1.000000 0.000000
0.045044 1.000000 0.000000
0.173288 1.000000 0.000000
0.605188 1.000000 0.000000
1.000000 1.000000 0.000000
1.000000 1.000000 0.000000
1.000000 1.000000 0.000000
0.000000 1.000000 0.000000
0.007161 1.000000 0.000000
0.045044 1.000000 0.000000
0.173288 1.000000 0.000000
0.605188 1.000000 0.000000
1.000000 1.000000 0.000000
1.000000 1.000000 0.000000
1.000000 1.000000 0.000000
0.000000 0.000000 0.007161
0.007161 0.000000 0.007161
0.045044 0.000000 0.007161
0.173288 0.000000 0.007161
0.605188 0.000000 0.007161
1.000000 0.000000 0.007161
1.000000 0.000000 0.007161
1.000000 0.000000 0.007161
0.000000 0.007161 0.007161
0.007161 0.007161 0.007161
0.045044 0.007161 0.007161
0.173288 0.007161 0.007161
0.605188 0.007161 0.007161
1.000000 0.007161 0.007161
1.000000 0.007161 0.007161
1.000000 0.007161 0.007161
0.000000 0.045044 0.007161
0.007161 0.045044 0.007161
0.045044 0.045044 0.007161
0.173288 0.045044 0.007161
0.605188 0.045044 0.007161
1.000000 0.045044 0.007161
1.000000 0.045044 0.007161
1.000000 0.045044 0.007161
0.000000 0.173288 0.007161
0.007161 0.173288 0.007161
0.045044 0.173288 0.007161
0.173288 0.173288 0.007161
0.605188 0.173288 0.007161
1.000000 0.173288 0.007161
1.000000 0.173288 0.007161
1.000000 0.173288 0.007161
0.000000 0.605188 0.007161
0.007161 0.605188 0.007161
0.045044 0.605188 0.007161
0.173288 0.605188 0.007161
0.605188 0.605188 0.007161
1.000000 0.605188 0.007161
1.000000 0.605188 0.007161
1.000000 0.605188 0.007161
0.000000 1.000000 0.007161
0.007161 1.000000 0.007161
0.045044 1.000000 0.007161
0.173288 1.000000 0.007161
0.605188 1.000000 0.007161
1.000000 1.000000 0.007161
1.000000 1.000000 0.007161
1.000000 1.000000 0.007161
0.000000 1.000000 0.007161
0.007161 1.000000 0.007161
0.045044 1.000000 0.007161
0.173288 1.000000 0.007161
0.605188 1.000000 0.007161
1.000000 1.000000 0.007161
1.000000 1.000000 0.007161
1.000000 1.000000 0.007161
0.000000 1.000000 0.007161
0.007161 1.000000 0.007161
0.045044 1.000000 0.007161
0.173288 1.000000 0.007161
0.605188 1.000000 0.007161
1.000000 1.000000 0.007161
1.000000 1.000000 0.007161
1.000000 1.000000 0.007161
0.000000 0.000000 0.045044
0.007161 0.000000 0.045044
0.045044 0.000000 0.045044
0.173288 0.000000 0.045044
0.605188 0.000000 0.045044
1.000000 0.000000 0.045044
1.000000 0.000000 0.045044
1.000000 0.000000 0.045044
0.000000 0.007161 0.045044
0.007161 0.007161 0.045044
0.045044 0.007161 0.045044
0.173288 0.007161 0.045044
0.605188 0.007161 0.045044
1.000000 0.007161 0.045044
1.000000 0.007161 0.045044
1.000000 0.007161 0.045044
0.000000 0.045044 0.045044
0.007161 0.045044 0.045044
0.045044 0.045044 0.045044
0.173288 0.045044 0.045044
0.605188 0.045044 0.045044
1.000000 0.045044 0.045044
1.000000 0.045044 0.045044
1.000000 0.045044 0.045044
0.000000 0.173288 0.045044
0.007161 0.173288 0.045044
0.045044 0.173288 0.045044
0.173288 0.173288 0.045044
0.605188 0.173288 0.045044
1.000000 0.173288 0.045044
1.000000 0.173288 0.045044
1.000000 0.173288 0.045044
0.000000 0.605188 0.045044
0.007161 0.605188 0.045044
0.045044 0.605188 0.045044
0.173288 0.605188 0.045044
0.605188 0.605188 0.045044
1.000000 0.605188 0.045044
1.000000 0.605188 0.045044
1.000000 0.605188 0.045044
0.000000 1.000000 0.045044
0.007161 1.000000 0.045044
0.045044 1.000000 0.045044
0.173288 1.000000 0.045044
0.605188 1.000000 0.045044
1.000000 1.000000 0.045044
1.000000 1.000000 0.045044
1.000000 1.000000 0.045044
0.000000 1.000000 0.045044
0.007161 1.000000 0.045044
0.045044 1.000000 0.045044
0.173288 1.000000 0.045044
0.605188 1.000000 0.045044
1.000000 1.000000 0.045044
1.000000 1.000000 0.045044
1.000000 1.000000 0.045044
0.000000 1.000000 0.045044
0.007161 1.000000 0.045044
0.045044 1.000000 0.045044
0.173288 1.000000 0.045044
0.605188 1.000000 0.045044
1.000000 1.000000 0.045044
1.000000 1.000000 0.045044
1.000000 1.000000 0.045044
0.000000 0.000000 0.173288
0.007161 0.000000 0.173288
0.045044 0.000000 0.173288
0.173288 0.000000 0.173288
0.605188 0.000000 0.173288
1.000000 0.000000 0.173288
1.000000 0.000000 0.173288
1.000000 0.000000 0.173288
0.000000 0.007161 0.173288
0.007161 0.007161 0.173288
0.045044 0.007161 0.173288
0.173288 0.007161 0.173288
0.605188 0.007161 0.173288
1.000000 0.007161 0.173288
1.000000 0.007161 0.173288
1.000000 0.007161 0.173288
0.000000 0.045044 0.173288
0.007161 0.045044 0.173288
0.045044 0.045044 0.173288
0.173288 0.045044 0.173288
0.605188 0.045044 0.173288
1.000000 0.045044 0.173288
1.000000 0.045044 0.173288
1.000000 0.045044 0.173288
0.000000 0.173288 0.173288
0.007161 0.173288 0.173288
0.045044 0.173288 0.173288
0.173288 0.173288 0.173288
0.605188 0.173288 0.173288
1.000000 0.173288 0.173288
1.000000 0.173288 0.173288
1.000000 0.173288 0.173288
0.000000 0.605188 0.173288
0.007161 0.605188 0.173288
0.045044 0.605188 0.173288
0.173288 0.605188 0.173288
0.605188 0.605188 0.173288
1.000000 0.605188 0.173288
1.000000 0.605188 0.173288
1.000000 0.605188 0.173288
0.000000 1.000000 0.173288
0.007161 1.000000 0.173288
0.045044 1.000000 0.173288
0.173288 1.000000 0.173288
0.605188 1.000000 0.173288
1.000000 1.000000 0.173288
1.000000 1.000000 0.173288
1.000000 1.000000 0.173288
0.000000 1.000000 0.173288
0.007161 1.000000 0.173288
0.045044 1.000000 0.173288
0.173288 1.000000 0.173288
0.605188 1.000000 0.173288
1.000000 1.000000 0.173288
1.000000 1.000000 0.173288
1.000000 1.000000 0.173288
0.000000 1.000000 0.173288
0.007161 1.000000 0.173288
0.045044 1.000000 0.173288
0.173288 1.000000 0.173288
0.605188 1.000000 0.173288
1.000000 1.000000 0.173288
1.000000 1.000000 0.173288
1.000000 1.000000 0.173288
0.000000 0.000000 0.605188
0.007161 0.000000 0.605188
0.045044 0.000000 0.605188
0.173288 0.000000 0.605188
0.605188 0.000000 0.605188
1.000000 0.000000 0.605188
1.000000 0.000000 0.605188
1.000000 0.000000 0.605188
0.000000 0.007161 0.605188
0.007161 0.007161 0.605188
0.045044 0.007161 0.605188
0.173288 0.007161 0.605188
0.605188 0.007161 0.605188
1.000000 0.007161 0.605188
1.000000 0.007161 0.605188
1.000000 0.007161 0.605188
0.000000 0.045044 0.605188
0.007161 0.045044 0.605188
0.045044 0.045044 0.605188
0.173288 0.045044 0.605188
0.605188 0.045044 0.605188
1.000000 0.045044 0.605188
1.000000 0.045044 0.605188
1.000000 0.045044 0.605188
0.000000 0.173288 0.605188
0.007161 0.173288 0.605188
0.045044 0.173288 0.605188
0.173288 0.173288 0.605188
0.605188 0.173288 0.605188
1.000000 0.173288 0.605188
1.000000 0.173288 0.605188
1.000000 0.173288 0.605188
0.000000 0.605188 0.605188
0.007161 0.605188 0.605188
0.045044 0.605188 0.605188
0.173288 0.605188 0.605188
0.605188 0.605188 0.605188
1.000000 0.605188 0.605188
1.000000 0.605188 0.605188
1.000000 0.605188 0.605188
0.000000 1.000000 0.605188
0.007161 1.000000 0.605188
0.045044 1.000000 0.605188
0.173288 1.000000 0.605188
0.605188 1.000000 0.605188
1.000000 1.000000 0.605188
1.000000 1.000000 0.605188
1.000000 1.000000 0.605188
0.000000 1.000000 0.605188
0.007161 1.000000 0.605188
0.045044 1.000000 0.605188
0.173288 1.000000 0.605188
0.605188 1.000000 0.605188
1.000000 1.000000 0.605188
1.000000 1.000000 0.605188
1.000000 1.000000 0.605188
0.000000 1.000000 0.605188
0.007161 1.000000 0.605188
0.045044 1.000000 0.605188
0.173288 1.000000 0.605188
0.605188 1.000000 0.605188
1.000000 1.000000 0.605188
1.000000 1.000000 0.605188
1.000000 1.000000 0.605188
0.000000 0.000000 1.000000
0.007161 0.000000 1.000000
0.045044 0.000000 1.000000
0.173288 0.000000 1.000000
0.605188 0.000000 1.000000
1.000000 0.000000 1.000000
1.000000 0.000000 1.000000
1.000000 0.000000 1.000000
0.000000 0.007161 1.000000
0.007161 0.007161 1.000000
0.045044 0.007161 1.000000
0.173288 0.007161 1.000000
0.605188 0.007161 1.000000
1.000000 0.007161 1.000000
1.000000 0.007161 1.000000
1.000000 0.007161 1.000000
0.000000 0.045044 1.000000
0.007161 0.045044 1.000000
0.045044 0.045044 1.000000
0.173288 0.045044 1.000000
0.605188 0.045044 1.000000
1.000000 0.045044 1.000000
1.000000 0.045044 1.000000
1.000000 0.045044 1.000000
0.000000 0.173288 1.000000
0.007161 0.173288 1.000000
0.045044 0.173288 1.000000
0.173288 0.173288 1.000000
0.605188 0.173288 1.000000
1.000000 0.173288 1.000000
1.000000 0.173288 1.000000
1.000000 0.173288 1.000000
0.000000 0.605188 1.000000
0.007161 0.605188 1.000000
0.045044 0.605188 1.000000
0.173288 0.605188 1.000000
0.605188 0.605188 1.000000
1.000000 0.605188 1.000000
1.000000 0.605188 1.000000
1.000000 0.605188 1.000000
0.000000 1.000000 1.000000
0.007161 1.000000 1.000000
0.045044 1.000000 1.000000
0.173288 1.000000 1.000000
0.605188 1.000000 1.000000
1.000000 1.000000 1.000000
1.000000 1.000000 1.000000
1.000000 1.000000 1.000000
0.000000 1.000000 1.000000
0.007161 1.000000 1.000000
0.045044 1.000000 1.000000
0.173288 1.000000 1.000000
0.605188 1.000000 1.000000
1.000000 1.000000 1.000000
1.000000 1.000000 1.000000
1.000000 1.000000 1.000000
0.000000 1.000000 1.000000
0.007161 1.000000 1.000000
0.045044 1.000000 1.000000
0.173288 1.000000 1.000000
0.605188 1.000000 1.000000
1.000000 1.000000 1.000000
1.000000 1.000000 1.000000
1.000000 1.000000 1.000000
0.000000 0.000000 1.000000
0.007161 0.000000 1.000000
0.045044 0.000000 1.000000
0.173288 0.000000 1.000000
0.605188 0.000000 1.000000
1.000000 0.000000 1.000000
1.000000 0.000000 1.000000
1.000000 0.000000 1.000000
0.000000 0.007161 1.000000
0.007161 0.007161 1.000000
0.045044 0.007161 1.000000
0.173288 0.007161 1.000000
0.605188 0.007161 1.000000
1.000000 0.007161 1.000000
1.000000 0.007161 1.000000
1.000000 0.007161 1.000000
0.000000 0.045044 1.000000
0.007161 0.045044 1.000000
0.045044 0.045044 1.000000
0.173288 0.045044 1.000000
0.605188 0.045044 1.000000
1.000000 0.045044 1.000000
1.000000 0.045044 1.000000
1.000000 0.045044 1.000000
0.000000 0.173288 1.000000
0.007161 0.173288 1.000000
0.045044 0.173288 1.000000
0.173288 0.173288 1.000000
0.605188 0.173288 1.000000
1.000000 0.173288 1.000000
1.000000 0.173288 1.000000
1.000000 0.173288 1.000000
0.000000 0.605188 1.000000
0.007161 0.605188 1.000000
0.045044 0.605188 1.000000
0.173288 0.605188 1.000000
0.605188 0.605188 1.000000
1.000000 0.605188 1.000000
1.000000 0.605188 1.000000
1.000000 0.605188 1.000000
0.000000 1.000000 1.000000
0.007161 1.000000 1.000000
0.045044 1.000000 1.000000
0.173288 1.000000 1.000000
0.605188 1.000000 1.000000
1.000000 1.000000 1.000000
1.000000 1.000000 1.000000
1.000000 1.000000 1.000000
0.000000 1.000000 1.000000
0.007161 1.000000 1.000000
0.045044 1.000000 1.000000
0.173288 1.000000 1.000000
0.605188 1.000000 1.000000
1.000000 1.000000 1.000000
1.000000 1.000000 1.000000
1.000000 1.000000 1.000000
0.000000 1.000000 1.000000
0.007161 1.000000 1.000000
0.045044 1.000000 1.000000
0.173288 1.000000 1.000000
0.605188 1.000000 1.000000
1.000000 1.000000 1.000000
1.000000 1.000000 1.000000
1.000000 1.000000 1.000000
0.000000 0.000000 1.000000
0.007161 0.000000 1.000000
0.045044 0.000000 1.000000
0.173288 0.000000 1.000000
0.605188 0.000000 1.000000
1.000000 0.000000 1.000000
1.000000 0.000000 1.000000
1.000000 0.000000 1.000000
0.000000 0.007161 1.000000
0.007161 0.007161 1.000000
0.045044 0.007161 1.000000
0.173288 0.007161 1.000000
0.605188 0.007161 1.000000
1.000000 0.007161 1.000000
1.000000 0.007161 1.000000
1.000000 0.007161 1.000000
0.000000 0.045044 1.000000
0.007161 0.045044 1.000000
0.045044 0.045044 1.000000
0.173288 0.045044 1.000000
0.605188 0.045044 1.000000
1.000000 0.045044 1.000000
1.000000 0.045044 1.000000
1.000000 0.045044 1.000000
0.000000 0.173288 1.000000
0.007161 0.173288 1.000000
0.045044 0.173288 1.000000
0.173288 0.173288 1.000000
0.605188 0.173288 1.000000
1.000000 0.173288 1.000000
1.000000 0.173288 1.000000
1.000000 0.173288 1.000000
0.000000 0.605188 1.000000
0.007161 0.605188 1.000000
0.045044 0.605188 1.000000
0.173288 0.605188 1.000000
0.605188 0.605188 1.000000
1.000000 0.605188 1.000000
1.000000 0.605188 1.000000
1.000000 0.605188 1.000000
0.000000 1.000000 1.000000
0.007161 1.000000 1.000000
0.045044 1.000000 1.000000
0.173288 1.000000 1.000000
0.605188 1.000000 1.000000
1.000000 1.000000 1.000000
1.000000 1.000000 1.000000
1.000000 1.000000 1.000000
0.000000 1.000000 1.000000
0.007161 1.000000 1.000000
0.045044 1.000000 1.000000
0.173288 1.000000 1.000000
0.605188 1.000000 1.000000
1.000000 1.000000 1.000000
1.000000 1.000000 1.000000
1.000000 1.000000 1.000000
0.000000 1.000000 1.000000
0.007161 1.000000 1.000000
0.045044 1.000000 1.000000
0.173288 1.000000 1.000000
0.605188 1.000000 1.000000
1.000000 1.000000 1.000000
1.000000 1.000000 1.000000
1.000000 1.000000 1.000000
