tests/cube/linear_max1.cube
TITLE "cube/linear_max1.cube"
LUT_3D_SIZE 5
DOMAIN_MIN 0.000000 0.000000 0.000000
DOMAIN_MAX 0.903226 0.903226 0.903226
0.000000 0.000000 0.000000
0.031055 0.000000 0.000000
0.326482 0.000000 0.000000
1.000000 0.000000 0.000000
1.000000 0.000000 0.000000
0.000000 0.031055 0.000000
0.031055 0.031055 0.000000
0.326482 0.031055 0.000000
1.000000 0.031055 0.000000
1.000000 0.031055 0.000000
0.000000 0.326482 0.000000
0.031055 0.326482 0.000000
0.326482 0.326482 0.000000
1.000000 0.326482 0.000000
1.000000 0.326482 0.000000
0.000000 1.000000 0.000000
0.031055 1.000000 0.000000
0.326482 1.000000 0.000000
1.000000 1.000000 0.000000
1.000000 1.000000 0.000000
0.000000 1.000000 0.000000
0.031055 1.000000 0.000000
0.326482 1.000000 0.000000
1.000000 1.000000 0.000000
1.000000 1.000000 0.000000
0.000000 0.000000 0.031055
0.031055 0.000000 0.031055
0.326482 0.000000 0.031055
1.000000 0.000000 0.031055
1.000000 0.000000 0.031055
0.000000 0.031055 0.031055
0.031055 0.031055 0.031055
0.326482 0.031055 0.031055
1.000000 0.031055 0.031055
1.000000 0.031055 0.031055
0.000000 0.326482 0.031055
0.031055 0.326482 0.031055
0.326482 0.326482 0.031055
1.000000 0.326482 0.031055
1.000000 0.326482 0.031055
0.000000 1.000000 0.031055
0.031055 1.000000 0.031055
0.326482 1.000000 0.031055
1.000000 1.000000 0.031055
1.000000 1.000000 0.031055
0.000000 1.000000 0.031055
0.031055 1.000000 0.031055
0.326482 1.000000 0.031055
1.000000 1.000000 0.031055
1.000000 1.000000 0.031055
0.000000 0.000000 0.326482
0.031055 0.000000 0.326482
0.326482 0.000000 0.326482
1.000000 0.000000 0.326482
1.000000 0.000000 0.326482
0.000000 0.031055 0.326482
0.031055 0.031055 0.326482
0.326482 0.031055 0.326482
1.000000 0.031055 0.326482
1.000000 0.031055 0.326482
0.000000 0.326482 0.326482
0.031055 0.326482 0.326482
0.326482 0.326482 0.326482
1.000000 0.326482 0.326482
1.000000 0.326482 0.326482
0.000000 1.000000 0.326482
0.031055 1.000000 0.326482
0.326482 1.000000 0.326482
1.000000 1.000000 0.326482
1.000000 1.000000 0.326482
0.000000 1.000000 0.326482
0.031055 1.000000 0.326482
0.326482 1.000000 0.326482
1.000000 1.000000 0.326482
1.000000 1.000000 0.326482
0.000000 0.000000 1.000000
0.031055 0.000000 1.000000
0.326482 0.000000 1.000000
1.000000 0.000000 1.000000
1.000000 0.000000 1.000000
0.000000 0.031055 1.000000
0.031055 0.031055 1.000000
0.326482 0.031055 1.000000
1.000000 0.031055 1.000000
1.000000 0.031055 1.000000
0.000000 0.326482 1.000000
0.031055 0.326482 1.000000
0.326482 0.326482 1.000000
1.000000 0.326482 1.000000
1.000000 0.326482 1.000000
0.000000 1.000000 1.000000
0.031055 1.000000 1.000000
0.326482 1.000000 1.000000
1.000000 1.000000 1.000000
1.000000 1.000000 1.000000
0.000000 1.000000 1.000000
0.031055 1.000000 1.000000
0.326482 1.000000 1.000000
1.000000 1.000000 1.000000
1.000000 1.000000 1.000000
0.000000 0.000000 1.000000
0.031055 0.000000 1.000000
0.326482 0.000000 1.000000
1.000000 0.000000 1.000000
1.000000 0.000000 1.000000
0.000000 0.031055 1.000000
0.031055 0.031055 1.000000
0.326482 0.031055 1.000000
1.000000 0.031055 1.000000
1.000000 0.031055 1.000000
0.000000 0.326482 1.000000
0.031055 0.326482 1.000000
0.326482 0.326482 1.000000
1.000000 0.326482 1.000000
1.000000 0.326482 1.000000
0.000000 1.000000 1.000000
0.031055 1.000000 1.000000
0.326482 1.000000 1.000000
1.000000 1.000000 1.000000
1.000000 1.000000 1.000000
0.000000 1.000000 1.000000
0.031055 1.000000 1.000000
0.326482 1.000000 1.000000
1.000000 1.000000 1.000000
1.000000 1.000000 1.000000
