tests/cube/linear.cube
TITLE "cube/linear.cube"
LUT_3D_SIZE 5
DOMAIN_MIN 0.000000 0.000000 0.000000
DOMAIN_MAX 0.903226 0.903226 0.903226
0.000000 0.000000 0.000000
0.000529 0.000000 0.000000
0.005563 0.000000 0.000000
0.047802 0.000000 0.000000
0.403031 0.000000 0.000000
0.000000 0.000529 0.000000
0.000529 0.000529 0.000000
0.005563 0.000529 0.000000
0.047802 0.000529 0.000000
0.403031 0.000529 0.000000
0.000000 0.005563 0.000000
0.000529 0.005563 0.000000
0.005563 0.005563 0.000000
0.047802 0.005563 0.000000
0.403031 0.005563 0.000000
0.000000 0.047802 0.000000
0.000529 0.047802 0.000000
0.005563 0.047802 0.000000
0.047802 0.047802 0.000000
0.403031 0.047802 0.000000
0.000000 0.403031 0.000000
0.000529 0.403031 0.000000
0.005563 0.403031 0.000000
0.047802 0.403031 0.000000
0.403031 0.403031 0.000000
0.000000 0.000000 0.000529
0.000529 0.000000 0.000529
0.005563 0.000000 0.000529
0.047802 0.000000 0.000529
0.403031 0.000000 0.000529
0.000000 0.000529 0.000529
0.000529 0.000529 0.000529
0.005563 0.000529 0.000529
0.047802 0.000529 0.000529
0.403031 0.000529 0.000529
0.000000 0.005563 0.000529
0.000529 0.005563 0.000529
0.005563 0.005563 0.000529
0.047802 0.005563 0.000529
0.403031 0.005563 0.000529
0.000000 0.047802 0.000529
0.000529 0.047802 0.000529
0.005563 0.047802 0.000529
0.047802 0.047802 0.000529
0.403031 0.047802 0.000529
0.000000 0.403031 0.000529
0.000529 0.403031 0.000529
0.005563 0.403031 0.000529
0.047802 0.403031 0.000529
0.403031 0.403031 0.000529
0.000000 0.000000 0.005563
0.000529 0.000000 0.005563
0.005563 0.000000 0.005563
0.047802 0.000000 0.005563
0.403031 0.000000 0.005563
0.000000 0.000529 0.005563
0.000529 0.000529 0.005563
0.005563 0.000529 0.005563
0.047802 0.000529 0.005563
0.403031 0.000529 0.005563
0.000000 0.005563 0.005563
0.000529 0.005563 0.005563
0.005563 0.005563 0.005563
0.047802 0.005563 0.005563
0.403031 0.005563 0.005563
0.000000 0.047802 0.005563
0.000529 0.047802 0.005563
0.005563 0.047802 0.005563
0.047802 0.047802 0.005563
0.403031 0.047802 0.005563
0.000000 0.403031 0.005563
0.000529 0.403031 0.005563
0.005563 0.403031 0.005563
0.047802 0.403031 0.005563
0.403031 0.403031 0.005563
0.000000 0.000000 0.047802
0.000529 0.000000 0.047802
0.005563 0.000000 0.047802
0.047802 0.000000 0.047802
0.403031 0.000000 0.047802
0.000000 0.000529 0.047802
0.000529 0.000529 0.047802
0.005563 0.000529 0.047802
0.047802 0.000529 0.047802
0.403031 0.000529 0.047802
0.000000 0.005563 0.047802
0.000529 0.005563 0.047802
0.005563 0.005563 0.047802
0.047802 0.005563 0.047802
0.403031 0.005563 0.047802
0.000000 0.047802 0.047802
0.000529 0.047802 0.047802
0.005563 0.047802 0.047802
0.047802 0.047802 0.047802
0.403031 0.047802 0.047802
0.000000 0.403031 0.047802
0.000529 0.403031 0.047802
0.005563 0.403031 0.047802
0.047802 0.403031 0.047802
0.403031 0.403031 0.047802
0.000000 0.000000 0.403031
0.000529 0.000000 0.403031
0.005563 0.000000 0.403031
0.047802 0.000000 0.403031
0.403031 0.000000 0.403031
0.000000 0.000529 0.403031
0.000529 0.000529 0.403031
0.005563 0.000529 0.403031
0.047802 0.000529 0.403031
0.403031 0.000529 0.403031
0.000000 0.005563 0.403031
0.000529 0.005563 0.403031
0.005563 0.005563 0.403031
0.047802 0.005563 0.403031
0.403031 0.005563 0.403031
0.000000 0.047802 0.403031
0.000529 0.047802 0.403031
0.005563 0.047802 0.403031
0.047802 0.047802 0.403031
0.403031 0.047802 0.403031
0.000000 0.403031 0.403031
0.000529 0.403031 0.403031
0.005563 0.403031 0.403031
0.047802 0.403031 0.403031
0.403031 0.403031 0.403031
