tests/cube/square_root_max58.cube
TITLE "cube/square_root_max58.cube"
LUT_3D_SIZE 8
DOMAIN_MIN 0.000000 0.000000 0.000000
DOMAIN_MAX 0.903226 0.903226 0.903226
0.000000 0.000000 0.000000
0.011111 0.000000 0.000000
0.027868 0.000000 0.000000
0.054660 0.000000 0.000000
0.102148 0.000000 0.000000
0.187181 0.000000 0.000000
0.344020 0.000000 0.000000
0.633007 0.000000 0.000000
0.000000 0.011111 0.000000
0.011111 0.011111 0.000000
0.027868 0.011111 0.000000
0.054660 0.011111 0.000000
0.102148 0.011111 0.000000
0.187181 0.011111 0.000000
0.344020 0.011111 0.000000
0.633007 0.011111 0.000000
0.000000 0.027868 0.000000
0.011111 0.027868 0.000000
0.027868 0.027868 0.000000
0.054660 0.027868 0.000000
0.102148 0.027868 0.000000
0.187181 0.027868 0.000000
0.344020 0.027868 0.000000
0.633007 0.027868 0.000000
0.000000 0.054660 0.000000
0.011111 0.054660 0.000000
0.027868 0.054660 0.000000
0.054660 0.054660 0.000000
0.102148 0.054660 0.000000
0.187181 0.054660 0.000000
0.344020 0.054660 0.000000
0.633007 0.054660 0.000000
0.000000 0.102148 0.000000
0.011111 0.102148 0.000000
0.027868 0.102148 0.000000
0.054660 0.102148 0.000000
0.102148 0.102148 0.000000
0.187181 0.102148 0.000000
0.344020 0.102148 0.000000
0.633007 0.102148 0.000000
0.000000 0.187181 0.000000
0.011111 0.187181 0.000000
0.027868 0.187181 0.000000
0.054660 0.187181 0.000000
0.102148 0.187181 0.000000
0.187181 0.187181 0.000000
0.344020 0.187181 0.000000
0.633007 0.187181 0.000000
0.000000 0.344020 0.000000
0.011111 0.344020 0.000000
0.027868 0.344020 0.000000
0.054660 0.344020 0.000000
0.102148 0.344020 0.000000
0.187181 0.344020 0.000000
0.344020 0.344020 0.000000
0.633007 0.344020 0.000000
0.000000 0.633007 0.000000
0.011111 0.633007 0.000000
0.027868 0.633007 0.000000
0.054660 0.633007 0.000000
0.102148 0.633007 0.000000
0.187181 0.633007 0.000000
0.344020 0.633007 0.000000
0.633007 0.633007 0.000000
0.000000 0.000000 0.011111
0.011111 0.000000 0.011111
0.027868 0.000000 0.011111
0.054660 0.000000 0.011111
0.102148 0.000000 0.011111
0.187181 0.000000 0.011111
0.344020 0.000000 0.011111
0.633007 0.000000 0.011111
0.000000 0.011111 0.011111
0.011111 0.011111 0.011111
0.027868 0.011111 0.011111
0.054660 0.011111 0.011111
0.102148 0.011111 0.011111
0.187181 0.011111 0.011111
0.344020 0.011111 0.011111
0.633007 0.011111 0.011111
0.000000 0.027868 0.011111
0.011111 0.027868 0.011111
0.027868 0.027868 0.011111
0.054660 0.027868 0.011111
0.102148 0.027868 0.011111
0.187181 0.027868 0.011111
0.344020 0.027868 0.011111
0.633007 0.027868 0.011111
0.000000 0.054660 0.011111
0.011111 0.054660 0.011111
0.027868 0.054660 0.011111
0.054660 0.054660 0.011111
0.102148 0.054660 0.011111
0.187181 0.054660 0.011111
0.344020 0.054660 0.011111
0.633007 0.054660 0.011111
0.000000 0.102148 0.011111
0.011111 0.102148 0.011111
0.027868 0.102148 0.011111
0.054660 0.102148 0.011111
0.102148 0.102148 0.011111
0.187181 0.102148 0.011111
0.344020 0.102148 0.011111
0.633007 0.102148 0.011111
0.000000 0.187181 0.011111
0.011111 0.187181 0.011111
0.027868 0.187181 0.011111
0.054660 0.187181 0.011111
0.102148 0.187181 0.011111
0.187181 0.187181 0.011111
0.344020 0.187181 0.011111
0.633007 0.187181 0.011111
0.000000 0.344020 0.011111
0.011111 0.344020 0.011111
0.027868 0.344020 0.011111
0.054660 0.344020 0.011111
0.102148 0.344020 0.011111
0.187181 0.344020 0.011111
0.344020 0.344020 0.011111
0.633007 0.344020 0.011111
0.000000 0.633007 0.011111
0.011111 0.633007 0.011111
0.027868 0.633007 0.011111
0.054660 0.633007 0.011111
0.102148 0.633007 0.011111
0.187181 0.633007 0.011111
0.344020 0.633007 0.011111
0.633007 0.633007 0.011111
0.000000 0.000000 0.027868
0.011111 0.000000 0.027868
0.027868 0.000000 0.027868
0.054660 0.000000 0.027868
0.102148 0.000000 0.027868
0.187181 0.000000 0.027868
0.344020 0.000000 0.027868
0.633007 0.000000 0.027868
0.000000 0.011111 0.027868
0.011111 0.011111 0.027868
0.027868 0.011111 0.027868
0.054660 0.011111 0.027868
0.102148 0.011111 0.027868
0.187181 0.011111 0.027868
0.344020 0.011111 0.027868
0.633007 0.011111 0.027868
0.000000 0.027868 0.027868
0.011111 0.027868 0.027868
0.027868 0.027868 0.027868
0.054660 0.027868 0.027868
0.102148 0.027868 0.027868
0.187181 0.027868 0.027868
0.344020 0.027868 0.027868
0.633007 0.027868 0.027868
0.000000 0.054660 0.027868
0.011111 0.054660 0.027868
0.027868 0.054660 0.027868
0.054660 0.054660 0.027868
0.102148 0.054660 0.027868
0.187181 0.054660 0.027868
0.344020 0.054660 0.027868
0.633007 0.054660 0.027868
0.000000 0.102148 0.027868
0.011111 0.102148 0.027868
0.027868 0.102148 0.027868
0.054660 0.102148 0.027868
0.102148 0.102148 0.027868
0.187181 0.102148 0.027868
0.344020 0.102148 0.027868
0.633007 0.102148 0.027868
0.000000 0.187181 0.027868
0.011111 0.187181 0.027868
0.027868 0.187181 0.027868
0.054660 0.187181 0.027868
0.102148 0.187181 0.027868
0.187181 0.187181 0.027868
0.344020 0.187181 0.027868
0.633007 0.187181 0.027868
0.000000 0.344020 0.027868
0.011111 0.344020 0.027868
0.027868 0.344020 0.027868
0.054660 0.344020 0.027868
0.102148 0.344020 0.027868
0.187181 0.344020 0.027868
0.344020 0.344020 0.027868
0.633007 0.344020 0.027868
0.000000 0.633007 0.027868
0.011111 0.633007 0.027868
0.027868 0.633007 0.027868
0.054660 0.633007 0.027868
0.102148 0.633007 0.027868
0.187181 0.633007 0.027868
0.344020 0.633007 0.027868
0.633007 0.633007 0.027868
0.000000 0.000000 0.054660
0.011111 0.000000 0.054660
0.027868 0.000000 0.054660
0.054660 0.000000 0.054660
0.102148 0.000000 0.054660
0.187181 0.000000 0.054660
0.344020 0.000000 0.054660
0.633007 0.000000 0.054660
0.000000 0.011111 0.054660
0.011111 0.011111 0.054660
0.027868 0.011111 0.054660
0.054660 0.011111 0.054660
0.102148 0.011111 0.054660
0.187181 0.011111 0.054660
0.344020 0.011111 0.054660
0.633007 0.011111 0.054660
0.000000 0.027868 0.054660
0.011111 0.027868 0.054660
0.027868 0.027868 0.054660
0.054660 0.027868 0.054660
0.102148 0.027868 0.054660
0.187181 0.027868 0.054660
0.344020 0.027868 0.054660
0.633007 0.027868 0.054660
0.000000 0.054660 0.054660
0.011111 0.054660 0.054660
0.027868 0.054660 0.054660
0.054660 0.054660 0.054660
0.102148 0.054660 0.054660
0.187181 0.054660 0.054660
0.344020 0.054660 0.054660
0.633007 0.054660 0.054660
0.000000 0.102148 0.054660
0.011111 0.102148 0.054660
0.027868 0.102148 0.054660
0.054660 0.102148 0.054660
0.102148 0.102148 0.054660
0.187181 0.102148 0.054660
0.344020 0.102148 0.054660
0.633007 0.102148 0.054660
0.000000 0.187181 0.054660
0.011111 0.187181 0.054660
0.027868 0.187181 0.054660
0.054660 0.187181 0.054660
0.102148 0.187181 0.054660
0.187181 0.187181 0.054660
0.344020 0.187181 0.054660
0.633007 0.187181 0.054660
0.000000 0.344020 0.054660
0.011111 0.344020 0.054660
0.027868 0.344020 0.054660
0.054660 0.344020 0.054660
0.102148 0.344020 0.054660
0.187181 0.344020 0.054660
0.344020 0.344020 0.054660
0.633007 0.344020 0.054660
0.000000 0.633007 0.054660
0.011111 0.633007 0.054660
0.027868 0.633007 0.054660
0.054660 0.633007 0.054660
0.102148 0.633007 0.054660
0.187181 0.633007 0.054660
0.344020 0.633007 0.054660
0.633007 0.633007 0.054660
0.000000 0.000000 0.102148
0.011111 0.000000 0.102148
0.027868 0.000000 0.102148
0.054660 0.000000 0.102148
0.102148 0.000000 0.102148
0.187181 0.000000 0.102148
0.344020 0.000000 0.102148
0.633007 0.000000 0.102148
0.000000 0.011111 0.102148
0.011111 0.011111 0.102148
0.027868 0.011111 0.102148
0.054660 0.011111 0.102148
0.102148 0.011111 0.102148
0.187181 0.011111 0.102148
0.344020 0.011111 0.102148
0.633007 0.011111 0.102148
0.000000 0.027868 0.102148
0.011111 0.027868 0.102148
0.027868 0.027868 0.102148
0.054660 0.027868 0.102148
0.102148 0.027868 0.102148
0.187181 0.027868 0.102148
0.344020 0.027868 0.102148
0.633007 0.027868 0.102148
0.000000 0.054660 0.102148
0.011111 0.054660 0.102148
0.027868 0.054660 0.102148
0.054660 0.054660 0.102148
0.102148 0.054660 0.102148
0.187181 0.054660 0.102148
0.344020 0.054660 0.102148
0.633007 0.054660 0.102148
0.000000 0.102148 0.102148
0.011111 0.102148 0.102148
0.027868 0.102148 0.102148
0.054660 0.102148 0.102148
0.102148 0.102148 0.102148
0.187181 0.102148 0.102148
0.344020 0.102148 0.102148
0.633007 0.102148 0.102148
0.000000 0.187181 0.102148
0.011111 0.187181 0.102148
0.027868 0.187181 0.102148
0.054660 0.187181 0.102148
0.102148 0.187181 0.102148
0.187181 0.187181 0.102148
0.344020 0.187181 0.102148
0.633007 0.187181 0.102148
0.000000 0.344020 0.102148
0.011111 0.344020 0.102148
0.027868 0.344020 0.102148
0.054660 0.344020 0.102148
0.102148 0.344020 0.102148
0.187181 0.344020 0.102148
0.344020 0.344020 0.102148
0.633007 0.344020 0.102148
0.000000 0.633007 0.102148
0.011111 0.633007 0.102148
0.027868 0.633007 0.102148
0.054660 0.633007 0.102148
0.102148 0.633007 0.102148
0.187181 0.633007 0.102148
0.344020 0.633007 0.102148
0.633007 0.633007 0.102148
0.000000 0.000000 0.187181
0.011111 0.000000 0.187181
0.027868 0.000000 0.187181
0.054660 0.000000 0.187181
0.102148 0.000000 0.187181
0.187181 0.000000 0.187181
0.344020 0.000000 0.187181
0.633007 0.000000 0.187181
0.000000 0.011111 0.187181
0.011111 0.011111 0.187181
0.027868 0.011111 0.187181
0.054660 0.011111 0.187181
0.102148 0.011111 0.187181
0.187181 0.011111 0.187181
0.344020 0.011111 0.187181
0.633007 0.011111 0.187181
0.000000 0.027868 0.187181
0.011111 0.027868 0.187181
0.027868 0.027868 0.187181
0.054660 0.027868 0.187181
0.102148 0.027868 0.187181
0.187181 0.027868 0.187181
0.344020 0.027868 0.187181
0.633007 0.027868 0.187181
0.000000 0.054660 0.187181
0.011111 0.054660 0.187181
0.027868 0.054660 0.187181
0.054660 0.054660 0.187181
0.102148 0.054660 0.187181
0.187181 0.054660 0.187181
0.344020 0.054660 0.187181
0.633007 0.054660 0.187181
0.000000 0.102148 0.187181
0.011111 0.102148 0.187181
0.027868 0.102148 0.187181
0.054660 0.102148 0.187181
0.102148 0.102148 0.187181
0.187181 0.102148 0.187181
0.344020 0.102148 0.187181
0.633007 0.102148 0.187181
0.000000 0.187181 0.187181
0.011111 0.187181 0.187181
0.027868 0.187181 0.187181
0.054660 0.187181 0.187181
0.102148 0.187181 0.187181
0.187181 0.187181 0.187181
0.344020 0.187181 0.187181
0.633007 0.187181 0.187181
0.000000 0.344020 0.187181
0.011111 0.344020 0.187181
0.027868 0.344020 0.187181
0.054660 0.344020 0.187181
0.102148 0.344020 0.187181
0.187181 0.344020 0.187181
0.344020 0.344020 0.187181
0.633007 0.344020 0.187181
0.000000 0.633007 0.187181
0.011111 0.633007 0.187181
0.027868 0.633007 0.187181
0.054660 0.633007 0.187181
0.102148 0.633007 0.187181
0.187181 0.633007 0.187181
0.344020 0.633007 0.187181
0.633007 0.633007 0.187181
0.000000 0.000000 0.344020
0.011111 0.000000 0.344020
0.027868 0.000000 0.344020
0.054660 0.000000 0.344020
0.102148 0.000000 0.344020
0.187181 0.000000 0.344020
0.344020 0.000000 0.344020
0.633007 0.000000 0.344020
0.000000 0.011111 0.344020
0.011111 0.011111 0.344020
0.027868 0.011111 0.344020
0.054660 0.011111 0.344020
0.102148 0.011111 0.344020
0.187181 0.011111 0.344020
0.344020 0.011111 0.344020
0.633007 0.011111 0.344020
0.000000 0.027868 0.344020
0.011111 0.027868 0.344020
0.027868 0.027868 0.344020
0.054660 0.027868 0.344020
0.102148 0.027868 0.344020
0.187181 0.027868 0.344020
0.344020 0.027868 0.344020
0.633007 0.027868 0.344020
0.000000 0.054660 0.344020
0.011111 0.054660 0.344020
0.027868 0.054660 0.344020
0.054660 0.054660 0.344020
0.102148 0.054660 0.344020
0.187181 0.054660 0.344020
0.344020 0.054660 0.344020
0.633007 0.054660 0.344020
0.000000 0.102148 0.344020
0.011111 0.102148 0.344020
0.027868 0.102148 0.344020
0.054660 0.102148 0.344020
0.102148 0.102148 0.344020
0.187181 0.102148 0.344020
0.344020 0.102148 0.344020
0.633007 0.102148 0.344020
0.000000 0.187181 0.344020
0.011111 0.187181 0.344020
0.027868 0.187181 0.344020
0.054660 0.187181 0.344020
0.102148 0.187181 0.344020
0.187181 0.187181 0.344020
0.344020 0.187181 0.344020
0.633007 0.187181 0.344020
0.000000 0.344020 0.344020
0.011111 0.344020 0.344020
0.027868 0.344020 0.344020
0.054660 0.344020 0.344020
0.102148 0.344020 0.344020
0.187181 0.344020 0.344020
0.344020 0.344020 0.344020
0.633007 0.344020 0.344020
0.000000 0.633007 0.344020
0.011111 0.633007 0.344020
0.027868 0.633007 0.344020
0.054660 0.633007 0.344020
0.102148 0.633007 0.344020
0.187181 0.633007 0.344020
0.344020 0.633007 0.344020
0.633007 0.633007 0.344020
0.000000 0.000000 0.633007
0.011111 0.000000 0.633007
0.027868 0.000000 0.633007
0.054660 0.000000 0.633007
0.102148 0.000000 0.633007
0.187181 0.000000 0.633007
0.344020 0.000000 0.633007
0.633007 0.000000 0.633007
0.000000 0.011111 0.633007
0.011111 0.011111 0.633007
0.027868 0.011111 0.633007
0.054660 0.011111 0.633007
0.102148 0.011111 0.633007
0.187181 0.011111 0.633007
0.344020 0.011111 0.633007
0.633007 0.011111 0.633007
0.000000 0.027868 0.633007
0.011111 0.027868 0.633007
0.027868 0.027868 0.633007
0.054660 0.027868 0.633007
0.102148 0.027868 0.633007
0.187181 0.027868 0.633007
0.344020 0.027868 0.633007
0.633007 0.027868 0.633007
0.000000 0.054660 0.633007
0.011111 0.054660 0.633007
0.027868 0.054660 0.633007
0.054660 0.054660 0.633007
0.102148 0.054660 0.633007
0.187181 0.054660 0.633007
0.344020 0.054660 0.633007
0.633007 0.054660 0.633007
0.000000 0.102148 0.633007
0.011111 0.102148 0.633007
0.027868 0.102148 0.633007
0.054660 0.102148 0.633007
0.102148 0.102148 0.633007
0.187181 0.102148 0.633007
0.344020 0.102148 0.633007
0.633007 0.102148 0.633007
0.000000 0.187181 0.633007
0.011111 0.187181 0.633007
0.027868 0.187181 0.633007
0.054660 0.187181 0.633007
0.102148 0.187181 0.633007
0.187181 0.187181 0.633007
0.344020 0.187181 0.633007
0.633007 0.187181 0.633007
0.000000 0.344020 0.633007
0.011111 0.344020 0.633007
0.027868 0.344020 0.633007
0.054660 0.344020 0.633007
0.102148 0.344020 0.633007
0.187181 0.344020 0.633007
0.344020 0.344020 0.633007
0.633007 0.344020 0.633007
0.000000 0.633007 0.633007
0.011111 0.633007 0.633007
0.027868 0.633007 0.633007
0.054660 0.633007 0.633007
0.102148 0.633007 0.633007
0.187181 0.633007 0.633007
0.344020 0.633007 0.633007
0.633007 0.633007 0.633007
