tests/cube/square.cube
TITLE "cube/square.cube"
LUT_3D_SIZE 5
DOMAIN_MIN 0.000000 0.000000 0.000000
DOMAIN_MAX 0.903226 0.903226 0.903226
0.000000 0.000000 0.000000
0.000929 0.000000 0.000000
0.102899 0.000000 0.000000
1.000000 0.000000 0.000000
1.000000 0.000000 0.000000
0.000000 0.000929 0.000000
0.000929 0.000929 0.000000
0.102899 0.000929 0.000000
1.000000 0.000929 0.000000
1.000000 0.000929 0.000000
0.000000 0.102899 0.000000
0.000929 0.102899 0.000000
0.102899 0.102899 0.000000
1.000000 0.102899 0.000000
1.000000 0.102899 0.000000
0.000000 1.000000 0.000000
0.000929 1.000000 0.000000
0.102899 1.000000 0.000000
1.000000 1.000000 0.000000
1.000000 1.000000 0.000000
0.000000 1.000000 0.000000
0.000929 1.000000 0.000000
0.102899 1.000000 0.000000
1.000000 1.000000 0.000000
1.000000 1.000000 0.000000
0.000000 0.000000 0.000929
0.000929 0.000000 0.000929
0.102899 0.000000 0.000929
1.000000 0.000000 0.000929
1.000000 0.000000 0.000929
0.000000 0.000929 0.000929
0.000929 0.000929 0.000929
0.102899 0.000929 0.000929
1.000000 0.000929 0.000929
1.000000 0.000929 0.000929
0.000000 0.102899 0.000929
0.000929 0.102899 0.000929
0.102899 0.102899 0.000929
1.000000 0.102899 0.000929
1.000000 0.102899 0.000929
0.000000 1.000000 0.000929
0.000929 1.000000 0.000929
0.102899 1.000000 0.000929
1.000000 1.000000 0.000929
1.000000 1.000000 0.000929
0.000000 1.000000 0.000929
0.000929 1.000000 0.000929
0.102899 1.000000 0.000929
1.000000 1.000000 0.000929
1.000000 1.000000 0.000929
0.000000 0.000000 0.102899
0.000929 0.000000 0.102899
0.102899 0.000000 0.102899
1.000000 0.000000 0.102899
1.000000 0.000000 0.102899
0.000000 0.000929 0.102899
0.000929 0.000929 0.102899
0.102899 0.000929 0.102899
1.000000 0.000929 0.102899
1.000000 0.000929 0.102899
0.000000 0.102899 0.102899
0.000929 0.102899 0.102899
0.102899 0.102899 0.102899
1.000000 0.102899 0.102899
1.000000 0.102899 0.102899
0.000000 1.000000 0.102899
0.000929 1.000000 0.102899
0.102899 1.000000 0.102899
1.000000 1.000000 0.102899
1.000000 1.000000 0.102899
0.000000 1.000000 0.102899
0.000929 1.000000 0.102899
0.102899 1.000000 0.102899
1.000000 1.000000 0.102899
1.000000 1.000000 0.102899
0.000000 0.000000 1.000000
0.000929 0.000000 1.000000
0.102899 0.000000 1.000000
1.000000 0.000000 1.000000
1.000000 0.000000 1.000000
0.000000 0.000929 1.000000
0.000929 0.000929 1.000000
0.102899 0.000929 1.000000
1.000000 0.000929 1.000000
1.000000 0.000929 1.000000
0.000000 0.102899 1.000000
0.000929 0.102899 1.000000
0.102899 0.102899 1.000000
1.000000 0.102899 1.000000
1.000000 0.102899 1.000000
0.000000 1.000000 1.000000
0.000929 1.000000 1.000000
0.102899 1.000000 1.000000
1.000000 1.000000 1.000000
1.000000 1.000000 1.000000
0.000000 1.000000 1.000000
0.000929 1.000000 1.000000
0.102899 1.000000 1.000000
1.000000 1.000000 1.000000
1.000000 1.000000 1.000000
0.000000 0.000000 1.000000
0.000929 0.000000 1.000000
0.102899 0.000000 1.000000
1.000000 0.000000 1.000000
1.000000 0.000000 1.000000
0.000000 0.000929 1.000000
0.000929 0.000929 1.000000
0.102899 0.000929 1.000000
1.000000 0.000929 1.000000
1.000000 0.000929 1.000000
0.000000 0.102899 1.000000
0.000929 0.102899 1.000000
0.102899 0.102899 1.000000
1.000000 0.102899 1.000000
1.000000 0.102899 1.000000
0.000000 1.000000 1.000000
0.000929 1.000000 1.000000
0.102899 1.000000 1.000000
1.000000 1.000000 1.000000
1.000000 1.000000 1.000000
0.000000 1.000000 1.000000
0.000929 1.000000 1.000000
0.102899 1.000000 1.000000
1.000000 1.000000 1.000000
1.000000 1.000000 1.000000
