tests/cube/square_root.cube
TITLE "cube/square_root.cube"
LUT_3D_SIZE 32
DOMAIN_MIN 0.0 0.0 0.0
DOMAIN_MAX 1.0 1.0 1.0
0.000000 0.000000 0.000000
0.000032 0.000000 0.000000
0.016171 0.000000 0.000000
0.055488 0.000000 0.000000
0.084393 0.000000 0.000000
0.112621 0.000000 0.000000
0.142344 0.000000 0.000000
0.174603 0.000000 0.000000
0.210708 0.000000 0.000000
0.251437 0.000000 0.000000
0.297952 0.000000 0.000000
0.351226 0.000000 0.000000
0.412829 0.000000 0.000000
0.483445 0.000000 0.000000
0.566373 0.000000 0.000000
0.660489 0.000000 0.000000
0.772543 0.000000 0.000000
0.899394 0.000000 0.000000
1.050637 0.000000 0.000000
1.000000 0.000000 0.000000
1.000000 0.000000 0.000000
1.000000 0.000000 0.000000
1.000000 0.000000 0.000000
1.000000 0.000000 0.000000
1.000000 0.000000 0.000000
1.000000 0.000000 0.000000
1.000000 0.000000 0.000000
1.000000 0.000000 0.000000
1.000000 0.000000 0.000000
1.000000 0.000000 0.000000
1.000000 0.000000 0.000000
1.000000 0.000000 0.000000
0.000000 0.000032 0.000000
0.000032 0.000032 0.000000
0.016171 0.000032 0.000000
0.055488 0.000032 0.000000
0.084393 0.000032 0.000000
0.112621 0.000032 0.000000
0.142344 0.000032 0.000000
0.174603 0.000032 0.000000
0.210708 0.000032 0.000000
0.251437 0.000032 0.000000
0.297952 0.000032 0.000000
0.351226 0.000032 0.000000
0.412829 0.000032 0.000000
0.483445 0.000032 0.000000
0.566373 0.000032 0.000000
0.660489 0.000032 0.000000
0.772543 0.000032 0.000000
0.899394 0.000032 0.000000
1.050637 0.000032 0.000000
1.000000 0.000032 0.000000
1.000000 0.000032 0.000000
1.000000 0.000032 0.000000
1.000000 0.000032 0.000000
1.000000 0.000032 0.000000
1.000000 0.000032 0.000000
1.000000 0.000032 0.000000
1.000000 0.000032 0.000000
1.000000 0.000032 0.000000
1.000000 0.000032 0.000000
1.000000 0.000032 0.000000
1.000000 0.000032 0.000000
1.000000 0.000032 0.000000
0.000000 0.016171 0.000000
0.000032 0.016171 0.000000
0.016171 0.016171 0.000000
0.055488 0.016171 0.000000
0.084393 0.016171 0.000000
0.112621 0.016171 0.000000
0.142344 0.016171 0.000000
0.174603 0.016171 0.000000
0.210708 0.016171 0.000000
0.251437 0.016171 0.000000
0.297952 0.016171 0.000000
0.351226 0.016171 0.000000
0.412829 0.016171 0.000000
0.483445 0.016171 0.000000
0.566373 0.016171 0.000000
0.660489 0.016171 0.000000
0.772543 0.016171 0.000000
0.899394 0.016171 0.000000
1.050637 0.016171 0.000000
1.000000 0.016171 0.000000
1.000000 0.016171 0.000000
1.000000 0.016171 0.000000
1.000000 0.016171 0.000000
1.000000 0.016171 0.000000
1.000000 0.016171 0.000000
1.000000 0.016171 0.000000
1.000000 0.016171 0.000000
1.000000 0.016171 0.000000
1.000000 0.016171 0.000000
1.000000 0.016171 0.000000
1.000000 0.016171 0.000000
1.000000 0.016171 0.000000
0.000000 0.055488 0.000000
0.000032 0.055488 0.000000
0.016171 0.055488 0.000000
0.055488 0.055488 0.000000
0.084393 0.055488 0.000000
0.112621 0.055488 0.000000
0.142344 0.055488 0.000000
0.174603 0.055488 0.000000
0.210708 0.055488 0.000000
0.251437 0.055488 0.000000
0.297952 0.055488 0.000000
0.351226 0.055488 0.000000
0.412829 0.055488 0.000000
0.483445 0.055488 0.000000
0.566373 0.055488 0.000000
0.660489 0.055488 0.000000
0.772543 0.055488 0.000000
0.899394 0.055488 0.000000
1.050637 0.055488 0.000000
1.000000 0.055488 0.000000
1.000000 0.055488 0.000000
1.000000 0.055488 0.000000
1.000000 0.055488 0.000000
1.000000 0.055488 0.000000
1.000000 0.055488 0.000000
1.000000 0.055488 0.000000
1.000000 0.055488 0.000000
1.000000 0.055488 0.000000
1.000000 0.055488 0.000000
1.000000 0.055488 0.000000
1.000000 0.055488 0.000000
1.000000 0.055488 0.000000
0.000000 0.084393 0.000000
0.000032 0.084393 0.000000
0.016171 0.084393 0.000000
0.055488 0.084393 0.000000
0.084393 0.084393 0.000000
0.112621 0.084393 0.000000
0.142344 0.084393 0.000000
0.174603 0.084393 0.000000
0.210708 0.084393 0.000000
0.251437 0.084393 0.000000
0.297952 0.084393 0.000000
0.351226 0.084393 0.000000
0.412829 0.084393 0.000000
0.483445 0.084393 0.000000
0.566373 0.084393 0.000000
0.660489 0.084393 0.000000
0.772543 0.084393 0.000000
0.899394 0.084393 0.000000
1.050637 0.084393 0.000000
1.000000 0.084393 0.000000
1.000000 0.084393 0.000000
1.000000 0.084393 0.000000
1.000000 0.084393 0.000000
1.000000 0.084393 0.000000
1.000000 0.084393 0.000000
1.000000 0.084393 0.000000
1.000000 0.084393 0.000000
1.000000 0.084393 0.000000
1.000000 0.084393 0.000000
1.000000 0.084393 0.000000
1.000000 0.084393 0.000000
1.000000 0.084393 0.000000
0.000000 0.112621 0.000000
0.000032 0.112621 0.000000
0.016171 0.112621 0.000000
0.055488 0.112621 0.000000
0.084393 0.112621 0.000000
0.112621 0.112621 0.000000
0.142344 0.112621 0.000000
0.174603 0.112621 0.000000
0.210708 0.112621 0.000000
0.251437 0.112621 0.000000
0.297952 0.112621 0.000000
0.351226 0.112621 0.000000
0.412829 0.112621 0.000000
0.483445 0.112621 0.000000
0.566373 0.112621 0.000000
0.660489 0.112621 0.000000
0.772543 0.112621 0.000000
0.899394 0.112621 0.000000
1.050637 0.112621 0.000000
1.000000 0.112621 0.000000
1.000000 0.112621 0.000000
1.000000 0.112621 0.000000
1.000000 0.112621 0.000000
1.000000 0.112621 0.000000
1.000000 0.112621 0.000000
1.000000 0.112621 0.000000
1.000000 0.112621 0.000000
1.000000 0.112621 0.000000
1.000000 0.112621 0.000000
1.000000 0.112621 0.000000
1.000000 0.112621 0.000000
1.000000 0.112621 0.000000
0.000000 0.142344 0.000000
0.000032 0.142344 0.000000
0.016171 0.142344 0.000000
0.055488 0.142344 0.000000
0.084393 0.142344 0.000000
0.112621 0.142344 0.000000
0.142344 0.142344 0.000000
0.174603 0.142344 0.000000
0.210708 0.142344 0.000000
0.251437 0.142344 0.000000
0.297952 0.142344 0.000000
0.351226 0.142344 0.000000
0.412829 0.142344 0.000000
0.483445 0.142344 0.000000
0.566373 0.142344 0.000000
0.660489 0.142344 0.000000
0.772543 0.142344 0.000000
0.899394 0.142344 0.000000
1.050637 0.142344 0.000000
1.000000 0.142344 0.000000
1.000000 0.142344 0.000000
1.000000 0.142344 0.000000
1.000000 0.142344 0.000000
1.000000 0.142344 0.000000
1.000000 0.142344 0.000000
1.000000 0.142344 0.000000
1.000000 0.142344 0.000000
1.000000 0.142344 0.000000
1.000000 0.142344 0.000000
1.000000 0.142344 0.000000
1.000000 0.142344 0.000000
1.000000 0.142344 0.000000
0.000000 0.174603 0.000000
0.000032 0.174603 0.000000
0.016171 0.174603 0.000000
0.055488 0.174603 0.000000
0.084393 0.174603 0.000000
0.112621 0.174603 0.000000
0.142344 0.174603 0.000000
0.174603 0.174603 0.000000
0.210708 0.174603 0.000000
0.251437 0.174603 0.000000
0.297952 0.174603 0.000000
0.351226 0.174603 0.000000
0.412829 0.174603 0.000000
0.483445 0.174603 0.000000
0.566373 0.174603 0.000000
0.660489 0.174603 0.000000
0.772543 0.174603 0.000000
0.899394 0.174603 0.000000
1.050637 0.174603 0.000000
1.000000 0.174603 0.000000
1.000000 0.174603 0.000000
1.000000 0.174603 0.000000
1.000000 0.174603 0.000000
1.000000 0.174603 0.000000
1.000000 0.174603 0.000000
1.000000 0.174603 0.000000
1.000000 0.174603 0.000000
1.000000 0.174603 0.000000
1.000000 0.174603 0.000000
1.000000 0.174603 0.000000
1.000000 0.174603 0.000000
1.000000 0.174603 0.000000
0.000000 0.210708 0.000000
0.000032 0.210708 0.000000
0.016171 0.210708 0.000000
0.055488 0.210708 0.000000
0.084393 0.210708 0.000000
0.112621 0.210708 0.000000
0.142344 0.210708 0.000000
0.174603 0.210708 0.000000
0.210708 0.210708 0.000000
0.251437 0.210708 0.000000
0.297952 0.210708 0.000000
0.351226 0.210708 0.000000
0.412829 0.210708 0.000000
0.483445 0.210708 0.000000
0.566373 0.210708 0.000000
0.660489 0.210708 0.000000
0.772543 0.210708 0.000000
0.899394 0.210708 0.000000
1.050637 0.210708 0.000000
1.000000 0.210708 0.000000
1.000000 0.210708 0.000000
1.000000 0.210708 0.000000
1.000000 0.210708 0.000000
1.000000 0.210708 0.000000
1.000000 0.210708 0.000000
1.000000 0.210708 0.000000
1.000000 0.210708 0.000000
1.000000 0.210708 0.000000
1.000000 0.210708 0.000000
1.000000 0.210708 0.000000
1.000000 0.210708 0.000000
1.000000 0.210708 0.000000
0.000000 0.251437 0.000000
0.000032 0.251437 0.000000
0.016171 0.251437 0.000000
0.055488 0.251437 0.000000
0.084393 0.251437 0.000000
0.112621 0.251437 0.000000
0.142344 0.251437 0.000000
0.174603 0.251437 0.000000
0.210708 0.251437 0.000000
0.251437 0.251437 0.000000
0.297952 0.251437 0.000000
0.351226 0.251437 0.000000
0.412829 0.251437 0.000000
0.483445 0.251437 0.000000
0.566373 0.251437 0.000000
0.660489 0.251437 0.000000
0.772543 0.251437 0.000000
0.899394 0.251437 0.000000
1.050637 0.251437 0.000000
1.000000 0.251437 0.000000
1.000000 0.251437 0.000000
1.000000 0.251437 0.000000
1.000000 0.251437 0.000000
1.000000 0.251437 0.000000
1.000000 0.251437 0.000000
1.000000 0.251437 0.000000
1.000000 0.251437 0.000000
1.000000 0.251437 0.000000
1.000000 0.251437 0.000000
1.000000 0.251437 0.000000
1.000000 0.251437 0.000000
1.000000 0.251437 0.000000
0.000000 0.297952 0.000000
0.000032 0.297952 0.000000
0.016171 0.297952 0.000000
0.055488 0.297952 0.000000
0.084393 0.297952 0.000000
0.112621 0.297952 0.000000
0.142344 0.297952 0.000000
0.174603 0.297952 0.000000
0.210708 0.297952 0.000000
0.251437 0.297952 0.000000
0.297952 0.297952 0.000000
0.351226 0.297952 0.000000
0.412829 0.297952 0.000000
0.483445 0.297952 0.000000
0.566373 0.297952 0.000000
0.660489 0.297952 0.000000
0.772543 0.297952 0.000000
0.899394 0.297952 0.000000
1.050637 0.297952 0.000000
1.000000 0.297952 0.000000
1.000000 0.297952 0.000000
1.000000 0.297952 0.000000
1.000000 0.297952 0.000000
1.000000 0.297952 0.000000
1.000000 0.297952 0.000000
1.000000 0.297952 0.000000
1.000000 0.297952 0.000000
1.000000 0.297952 0.000000
1.000000 0.297952 0.000000
1.000000 0.297952 0.000000
1.000000 0.297952 0.000000
1.000000 0.297952 0.000000
0.000000 0.351226 0.000000
0.000032 0.351226 0.000000
0.016171 0.351226 0.000000
0.055488 0.351226 0.000000
0.084393 0.351226 0.000000
0.112621 0.351226 0.000000
0.142344 0.351226 0.000000
0.174603 0.351226 0.000000
0.210708 0.351226 0.000000
0.251437 0.351226 0.000000
0.297952 0.351226 0.000000
0.351226 0.351226 0.000000
0.412829 0.351226 0.000000
0.483445 0.351226 0.000000
0.566373 0.351226 0.000000
0.660489 0.351226 0.000000
0.772543 0.351226 0.000000
0.899394 0.351226 0.000000
1.050637 0.351226 0.000000
1.000000 0.351226 0.000000
1.000000 0.351226 0.000000
1.000000 0.351226 0.000000
1.000000 0.351226 0.000000
1.000000 0.351226 0.000000
1.000000 0.351226 0.000000
1.000000 0.351226 0.000000
1.000000 0.351226 0.000000
1.000000 0.351226 0.000000
1.000000 0.351226 0.000000
1.000000 0.351226 0.000000
1.000000 0.351226 0.000000
1.000000 0.351226 0.000000
0.000000 0.412829 0.000000
0.000032 0.412829 0.000000
0.016171 0.412829 0.000000
0.055488 0.412829 0.000000
0.084393 0.412829 0.000000
0.112621 0.412829 0.000000
0.142344 0.412829 0.000000
0.174603 0.412829 0.000000
0.210708 0.412829 0.000000
0.251437 0.412829 0.000000
0.297952 0.412829 0.000000
0.351226 0.412829 0.000000
0.412829 0.412829 0.000000
0.483445 0.412829 0.000000
0.566373 0.412829 0.000000
0.660489 0.412829 0.000000
0.772543 0.412829 0.000000
0.899394 0.412829 0.000000
1.050637 0.412829 0.000000
1.000000 0.412829 0.000000
1.000000 0.412829 0.000000
1.000000 0.412829 0.000000
1.000000 0.412829 0.000000
1.000000 0.412829 0.000000
1.000000 0.412829 0.000000
1.000000 0.412829 0.000000
1.000000 0.412829 0.000000
1.000000 0.412829 0.000000
1.000000 0.412829 0.000000
1.000000 0.412829 0.000000
1.000000 0.412829 0.000000
1.000000 0.412829 0.000000
0.000000 0.483445 0.000000
0.000032 0.483445 0.000000
0.016171 0.483445 0.000000
0.055488 0.483445 0.000000
0.084393 0.483445 0.000000
0.112621 0.483445 0.000000
0.142344 0.483445 0.000000
0.174603 0.483445 0.000000
0.210708 0.483445 0.000000
0.251437 0.483445 0.000000
0.297952 0.483445 0.000000
0.351226 0.483445 0.000000
0.412829 0.483445 0.000000
0.483445 0.483445 0.000000
0.566373 0.483445 0.000000
0.660489 0.483445 0.000000
0.772543 0.483445 0.000000
0.899394 0.483445 0.000000
1.050637 0.483445 0.000000
1.000000 0.483445 0.000000
1.000000 0.483445 0.000000
1.000000 0.483445 0.000000
1.000000 0.483445 0.000000
1.000000 0.483445 0.000000
1.000000 0.483445 0.000000
1.000000 0.483445 0.000000
1.000000 0.483445 0.000000
1.000000 0.483445 0.000000
1.000000 0.483445 0.000000
1.000000 0.483445 0.000000
1.000000 0.483445 0.000000
1.000000 0.483445 0.000000
0.000000 0.566373 0.000000
0.000032 0.566373 0.000000
0.016171 0.566373 0.000000
0.055488 0.566373 0.000000
0.084393 0.566373 0.000000
0.112621 0.566373 0.000000
0.142344 0.566373 0.000000
0.174603 0.566373 0.000000
0.210708 0.566373 0.000000
0.251437 0.566373 0.000000
0.297952 0.566373 0.000000
0.351226 0.566373 0.000000
0.412829 0.566373 0.000000
0.483445 0.566373 0.000000
0.566373 0.566373 0.000000
0.660489 0.566373 0.000000
0.772543 0.566373 0.000000
0.899394 0.566373 0.000000
1.050637 0.566373 0.000000
1.000000 0.566373 0.000000
1.000000 0.566373 0.000000
1.000000 0.566373 0.000000
1.000000 0.566373 0.000000
1.000000 0.566373 0.000000
1.000000 0.566373 0.000000
1.000000 0.566373 0.000000
1.000000 0.566373 0.000000
1.000000 0.566373 0.000000
1.000000 0.566373 0.000000
1.000000 0.566373 0.000000
1.000000 0.566373 0.000000
1.000000 0.566373 0.000000
0.000000 0.660489 0.000000
0.000032 0.660489 0.000000
0.016171 0.660489 0.000000
0.055488 0.660489 0.000000
0.084393 0.660489 0.000000
0.112621 0.660489 0.000000
0.142344 0.660489 0.000000
0.174603 0.660489 0.000000
0.210708 0.660489 0.000000
0.251437 0.660489 0.000000
0.297952 0.660489 0.000000
0.351226 0.660489 0.000000
0.412829 0.660489 0.000000
0.483445 0.660489 0.000000
0.566373 0.660489 0.000000
0.660489 0.660489 0.000000
0.772543 0.660489 0.000000
0.899394 0.660489 0.000000
1.050637 0.660489 0.000000
1.000000 0.660489 0.000000
1.000000 0.660489 0.000000
1.000000 0.660489 0.000000
1.000000 0.660489 0.000000
1.000000 0.660489 0.000000
1.000000 0.660489 0.000000
1.000000 0.660489 0.000000
1.000000 0.660489 0.000000
1.000000 0.660489 0.000000
1.000000 0.660489 0.000000
1.000000 0.660489 0.000000
1.000000 0.660489 0.000000
1.000000 0.660489 0.000000
0.000000 0.772543 0.000000
0.000032 0.772543 0.000000
0.016171 0.772543 0.000000
0.055488 0.772543 0.000000
0.084393 0.772543 0.000000
0.112621 0.772543 0.000000
0.142344 0.772543 0.000000
0.174603 0.772543 0.000000
0.210708 0.772543 0.000000
0.251437 0.772543 0.000000
0.297952 0.772543 0.000000
0.351226 0.772543 0.000000
0.412829 0.772543 0.000000
0.483445 0.772543 0.000000
0.566373 0.772543 0.000000
0.660489 0.772543 0.000000
0.772543 0.772543 0.000000
0.899394 0.772543 0.000000
1.050637 0.772543 0.000000
1.000000 0.772543 0.000000
1.000000 0.772543 0.000000
1.000000 0.772543 0.000000
1.000000 0.772543 0.000000
1.000000 0.772543 0.000000
1.000000 0.772543 0.000000
1.000000 0.772543 0.000000
1.000000 0.772543 0.000000
1.000000 0.772543 0.000000
1.000000 0.772543 0.000000
1.000000 0.772543 0.000000
1.000000 0.772543 0.000000
1.000000 0.772543 0.000000
0.000000 0.899394 0.000000
0.000032 0.899394 0.000000
0.016171 0.899394 0.000000
0.055488 0.899394 0.000000
0.084393 0.899394 0.000000
0.112621 0.899394 0.000000
0.142344 0.899394 0.000000
0.174603 0.899394 0.000000
0.210708 0.899394 0.000000
0.251437 0.899394 0.000000
0.297952 0.899394 0.000000
0.351226 0.899394 0.000000
0.412829 0.899394 0.000000
0.483445 0.899394 0.000000
0.566373 0.899394 0.000000
0.660489 0.899394 0.000000
0.772543 0.899394 0.000000
0.899394 0.899394 0.000000
1.050637 0.899394 0.000000
1.000000 0.899394 0.000000
1.000000 0.899394 0.000000
1.000000 0.899394 0.000000
1.000000 0.899394 0.000000
1.000000 0.899394 0.000000
1.000000 0.899394 0.000000
1.000000 0.899394 0.000000
1.000000 0.899394 0.000000
1.000000 0.899394 0.000000
1.000000 0.899394 0.000000
1.000000 0.899394 0.000000
1.000000 0.899394 0.000000
1.000000 0.899394 0.000000
0.000000 1.050637 0.000000
0.000032 1.050637 0.000000
0.016171 1.050637 0.000000
0.055488 1.050637 0.000000
0.084393 1.050637 0.000000
0.112621 1.050637 0.000000
0.142344 1.050637 0.000000
0.174603 1.050637 0.000000
0.210708 1.050637 0.000000
0.251437 1.050637 0.000000
0.297952 1.050637 0.000000
0.351226 1.050637 0.000000
0.412829 1.050637 0.000000
0.483445 1.050637 0.000000
0.566373 1.050637 0.000000
0.660489 1.050637 0.000000
0.772543 1.050637 0.000000
0.899394 1.050637 0.000000
1.050637 1.050637 0.000000
1.000000 1.050637 0.000000
1.000000 1.050637 0.000000
1.000000 1.050637 0.000000
1.000000 1.050637 0.000000
1.000000 1.050637 0.000000
1.000000 1.050637 0.000000
1.000000 1.050637 0.000000
1.000000 1.050637 0.000000
1.000000 1.050637 0.000000
1.000000 1.050637 0.000000
1.000000 1.050637 0.000000
1.000000 1.050637 0.000000
1.000000 1.050637 0.000000
0.000000 1.000000 0.000000
0.000032 1.000000 0.000000
0.016171 1.000000 0.000000
0.055488 1.000000 0.000000
0.084393 1.000000 0.000000
0.112621 1.000000 0.000000
0.142344 1.000000 0.000000
0.174603 1.000000 0.000000
0.210708 1.000000 0.000000
0.251437 1.000000 0.000000
0.297952 1.000000 0.000000
0.351226 1.000000 0.000000
0.412829 1.000000 0.000000
0.483445 1.000000 0.000000
0.566373 1.000000 0.000000
0.660489 1.000000 0.000000
0.772543 1.000000 0.000000
0.899394 1.000000 0.000000
1.050637 1.000000 0.000000
1.000000 1.000000 0.000000
1.000000 1.000000 0.000000
1.000000 1.000000 0.000000
1.000000 1.000000 0.000000
1.000000 1.000000 0.000000
1.000000 1.000000 0.000000
1.000000 1.000000 0.000000
1.000000 1.000000 0.000000
1.000000 1.000000 0.000000
1.000000 1.000000 0.000000
1.000000 1.000000 0.000000
1.000000 1.000000 0.000000
1.000000 1.000000 0.000000
0.000000 1.000000 0.000000
0.000032 1.000000 0.000000
0.016171 1.000000 0.000000
0.055488 1.000000 0.000000
0.084393 1.000000 0.000000
0.112621 1.000000 0.000000
0.142344 1.000000 0.000000
0.174603 1.000000 0.000000
0.210708 1.000000 0.000000
0.251437 1.000000 0.000000
0.297952 1.000000 0.000000
0.351226 1.000000 0.000000
0.412829 1.000000 0.000000
0.483445 1.000000 0.000000
0.566373 1.000000 0.000000
0.660489 1.000000 0.000000
0.772543 1.000000 0.000000
0.899394 1.000000 0.000000
1.050637 1.000000 0.000000
1.000000 1.000000 0.000000
1.000000 1.000000 0.000000
1.000000 1.000000 0.000000
1.000000 1.000000 0.000000
1.000000 1.000000 0.000000
1.000000 1.000000 0.000000
1.000000 1.000000 0.000000
1.000000 1.000000 0.000000
1.000000 1.000000 0.000000
1.000000 1.000000 0.000000
1.000000 1.000000 0.000000
1.000000 1.000000 0.000000
1.000000 1.000000 0.000000
0.000000 1.000000 0.000000
0.000032 1.000000 0.000000
0.016171 1.000000 0.000000
0.055488 1.000000 0.000000
0.084393 1.000000 0.000000
0.112621 1.000000 0.000000
0.142344 1.000000 0.000000
0.174603 1.000000 0.000000
0.210708 1.000000 0.000000
0.251437 1.000000 0.000000
0.297952 1.000000 0.000000
0.351226 1.000000 0.000000
0.412829 1.000000 0.000000
0.483445 1.000000 0.000000
0.566373 1.000000 0.000000
0.660489 1.000000 0.000000
0.772543 1.000000 0.000000
0.899394 1.000000 0.000000
1.050637 1.000000 0.000000
1.000000 1.000000 0.000000
1.000000 1.000000 0.000000
1.000000 1.000000 0.000000
1.000000 1.000000 0.000000
1.000000 1.000000 0.000000
1.000000 1.000000 0.000000
1.000000 1.000000 0.000000
1.000000 1.000000 0.000000
1.000000 1.000000 0.000000
1.000000 1.000000 0.000000
1.000000 1.000000 0.000000
1.000000 1.000000 0.000000
1.000000 1.000000 0.000000
0.000000 1.000000 0.000000
0.000032 1.000000 0.000000
0.016171 1.000000 0.000000
0.055488 1.000000 0.000000
0.084393 1.000000 0.000000
0.112621 1.000000 0.000000
0.142344 1.000000 0.000000
0.174603 1.000000 0.000000
0.210708 1.000000 0.000000
0.251437 1.000000 0.000000
0.297952 1.000000 0.000000
0.351226 1.000000 0.000000
0.412829 1.000000 0.000000
0.483445 1.000000 0.000000
0.566373 1.000000 0.000000
0.660489 1.000000 0.000000
0.772543 1.000000 0.000000
0.899394 1.000000 0.000000
1.050637 1.000000 0.000000
1.000000 1.000000 0.000000
1.000000 1.000000 0.000000
1.000000 1.000000 0.000000
1.000000 1.000000 0.000000
1.000000 1.000000 0.000000
1.000000 1.000000 0.000000
1.000000 1.000000 0.000000
1.000000 1.000000 0.000000
1.000000 1.000000 0.000000
1.000000 1.000000 0.000000
1.000000 1.000000 0.000000
1.000000 1.000000 0.000000
1.000000 1.000000 0.000000
0.000000 1.000000 0.000000
0.000032 1.000000 0.000000
0.016171 1.000000 0.000000
0.055488 1.000000 0.000000
0.084393 1.000000 0.000000
0.112621 1.000000 0.000000
0.142344 1.000000 0.000000
0.174603 1.000000 0.000000
0.210708 1.000000 0.000000
0.251437 1.000000 0.000000
0.297952 1.000000 0.000000
0.351226 1.000000 0.000000
0.412829 1.000000 0.000000
0.483445 1.000000 0.000000
0.566373 1.000000 0.000000
0.660489 1.000000 0.000000
0.772543 1.000000 0.000000
0.899394 1.000000 0.000000
1.050637 1.000000 0.000000
1.000000 1.000000 0.000000
1.000000 1.000000 0.000000
1.000000 1.000000 0.000000
1.000000 1.000000 0.000000
1.000000 1.000000 0.000000
1.000000 1.000000 0.000000
1.000000 1.000000 0.000000
1.000000 1.000000 0.000000
1.000000 1.000000 0.000000
1.000000 1.000000 0.000000
1.000000 1.000000 0.000000
1.000000 1.000000 0.000000
1.000000 1.000000 0.000000
0.000000 1.000000 0.000000
0.000032 1.000000 0.000000
0.016171 1.000000 0.000000
0.055488 1.000000 0.000000
0.084393 1.000000 0.000000
0.112621 1.000000 0.000000
0.142344 1.000000 0.000000
0.174603 1.000000 0.000000
0.210708 1.000000 0.000000
0.251437 1.000000 0.000000
0.297952 1.000000 0.000000
0.351226 1.000000 0.000000
0.412829 1.000000 0.000000
0.483445 1.000000 0.000000
0.566373 1.000000 0.000000
0.660489 1.000000 0.000000
0.772543 1.000000 0.000000
0.899394 1.000000 0.000000
1.050637 1.000000 0.000000
1.000000 1.000000 0.000000
1.000000 1.000000 0.000000
1.000000 1.000000 0.000000
1.000000 1.000000 0.000000
1.000000 1.000000 0.000000
1.000000 1.000000 0.000000
1.000000 1.000000 0.000000
1.000000 1.000000 0.000000
1.000000 1.000000 0.000000
1.000000 1.000000 0.000000
1.000000 1.000000 0.000000
1.000000 1.000000 0.000000
1.000000 1.000000 0.000000
0.000000 1.000000 0.000000
0.000032 1.000000 0.000000
0.016171 1.000000 0.000000
0.055488 1.000000 0.000000
0.084393 1.000000 0.000000
0.112621 1.000000 0.000000
0.142344 1.000000 0.000000
0.174603 1.000000 0.000000
0.210708 1.000000 0.000000
0.251437 1.000000 0.000000
0.297952 1.000000 0.000000
0.351226 1.000000 0.000000
0.412829 1.000000 0.000000
0.483445 1.000000 0.000000
0.566373 1.000000 0.000000
0.660489 1.000000 0.000000
0.772543 1.000000 0.000000
0.899394 1.000000 0.000000
1.050637 1.000000 0.000000
1.000000 1.000000 0.000000
1.000000 1.000000 0.000000
1.000000 1.000000 0.000000
1.000000 1.000000 0.000000
1.000000 1.000000 0.000000
1.000000 1.000000 0.000000
1.000000 1.000000 0.000000
1.000000 1.000000 0.000000
1.000000 1.000000 0.000000
1.000000 1.000000 0.000000
1.000000 1.000000 0.000000
1.000000 1.000000 0.000000
1.000000 1.000000 0.000000
0.000000 1.000000 0.000000
0.000032 1.000000 0.000000
0.016171 1.000000 0.000000
0.055488 1.000000 0.000000
0.084393 1.000000 0.000000
0.112621 1.000000 0.000000
0.142344 1.000000 0.000000
0.174603 1.000000 0.000000
0.210708 1.000000 0.000000
0.251437 1.000000 0.000000
0.297952 1.000000 0.000000
0.351226 1.000000 0.000000
0.412829 1.000000 0.000000
0.483445 1.000000 0.000000
0.566373 1.000000 0.000000
0.660489 1.000000 0.000000
0.772543 1.000000 0.000000
0.899394 1.000000 0.000000
1.050637 1.000000 0.000000
1.000000 1.000000 0.000000
1.000000 1.000000 0.000000
1.000000 1.000000 0.000000
1.000000 1.000000 0.000000
1.000000 1.000000 0.000000
1.000000 1.000000 0.000000
1.000000 1.000000 0.000000
1.000000 1.000000 0.000000
1.000000 1.000000 0.000000
1.000000 1.000000 0.000000
1.000000 1.000000 0.000000
1.000000 1.000000 0.000000
1.000000 1.000000 0.000000
0.000000 1.000000 0.000000
0.000032 1.000000 0.000000
0.016171 1.000000 0.000000
0.055488 1.000000 0.000000
0.084393 1.000000 0.000000
0.112621 1.000000 0.000000
0.142344 1.000000 0.000000
0.174603 1.000000 0.000000
0.210708 1.000000 0.000000
0.251437 1.000000 0.000000
0.297952 1.000000 0.000000
0.351226 1.000000 0.000000
0.412829 1.000000 0.000000
0.483445 1.000000 0.000000
0.566373 1.000000 0.000000
0.660489 1.000000 0.000000
0.772543 1.000000 0.000000
0.899394 1.000000 0.000000
1.050637 1.000000 0.000000
1.000000 1.000000 0.000000
1.000000 1.000000 0.000000
