tests/cube/square.cube
TITLE "cube/square.cube"
LUT_3D_SIZE 32
DOMAIN_MIN 0.0 0.0 0.0
DOMAIN_MAX 1.0 1.0 1.0
0.000000 0.000000 0.000000
0.000000 0.000000 0.000000
0.000000 0.000000 0.000000
0.000009 0.000000 0.000000
0.000051 0.000000 0.000000
0.000161 0.000000 0.000000
0.000411 0.000000 0.000000
0.000929 0.000000 0.000000
0.001971 0.000000 0.000000
0.003997 0.000000 0.000000
0.007881 0.000000 0.000000
0.015218 0.000000 0.000000
0.029046 0.000000 0.000000
0.054625 0.000000 0.000000
0.102899 0.000000 0.000000
0.190310 0.000000 0.000000
0.356197 0.000000 0.000000
0.654334 0.000000 0.000000
1.218461 0.000000 0.000000
1.000000 0.000000 0.000000
1.000000 0.000000 0.000000
1.000000 0.000000 0.000000
1.000000 0.000000 0.000000
1.000000 0.000000 0.000000
1.000000 0.000000 0.000000
1.000000 0.000000 0.000000
1.000000 0.000000 0.000000
1.000000 0.000000 0.000000
1.000000 0.000000 0.000000
1.000000 0.000000 0.000000
1.000000 0.000000 0.000000
1.000000 0.000000 0.000000
0.000000 0.000000 0.000000
0.000000 0.000000 0.000000
0.000000 0.000000 0.000000
0.000009 0.000000 0.000000
0.000051 0.000000 0.000000
0.000161 0.000000 0.000000
0.000411 0.000000 0.000000
0.000929 0.000000 0.000000
0.001971 0.000000 0.000000
0.003997 0.000000 0.000000
0.007881 0.000000 0.000000
0.015218 0.000000 0.000000
0.029046 0.000000 0.000000
0.054625 0.000000 0.000000
0.102899 0.000000 0.000000
0.190310 0.000000 0.000000
0.356197 0.000000 0.000000
0.654334 0.000000 0.000000
1.218461 0.000000 0.000000
1.000000 0.000000 0.000000
1.000000 0.000000 0.000000
1.000000 0.000000 0.000000
1.000000 0.000000 0.000000
1.000000 0.000000 0.000000
1.000000 0.000000 0.000000
1.000000 0.000000 0.000000
1.000000 0.000000 0.000000
1.000000 0.000000 0.000000
1.000000 0.000000 0.000000
1.000000 0.000000 0.000000
1.000000 0.000000 0.000000
1.000000 0.000000 0.000000
0.000000 0.000000 0.000000
0.000000 0.000000 0.000000
0.000000 0.000000 0.000000
0.000009 0.000000 0.000000
0.000051 0.000000 0.000000
0.000161 0.000000 0.000000
0.000411 0.000000 0.000000
0.000929 0.000000 0.000000
0.001971 0.000000 0.000000
0.003997 0.000000 0.000000
0.007881 0.000000 0.000000
0.015218 0.000000 0.000000
0.029046 0.000000 0.000000
0.054625 0.000000 0.000000
0.102899 0.000000 0.000000
0.190310 0.000000 0.000000
0.356197 0.000000 0.000000
0.654334 0.000000 0.000000
1.218461 0.000000 0.000000
1.000000 0.000000 0.000000
1.000000 0.000000 0.000000
1.000000 0.000000 0.000000
1.000000 0.000000 0.000000
1.000000 0.000000 0.000000
1.000000 0.000000 0.000000
1.000000 0.000000 0.000000
1.000000 0.000000 0.000000
1.000000 0.000000 0.000000
1.000000 0.000000 0.000000
1.000000 0.000000 0.000000
1.000000 0.000000 0.000000
1.000000 0.000000 0.000000
0.000000 0.000009 0.000000
0.000000 0.000009 0.000000
0.000000 0.000009 0.000000
0.000009 0.000009 0.000000
0.000051 0.000009 0.000000
0.000161 0.000009 0.000000
0.000411 0.000009 0.000000
0.000929 0.000009 0.000000
0.001971 0.000009 0.000000
0.003997 0.000009 0.000000
0.007881 0.000009 0.000000
0.015218 0.000009 0.000000
0.029046 0.000009 0.000000
0.054625 0.000009 0.000000
0.102899 0.000009 0.000000
0.190310 0.000009 0.000000
0.356197 0.000009 0.000000
0.654334 0.000009 0.000000
1.218461 0.000009 0.000000
1.000000 0.000009 0.000000
1.000000 0.000009 0.000000
1.000000 0.000009 0.000000
1.000000 0.000009 0.000000
1.000000 0.000009 0.000000
1.000000 0.000009 0.000000
1.000000 0.000009 0.000000
1.000000 0.000009 0.000000
1.000000 0.000009 0.000000
1.000000 0.000009 0.000000
1.000000 0.000009 0.000000
1.000000 0.000009 0.000000
1.000000 0.000009 0.000000
0.000000 0.000051 0.000000
0.000000 0.000051 0.000000
0.000000 0.000051 0.000000
0.000009 0.000051 0.000000
0.000051 0.000051 0.000000
0.000161 0.000051 0.000000
0.000411 0.000051 0.000000
0.000929 0.000051 0.000000
0.001971 0.000051 0.000000
0.003997 0.000051 0.000000
0.007881 0.000051 0.000000
0.015218 0.000051 0.000000
0.029046 0.000051 0.000000
0.054625 0.000051 0.000000
0.102899 0.000051 0.000000
0.190310 0.000051 0.000000
0.356197 0.000051 0.000000
0.654334 0.000051 0.000000
1.218461 0.000051 0.000000
1.000000 0.000051 0.000000
1.000000 0.000051 0.000000
1.000000 0.000051 0.000000
1.000000 0.000051 0.000000
1.000000 0.000051 0.000000
1.000000 0.000051 0.000000
1.000000 0.000051 0.000000
1.000000 0.000051 0.000000
1.000000 0.000051 0.000000
1.000000 0.000051 0.000000
1.000000 0.000051 0.000000
1.000000 0.000051 0.000000
1.000000 0.000051 0.000000
0.000000 0.000161 0.000000
0.000000 0.000161 0.000000
0.000000 0.000161 0.000000
0.000009 0.000161 0.000000
0.000051 0.000161 0.000000
0.000161 0.000161 0.000000
0.000411 0.000161 0.000000
0.000929 0.000161 0.000000
0.001971 0.000161 0.000000
0.003997 0.000161 0.000000
0.007881 0.000161 0.000000
0.015218 0.000161 0.000000
0.029046 0.000161 0.000000
0.054625 0.000161 0.000000
0.102899 0.000161 0.000000
0.190310 0.000161 0.000000
0.356197 0.000161 0.000000
0.654334 0.000161 0.000000
1.218461 0.000161 0.000000
1.000000 0.000161 0.000000
1.000000 0.000161 0.000000
1.000000 0.000161 0.000000
1.000000 0.000161 0.000000
1.000000 0.000161 0.000000
1.000000 0.000161 0.000000
1.000000 0.000161 0.000000
1.000000 0.000161 0.000000
1.000000 0.000161 0.000000
1.000000 0.000161 0.000000
1.000000 0.000161 0.000000
1.000000 0.000161 0.000000
1.000000 0.000161 0.000000
0.000000 0.000411 0.000000
0.000000 0.000411 0.000000
0.000000 0.000411 0.000000
0.000009 0.000411 0.000000
0.000051 0.000411 0.000000
0.000161 0.000411 0.000000
0.000411 0.000411 0.000000
0.000929 0.000411 0.000000
0.001971 0.000411 0.000000
0.003997 0.000411 0.000000
0.007881 0.000411 0.000000
0.015218 0.000411 0.000000
0.029046 0.000411 0.000000
0.054625 0.000411 0.000000
0.102899 0.000411 0.000000
0.190310 0.000411 0.000000
0.356197 0.000411 0.000000
0.654334 0.000411 0.000000
1.218461 0.000411 0.000000
1.000000 0.000411 0.000000
1.000000 0.000411 0.000000
1.000000 0.000411 0.000000
1.000000 0.000411 0.000000
1.000000 0.000411 0.000000
1.000000 0.000411 0.000000
1.000000 0.000411 0.000000
1.000000 0.000411 0.000000
1.000000 0.000411 0.000000
1.000000 0.000411 0.000000
1.000000 0.000411 0.000000
1.000000 0.000411 0.000000
1.000000 0.000411 0.000000
0.000000 0.000929 0.000000
0.000000 0.000929 0.000000
0.000000 0.000929 0.000000
0.000009 0.000929 0.000000
0.000051 0.000929 0.000000
0.000161 0.000929 0.000000
0.000411 0.000929 0.000000
0.000929 0.000929 0.000000
0.001971 0.000929 0.000000
0.003997 0.000929 0.000000
0.007881 0.000929 0.000000
0.015218 0.000929 0.000000
0.029046 0.000929 0.000000
0.054625 0.000929 0.000000
0.102899 0.000929 0.000000
0.190310 0.000929 0.000000
0.356197 0.000929 0.000000
0.654334 0.000929 0.000000
1.218461 0.000929 0.000000
1.000000 0.000929 0.000000
1.000000 0.000929 0.000000
1.000000 0.000929 0.000000
1.000000 0.000929 0.000000
1.000000 0.000929 0.000000
1.000000 0.000929 0.000000
1.000000 0.000929 0.000000
1.000000 0.000929 0.000000
1.000000 0.000929 0.000000
1.000000 0.000929 0.000000
1.000000 0.000929 0.000000
1.000000 0.000929 0.000000
1.000000 0.000929 0.000000
0.000000 0.001971 0.000000
0.000000 0.001971 0.000000
0.000000 0.001971 0.000000
0.000009 0.001971 0.000000
0.000051 0.001971 0.000000
0.000161 0.001971 0.000000
0.000411 0.001971 0.000000
0.000929 0.001971 0.000000
0.001971 0.001971 0.000000
0.003997 0.001971 0.000000
0.007881 0.001971 0.000000
0.015218 0.001971 0.000000
0.029046 0.001971 0.000000
0.054625 0.001971 0.000000
0.102899 0.001971 0.000000
0.190310 0.001971 0.000000
0.356197 0.001971 0.000000
0.654334 0.001971 0.000000
1.218461 0.001971 0.000000
1.000000 0.001971 0.000000
1.000000 0.001971 0.000000
1.000000 0.001971 0.000000
1.000000 0.001971 0.000000
1.000000 0.001971 0.000000
1.000000 0.001971 0.000000
1.000000 0.001971 0.000000
1.000000 0.001971 0.000000
1.000000 0.001971 0.000000
1.000000 0.001971 0.000000
1.000000 0.001971 0.000000
1.000000 0.001971 0.000000
1.000000 0.001971 0.000000
0.000000 0.003997 0.000000
0.000000 0.003997 0.000000
0.000000 0.003997 0.000000
0.000009 0.003997 0.000000
0.000051 0.003997 0.000000
0.000161 0.003997 0.000000
0.000411 0.003997 0.000000
0.000929 0.003997 0.000000
0.001971 0.003997 0.000000
0.003997 0.003997 0.000000
0.007881 0.003997 0.000000
0.015218 0.003997 0.000000
0.029046 0.003997 0.000000
0.054625 0.003997 0.000000
0.102899 0.003997 0.000000
0.190310 0.003997 0.000000
0.356197 0.003997 0.000000
0.654334 0.003997 0.000000
1.218461 0.003997 0.000000
1.000000 0.003997 0.000000
1.000000 0.003997 0.000000
1.000000 0.003997 0.000000
1.000000 0.003997 0.000000
1.000000 0.003997 0.000000
1.000000 0.003997 0.000000
1.000000 0.003997 0.000000
1.000000 0.003997 0.000000
1.000000 0.003997 0.000000
1.000000 0.003997 0.000000
1.000000 0.003997 0.000000
1.000000 0.003997 0.000000
1.000000 0.003997 0.000000
0.000000 0.007881 0.000000
0.000000 0.007881 0.000000
0.000000 0.007881 0.000000
0.000009 0.007881 0.000000
0.000051 0.007881 0.000000
0.000161 0.007881 0.000000
0.000411 0.007881 0.000000
0.000929 0.007881 0.000000
0.001971 0.007881 0.000000
0.003997 0.007881 0.000000
0.007881 0.007881 0.000000
0.015218 0.007881 0.000000
0.029046 0.007881 0.000000
0.054625 0.007881 0.000000
0.102899 0.007881 0.000000
0.190310 0.007881 0.000000
0.356197 0.007881 0.000000
0.654334 0.007881 0.000000
1.218461 0.007881 0.000000
1.000000 0.007881 0.000000
1.000000 0.007881 0.000000
1.000000 0.007881 0.000000
1.000000 0.007881 0.000000
1.000000 0.007881 0.000000
1.000000 0.007881 0.000000
1.000000 0.007881 0.000000
1.000000 0.007881 0.000000
1.000000 0.007881 0.000000
1.000000 0.007881 0.000000
1.000000 0.007881 0.000000
1.000000 0.007881 0.000000
1.000000 0.007881 0.000000
0.000000 0.015218 0.000000
0.000000 0.015218 0.000000
0.000000 0.015218 0.000000
0.000009 0.015218 0.000000
0.000051 0.015218 0.000000
0.000161 0.015218 0.000000
0.000411 0.015218 0.000000
0.000929 0.015218 0.000000
0.001971 0.015218 0.000000
0.003997 0.015218 0.000000
0.007881 0.015218 0.000000
0.015218 0.015218 0.000000
0.029046 0.015218 0.000000
0.054625 0.015218 0.000000
0.102899 0.015218 0.000000
0.190310 0.015218 0.000000
0.356197 0.015218 0.000000
0.654334 0.015218 0.000000
1.218461 0.015218 0.000000
1.000000 0.015218 0.000000
1.000000 0.015218 0.000000
1.000000 0.015218 0.000000
1.000000 0.015218 0.000000
1.000000 0.015218 0.000000
1.000000 0.015218 0.000000
1.000000 0.015218 0.000000
1.000000 0.015218 0.000000
1.000000 0.015218 0.000000
1.000000 0.015218 0.000000
1.000000 0.015218 0.000000
1.000000 0.015218 0.000000
1.000000 0.015218 0.000000
0.000000 0.029046 0.000000
0.000000 0.029046 0.000000
0.000000 0.029046 0.000000
0.000009 0.029046 0.000000
0.000051 0.029046 0.000000
0.000161 0.029046 0.000000
0.000411 0.029046 0.000000
0.000929 0.029046 0.000000
0.001971 0.029046 0.000000
0.003997 0.029046 0.000000
0.007881 0.029046 0.000000
0.015218 0.029046 0.000000
0.029046 0.029046 0.000000
0.054625 0.029046 0.000000
0.102899 0.029046 0.000000
0.190310 0.029046 0.000000
0.356197 0.029046 0.000000
0.654334 0.029046 0.000000
1.218461 0.029046 0.000000
1.000000 0.029046 0.000000
1.000000 0.029046 0.000000
1.000000 0.029046 0.000000
1.000000 0.029046 0.000000
1.000000 0.029046 0.000000
1.000000 0.029046 0.000000
1.000000 0.029046 0.000000
1.000000 0.029046 0.000000
1.000000 0.029046 0.000000
1.000000 0.029046 0.000000
1.000000 0.029046 0.000000
1.000000 0.029046 0.000000
1.000000 0.029046 0.000000
0.000000 0.054625 0.000000
0.000000 0.054625 0.000000
0.000000 0.054625 0.000000
0.000009 0.054625 0.000000
0.000051 0.054625 0.000000
0.000161 0.054625 0.000000
0.000411 0.054625 0.000000
0.000929 0.054625 0.000000
0.001971 0.054625 0.000000
0.003997 0.054625 0.000000
0.007881 0.054625 0.000000
0.015218 0.054625 0.000000
0.029046 0.054625 0.000000
0.054625 0.054625 0.000000
0.102899 0.054625 0.000000
0.190310 0.054625 0.000000
0.356197 0.054625 0.000000
0.654334 0.054625 0.000000
1.218461 0.054625 0.000000
1.000000 0.054625 0.000000
1.000000 0.054625 0.000000
1.000000 0.054625 0.000000
1.000000 0.054625 0.000000
1.000000 0.054625 0.000000
1.000000 0.054625 0.000000
1.000000 0.054625 0.000000
1.000000 0.054625 0.000000
1.000000 0.054625 0.000000
1.000000 0.054625 0.000000
1.000000 0.054625 0.000000
1.000000 0.054625 0.000000
1.000000 0.054625 0.000000
0.000000 0.102899 0.000000
0.000000 0.102899 0.000000
0.000000 0.102899 0.000000
0.000009 0.102899 0.000000
0.000051 0.102899 0.000000
0.000161 0.102899 0.000000
0.000411 0.102899 0.000000
0.000929 0.102899 0.000000
0.001971 0.102899 0.000000
0.003997 0.102899 0.000000
0.007881 0.102899 0.000000
0.015218 0.102899 0.000000
0.029046 0.102899 0.000000
0.054625 0.102899 0.000000
0.102899 0.102899 0.000000
0.190310 0.102899 0.000000
0.356197 0.102899 0.000000
0.654334 0.102899 0.000000
1.218461 0.102899 0.000000
1.000000 0.102899 0.000000
1.000000 0.102899 0.000000
1.000000 0.102899 0.000000
1.000000 0.102899 0.000000
1.000000 0.102899 0.000000
1.000000 0.102899 0.000000
1.000000 0.102899 0.000000
1.000000 0.102899 0.000000
1.000000 0.102899 0.000000
1.000000 0.102899 0.000000
1.000000 0.102899 0.000000
1.000000 0.102899 0.000000
1.000000 0.102899 0.000000
0.000000 0.190310 0.000000
0.000000 0.190310 0.000000
0.000000 0.190310 0.000000
0.000009 0.190310 0.000000
0.000051 0.190310 0.000000
0.000161 0.190310 0.000000
0.000411 0.190310 0.000000
0.000929 0.190310 0.000000
0.001971 0.190310 0.000000
0.003997 0.190310 0.000000
0.007881 0.190310 0.000000
0.015218 0.190310 0.000000
0.029046 0.190310 0.000000
0.054625 0.190310 0.000000
0.102899 0.190310 0.000000
0.190310 0.190310 0.000000
0.356197 0.190310 0.000000
0.654334 0.190310 0.000000
1.218461 0.190310 0.000000
1.000000 0.190310 0.000000
1.000000 0.190310 0.000000
1.000000 0.190310 0.000000
1.000000 0.190310 0.000000
1.000000 0.190310 0.000000
1.000000 0.190310 0.000000
1.000000 0.190310 0.000000
1.000000 0.190310 0.000000
1.000000 0.190310 0.000000
1.000000 0.190310 0.000000
1.000000 0.190310 0.000000
1.000000 0.190310 0.000000
1.000000 0.190310 0.000000
0.000000 0.356197 0.000000
0.000000 0.356197 0.000000
0.000000 0.356197 0.000000
0.000009 0.356197 0.000000
0.000051 0.356197 0.000000
0.000161 0.356197 0.000000
0.000411 0.356197 0.000000
0.000929 0.356197 0.000000
0.001971 0.356197 0.000000
0.003997 0.356197 0.000000
0.007881 0.356197 0.000000
0.015218 0.356197 0.000000
0.029046 0.356197 0.000000
0.054625 0.356197 0.000000
0.102899 0.356197 0.000000
0.190310 0.356197 0.000000
0.356197 0.356197 0.000000
0.654334 0.356197 0.000000
1.218461 0.356197 0.000000
1.000000 0.356197 0.000000
1.000000 0.356197 0.000000
1.000000 0.356197 0.000000
1.000000 0.356197 0.000000
1.000000 0.356197 0.000000
1.000000 0.356197 0.000000
1.000000 0.356197 0.000000
1.000000 0.356197 0.000000
1.000000 0.356197 0.000000
1.000000 0.356197 0.000000
1.000000 0.356197 0.000000
1.000000 0.356197 0.000000
1.000000 0.356197 0.000000
0.000000 0.654334 0.000000
0.000000 0.654334 0.000000
0.000000 0.654334 0.000000
0.000009 0.654334 0.000000
0.000051 0.654334 0.000000
0.000161 0.654334 0.000000
0.000411 0.654334 0.000000
0.000929 0.654334 0.000000
0.001971 0.654334 0.000000
0.003997 0.654334 0.000000
0.007881 0.654334 0.000000
0.015218 0.654334 0.000000
0.029046 0.654334 0.000000
0.054625 0.654334 0.000000
0.102899 0.654334 0.000000
0.190310 0.654334 0.000000
0.356197 0.654334 0.000000
0.654334 0.654334 0.000000
1.218461 0.654334 0.000000
1.000000 0.654334 0.000000
1.000000 0.654334 0.000000
1.000000 0.654334 0.000000
1.000000 0.654334 0.000000
1.000000 0.654334 0.000000
1.000000 0.654334 0.000000
1.000000 0.654334 0.000000
1.000000 0.654334 0.000000
1.000000 0.654334 0.000000
1.000000 0.654334 0.000000
1.000000 0.654334 0.000000
1.000000 0.654334 0.000000
1.000000 0.654334 0.000000
0.000000 1.218461 0.000000
0.000000 1.218461 0.000000
0.000000 1.218461 0.000000
0.000009 1.218461 0.000000
0.000051 1.218461 0.000000
0.000161 1.218461 0.000000
0.000411 1.218461 0.000000
0.000929 1.218461 0.000000
0.001971 1.218461 0.000000
0.003997 1.218461 0.000000
0.007881 1.218461 0.000000
0.015218 1.218461 0.000000
0.029046 1.218461 0.000000
0.054625 1.218461 0.000000
0.102899 1.218461 0.000000
0.190310 1.218461 0.000000
0.356197 1.218461 0.000000
0.654334 1.218461 0.000000
1.218461 1.218461 0.000000
1.000000 1.218461 0.000000
1.000000 1.218461 0.000000
1.000000 1.218461 0.000000
1.000000 1.218461 0.000000
1.000000 1.218461 0.000000
1.000000 1.218461 0.000000
1.000000 1.218461 0.000000
1.000000 1.218461 0.000000
1.000000 1.218461 0.000000
1.000000 1.218461 0.000000
1.000000 1.218461 0.000000
1.000000 1.218461 0.000000
1.000000 1.218461 0.000000
0.000000 1.000000 0.000000
0.000000 1.000000 0.000000
0.000000 1.000000 0.000000
0.000009 1.000000 0.000000
0.000051 1.000000 0.000000
0.000161 1.000000 0.000000
0.000411 1.000000 0.000000
0.000929 1.000000 0.000000
0.001971 1.000000 0.000000
0.003997 1.000000 0.000000
0.007881 1.000000 0.000000
0.015218 1.000000 0.000000
0.029046 1.000000 0.000000
0.054625 1.000000 0.000000
0.102899 1.000000 0.000000
0.190310 1.000000 0.000000
0.356197 1.000000 0.000000
0.654334 1.000000 0.000000
1.218461 1.000000 0.000000
1.000000 1.000000 0.000000
1.000000 1.000000 0.000000
1.000000 1.000000 0.000000
1.000000 1.000000 0.000000
1.000000 1.000000 0.000000
1.000000 1.000000 0.000000
1.000000 1.000000 0.000000
1.000000 1.000000 0.000000
1.000000 1.000000 0.000000
1.000000 1.000000 0.000000
1.000000 1.000000 0.000000
1.000000 1.000000 0.000000
1.000000 1.000000 0.000000
0.000000 1.000000 0.000000
0.000000 1.000000 0.000000
0.000000 1.000000 0.000000
0.000009 1.000000 0.000000
0.000051 1.000000 0.000000
0.000161 1.000000 0.000000
0.000411 1.000000 0.000000
0.000929 1.000000 0.000000
0.001971 1.000000 0.000000
0.003997 1.000000 0.000000
0.007881 1.000000 0.000000
0.015218 1.000000 0.000000
0.029046 1.000000 0.000000
0.054625 1.000000 0.000000
0.102899 1.000000 0.000000
0.190310 1.000000 0.000000
0.356197 1.000000 0.000000
0.654334 1.000000 0.000000
1.218461 1.000000 0.000000
1.000000 1.000000 0.000000
1.000000 1.000000 0.000000
1.000000 1.000000 0.000000
1.000000 1.000000 0.000000
1.000000 1.000000 0.000000
1.000000 1.000000 0.000000
1.000000 1.000000 0.000000
1.000000 1.000000 0.000000
1.000000 1.000000 0.000000
1.000000 1.000000 0.000000
1.000000 1.000000 0.000000
1.000000 1.000000 0.000000
1.000000 1.000000 0.000000
0.000000 1.000000 0.000000
0.000000 1.000000 0.000000
0.000000 1.000000 0.000000
0.000009 1.000000 0.000000
0.000051 1.000000 0.000000
0.000161 1.000000 0.000000
0.000411 1.000000 0.000000
0.000929 1.000000 0.000000
0.001971 1.000000 0.000000
0.003997 1.000000 0.000000
0.007881 1.000000 0.000000
0.015218 1.000000 0.000000
0.029046 1.000000 0.000000
0.054625 1.000000 0.000000
0.102899 1.000000 0.000000
0.190310 1.000000 0.000000
0.356197 1.000000 0.000000
0.654334 1.000000 0.000000
1.218461 1.000000 0.000000
1.000000 1.000000 0.000000
1.000000 1.000000 0.000000
1.000000 1.000000 0.000000
1.000000 1.000000 0.000000
1.000000 1.000000 0.000000
1.000000 1.000000 0.000000
1.000000 1.000000 0.000000
1.000000 1.000000 0.000000
1.000000 1.000000 0.000000
1.000000 1.000000 0.000000
1.000000 1.000000 0.000000
1.000000 1.000000 0.000000
1.000000 1.000000 0.000000
0.000000 1.000000 0.000000
0.000000 1.000000 0.000000
0.000000 1.000000 0.000000
0.000009 1.000000 0.000000
0.000051 1.000000 0.000000
0.000161 1.000000 0.000000
0.000411 1.000000 0.000000
0.000929 1.000000 0.000000
0.001971 1.000000 0.000000
0.003997 1.000000 0.000000
0.007881 1.000000 0.000000
0.015218 1.000000 0.000000
0.029046 1.000000 0.000000
0.054625 1.000000 0.000000
0.102899 1.000000 0.000000
0.190310 1.000000 0.000000
0.356197 1.000000 0.000000
0.654334 1.000000 0.000000
1.218461 1.000000 0.000000
1.000000 1.000000 0.000000
1.000000 1.000000 0.000000
1.000000 1.000000 0.000000
1.000000 1.000000 0.000000
1.000000 1.000000 0.000000
1.000000 1.000000 0.000000
1.000000 1.000000 0.000000
1.000000 1.000000 0.000000
1.000000 1.000000 0.000000
1.000000 1.000000 0.000000
1.000000 1.000000 0.000000
1.000000 1.000000 0.000000
1.000000 1.000000 0.000000
0.000000 1.000000 0.000000
0.000000 1.000000 0.000000
0.000000 1.000000 0.000000
0.000009 1.000000 0.000000
0.000051 1.000000 0.000000
0.000161 1.000000 0.000000
0.000411 1.000000 0.000000
0.000929 1.000000 0.000000
0.001971 1.000000 0.000000
0.003997 1.000000 0.000000
0.007881 1.000000 0.000000
0.015218 1.000000 0.000000
0.029046 1.000000 0.000000
0.054625 1.000000 0.000000
0.102899 1.000000 0.000000
0.190310 1.000000 0.000000
0.356197 1.000000 0.000000
0.654334 1.000000 0.000000
1.218461 1.000000 0.000000
1.000000 1.000000 0.000000
1.000000 1.000000 0.000000
1.000000 1.000000 0.000000
1.000000 1.000000 0.000000
1.000000 1.000000 0.000000
1.000000 1.000000 0.000000
1.000000 1.000000 0.000000
1.000000 1.000000 0.000000
1.000000 1.000000 0.000000
1.000000 1.000000 0.000000
1.000000 1.000000 0.000000
1.000000 1.000000 0.000000
1.000000 1.000000 0.000000
0.000000 1.000000 0.000000
0.000000 1.000000 0.000000
0.000000 1.000000 0.000000
0.000009 1.000000 0.000000
0.000051 1.000000 0.000000
0.000161 1.000000 0.000000
0.000411 1.000000 0.000000
0.000929 1.000000 0.000000
0.001971 1.000000 0.000000
0.003997 1.000000 0.000000
0.007881 1.000000 0.000000
0.015218 1.000000 0.000000
0.029046 1.000000 0.000000
0.054625 1.000000 0.000000
0.102899 1.000000 0.000000
0.190310 1.000000 0.000000
0.356197 1.000000 0.000000
0.654334 1.000000 0.000000
1.218461 1.000000 0.000000
1.000000 1.000000 0.000000
1.000000 1.000000 0.000000
1.000000 1.000000 0.000000
1.000000 1.000000 0.000000
1.000000 1.000000 0.000000
1.000000 1.000000 0.000000
1.000000 1.000000 0.000000
1.000000 1.000000 0.000000
1.000000 1.000000 0.000000
1.000000 1.000000 0.000000
1.000000 1.000000 0.000000
1.000000 1.000000 0.000000
1.000000 1.000000 0.000000
0.000000 1.000000 0.000000
0.000000 1.000000 0.000000
0.000000 1.000000 0.000000
0.000009 1.000000 0.000000
0.000051 1.000000 0.000000
0.000161 1.000000 0.000000
0.000411 1.000000 0.000000
0.000929 1.000000 0.000000
0.001971 1.000000 0.000000
0.003997 1.000000 0.000000
0.007881 1.000000 0.000000
0.015218 1.000000 0.000000
0.029046 1.000000 0.000000
0.054625 1.000000 0.000000
0.102899 1.000000 0.000000
0.190310 1.000000 0.000000
0.356197 1.000000 0.000000
0.654334 1.000000 0.000000
1.218461 1.000000 0.000000
1.000000 1.000000 0.000000
1.000000 1.000000 0.000000
1.000000 1.000000 0.000000
1.000000 1.000000 0.000000
1.000000 1.000000 0.000000
1.000000 1.000000 0.000000
1.000000 1.000000 0.000000
1.000000 1.000000 0.000000
1.000000 1.000000 0.000000
1.000000 1.000000 0.000000
1.000000 1.000000 0.000000
1.000000 1.000000 0.000000
1.000000 1.000000 0.000000
0.000000 1.000000 0.000000
0.000000 1.000000 0.000000
0.000000 1.000000 0.000000
0.000009 1.000000 0.000000
0.000051 1.000000 0.000000
0.000161 1.000000 0.000000
0.000411 1.000000 0.000000
0.000929 1.000000 0.000000
0.001971 1.000000 0.000000
0.003997 1.000000 0.000000
0.007881 1.000000 0.000000
0.015218 1.000000 0.000000
0.029046 1.000000 0.000000
0.054625 1.000000 0.000000
0.102899 1.000000 0.000000
0.190310 1.000000 0.000000
0.356197 1.000000 0.000000
0.654334 1.000000 0.000000
1.218461 1.000000 0.000000
1.000000 1.000000 0.000000
1.000000 1.000000 0.000000
1.000000 1.000000 0.000000
1.000000 1.000000 0.000000
1.000000 1.000000 0.000000
1.000000 1.000000 0.000000
1.000000 1.000000 0.000000
1.000000 1.000000 0.000000
1.000000 1.000000 0.000000
1.000000 1.000000 0.000000
1.000000 1.000000 0.000000
1.000000 1.000000 0.000000
1.000000 1.000000 0.000000
0.000000 1.000000 0.000000
0.000000 1.000000 0.000000
0.000000 1.000000 0.000000
0.000009 1.000000 0.000000
0.000051 1.000000 0.000000
0.000161 1.000000 0.000000
0.000411 1.000000 0.000000
0.000929 1.000000 0.000000
0.001971 1.000000 0.000000
0.003997 1.000000 0.000000
0.007881 1.000000 0.000000
0.015218 1.000000 0.000000
0.029046 1.000000 0.000000
0.054625 1.000000 0.000000
0.102899 1.000000 0.000000
0.190310 1.000000 0.000000
0.356197 1.000000 0.000000
0.654334 1.000000 0.000000
1.218461 1.000000 0.000000
1.000000 1.000000 0.000000
1.000000 1.000000 0.000000
