tests/cube/square_root_max58.cube
TITLE "cube/square_root_max58.cube"
LUT_3D_SIZE 5
DOMAIN_MIN 0.000000 0.000000 0.000000
DOMAIN_MAX 0.903226 0.903226 0.903226
0.000000 0.000000 0.000000
0.023140 0.000000 0.000000
0.075027 0.000000 0.000000
0.218004 0.000000 0.000000
0.633007 0.000000 0.000000
0.000000 0.023140 0.000000
0.023140 0.023140 0.000000
0.075027 0.023140 0.000000
0.218004 0.023140 0.000000
0.633007 0.023140 0.000000
0.000000 0.075027 0.000000
0.023140 0.075027 0.000000
0.075027 0.075027 0.000000
0.218004 0.075027 0.000000
0.633007 0.075027 0.000000
0.000000 0.218004 0.000000
0.023140 0.218004 0.000000
0.075027 0.218004 0.000000
0.218004 0.218004 0.000000
0.633007 0.218004 0.000000
0.000000 0.633007 0.000000
0.023140 0.633007 0.000000
0.075027 0.633007 0.000000
0.218004 0.633007 0.000000
0.633007 0.633007 0.000000
0.000000 0.000000 0.023140
0.023140 0.000000 0.023140
0.075027 0.000000 0.023140
0.218004 0.000000 0.023140
0.633007 0.000000 0.023140
0.000000 0.023140 0.023140
0.023140 0.023140 0.023140
0.075027 0.023140 0.023140
0.218004 0.023140 0.023140
0.633007 0.023140 0.023140
0.000000 0.075027 0.023140
0.023140 0.075027 0.023140
0.075027 0.075027 0.023140
0.218004 0.075027 0.023140
0.633007 0.075027 0.023140
0.000000 0.218004 0.023140
0.023140 0.218004 0.023140
0.075027 0.218004 0.023140
0.218004 0.218004 0.023140
0.633007 0.218004 0.023140
0.000000 0.633007 0.023140
0.023140 0.633007 0.023140
0.075027 0.633007 0.023140
0.218004 0.633007 0.023140
0.633007 0.633007 0.023140
0.000000 0.000000 0.075027
0.023140 0.000000 0.075027
0.075027 0.000000 0.075027
0.218004 0.000000 0.075027
0.633007 0.000000 0.075027
0.000000 0.023140 0.075027
0.023140 0.023140 0.075027
0.075027 0.023140 0.075027
0.218004 0.023140 0.075027
0.633007 0.023140 0.075027
0.000000 0.075027 0.075027
0.023140 0.075027 0.075027
0.075027 0.075027 0.075027
0.218004 0.075027 0.075027
0.633007 0.075027 0.075027
0.000000 0.218004 0.075027
0.023140 0.218004 0.075027
0.075027 0.218004 0.075027
0.218004 0.218004 0.075027
0.633007 0.218004 0.075027
0.000000 0.633007 0.075027
0.023140 0.633007 0.075027
0.075027 0.633007 0.075027
0.218004 0.633007 0.075027
0.633007 0.633007 0.075027
0.000000 0.000000 0.218004
0.023140 0.000000 0.218004
0.075027 0.000000 0.218004
0.218004 0.000000 0.218004
0.633007 0.000000 0.218004
0.000000 0.023140 0.218004
0.023140 0.023140 0.218004
0.075027 0.023140 0.218004
0.218004 0.023140 0.218004
0.633007 0.023140 0.218004
0.000000 0.075027 0.218004
0.023140 0.075027 0.218004
0.075027 0.075027 0.218004
0.218004 0.075027 0.218004
0.633007 0.075027 0.218004
0.000000 0.218004 0.218004
0.023140 0.218004 0.218004
0.075027 0.218004 0.218004
0.218004 0.218004 0.218004
0.633007 0.218004 0.218004
0.000000 0.633007 0.218004
0.023140 0.633007 0.218004
0.075027 0.633007 0.218004
0.218004 0.633007 0.218004
0.633007 0.633007 0.218004
0.000000 0.000000 0.633007
0.023140 0.000000 0.633007
0.075027 0.000000 0.633007
0.218004 0.000000 0.633007
0.633007 0.000000 0.633007
0.000000 0.023140 0.633007
0.023140 0.023140 0.633007
0.075027 0.023140 0.633007
0.218004 0.023140 0.633007
0.633007 0.023140 0.633007
0.000000 0.075027 0.633007
0.023140 0.075027 0.633007
0.075027 0.075027 0.633007
0.218004 0.075027 0.633007
0.633007 0.075027 0.633007
0.000000 0.218004 0.633007
0.023140 0.218004 0.633007
0.075027 0.218004 0.633007
0.218004 0.218004 0.633007
0.633007 0.218004 0.633007
0.000000 0.633007 0.633007
0.023140 0.633007 0.633007
0.075027 0.633007 0.633007
0.218004 0.633007 0.633007
0.633007 0.633007 0.633007
