tests/cube/square_root.cube
TITLE "cube/square_root.cube"
LUT_3D_SIZE 8
DOMAIN_MIN 0.000000 0.000000 0.000000
DOMAIN_MAX 0.903226 0.903226 0.903226
0.000000 0.000000 0.000000
0.084393 0.000000 0.000000
0.210708 0.000000 0.000000
0.412829 0.000000 0.000000
0.772543 0.000000 0.000000
1.000000 0.000000 0.000000
1.000000 0.000000 0.000000
1.000000 0.000000 0.000000
0.000000 0.084393 0.000000
0.084393 0.084393 0.000000
0.210708 0.084393 0.000000
0.412829 0.084393 0.000000
0.772543 0.084393 0.000000
1.000000 0.084393 0.000000
1.000000 0.084393 0.000000
1.000000 0.084393 0.000000
0.000000 0.210708 0.000000
0.084393 0.210708 0.000000
0.210708 0.210708 0.000000
0.412829 0.210708 0.000000
0.772543 0.210708 0.000000
1.000000 0.210708 0.000000
1.000000 0.210708 0.000000
1.000000 0.210708 0.000000
0.000000 0.412829 0.000000
0.084393 0.412829 0.000000
0.210708 0.412829 0.000000
0.412829 0.412829 0.000000
0.772543 0.412829 0.000000
1.000000 0.412829 0.000000
1.000000 0.412829 0.000000
1.000000 0.412829 0.000000
0.000000 0.772543 0.000000
0.084393 0.772543 0.000000
0.210708 0.772543 0.000000
0.412829 0.772543 0.000000
0.772543 0.772543 0.000000
1.000000 0.772543 0.000000
1.000000 0.772543 0.000000
1.000000 0.772543 0.000000
0.000000 1.000000 0.000000
0.084393 1.000000 0.000000
0.210708 1.000000 0.000000
0.412829 1.000000 0.000000
0.772543 1.000000 0.000000
1.000000 1.000000 0.000000
1.000000 1.000000 0.000000
1.000000 1.000000 0.000000
0.000000 1.000000 0.000000
0.084393 1.000000 0.000000
0.210708 1.000000 0.000000
0.412829 1.000000 0.000000
0.772543 1.000000 0.000000
1.000000 1.000000 0.000000
1.000000 1.000000 0.000000
1.000000 1.000000 0.000000
0.000000 1.000000 0.000000
0.084393 1.000000 0.000000
0.210708 1.000000 0.000000
0.412829 1.000000 0.000000
0.772543 1.000000 0.000000
1.000000 1.000000 0.000000
1.000000 1.000000 0.000000
1.000000 1.000000 0.000000
0.000000 0.000000 0.084393
0.084393 0.000000 0.084393
0.210708 0.000000 0.084393
0.412829 0.000000 0.084393
0.772543 0.000000 0.084393
1.000000 0.000000 0.084393
1.000000 0.000000 0.084393
1.000000 0.000000 0.084393
0.000000 0.084393 0.084393
0.084393 0.084393 0.084393
0.210708 0.084393 0.084393
0.412829 0.084393 0.084393
0.772543 0.084393 0.084393
1.000000 0.084393 0.084393
1.000000 0.084393 0.084393
1.000000 0.084393 0.084393
0.000000 0.210708 0.084393
0.084393 0.210708 0.084393
0.210708 0.210708 0.084393
0.412829 0.210708 0.084393
0.772543 0.210708 0.084393
1.000000 0.210708 0.084393
1.000000 0.210708 0.084393
1.000000 0.210708 0.084393
0.000000 0.412829 0.084393
0.084393 0.412829 0.084393
0.210708 0.412829 0.084393
0.412829 0.412829 0.084393
0.772543 0.412829 0.084393
1.000000 0.412829 0.084393
1.000000 0.412829 0.084393
1.000000 0.412829 0.084393
0.000000 0.772543 0.084393
0.084393 0.772543 0.084393
0.210708 0.772543 0.084393
0.412829 0.772543 0.084393
0.772543 0.772543 0.084393
1.000000 0.772543 0.084393
1.000000 0.772543 0.084393
1.000000 0.772543 0.084393
0.000000 1.000000 0.084393
0.084393 1.000000 0.084393
0.210708 1.000000 0.084393
0.412829 1.000000 0.084393
0.772543 1.000000 0.084393
1.000000 1.000000 0.084393
1.000000 1.000000 0.084393
1.000000 1.000000 0.084393
0.000000 1.000000 0.084393
0.084393 1.000000 0.084393
0.210708 1.000000 0.084393
0.412829 1.000000 0.084393
0.772543 1.000000 0.084393
1.000000 1.000000 0.084393
1.000000 1.000000 0.084393
1.000000 1.000000 0.084393
0.000000 1.000000 0.084393
0.084393 1.000000 0.084393
0.210708 1.000000 0.084393
0.412829 1.000000 0.084393
0.772543 1.000000 0.084393
1.000000 1.000000 0.084393
1.000000 1.000000 0.084393
1.000000 1.000000 0.084393
0.000000 0.000000 0.210708
0.084393 0.000000 0.210708
0.210708 0.000000 0.210708
0.412829 0.000000 0.210708
0.772543 0.000000 0.210708
1.000000 0.000000 0.210708
1.000000 0.000000 0.210708
1.000000 0.000000 0.210708
0.000000 0.084393 0.210708
0.084393 0.084393 0.210708
0.210708 0.084393 0.210708
0.412829 0.084393 0.210708
0.772543 0.084393 0.210708
1.000000 0.084393 0.210708
1.000000 0.084393 0.210708
1.000000 0.084393 0.210708
0.000000 0.210708 0.210708
0.084393 0.210708 0.210708
0.210708 0.210708 0.210708
0.412829 0.210708 0.210708
0.772543 0.210708 0.210708
1.000000 0.210708 0.210708
1.000000 0.210708 0.210708
1.000000 0.210708 0.210708
0.000000 0.412829 0.210708
0.084393 0.412829 0.210708
0.210708 0.412829 0.210708
0.412829 0.412829 0.210708
0.772543 0.412829 0.210708
1.000000 0.412829 0.210708
1.000000 0.412829 0.210708
1.000000 0.412829 0.210708
0.000000 0.772543 0.210708
0.084393 0.772543 0.210708
0.210708 0.772543 0.210708
0.412829 0.772543 0.210708
0.772543 0.772543 0.210708
1.000000 0.772543 0.210708
1.000000 0.772543 0.210708
1.000000 0.772543 0.210708
0.000000 1.000000 0.210708
0.084393 1.000000 0.210708
0.210708 1.000000 0.210708
0.412829 1.000000 0.210708
0.772543 1.000000 0.210708
1.000000 1.000000 0.210708
1.000000 1.000000 0.210708
1.000000 1.000000 0.210708
0.000000 1.000000 0.210708
0.084393 1.000000 0.210708
0.210708 1.000000 0.210708
0.412829 1.000000 0.210708
0.772543 1.000000 0.210708
1.000000 1.000000 0.210708
1.000000 1.000000 0.210708
1.000000 1.000000 0.210708
0.000000 1.000000 0.210708
0.084393 1.000000 0.210708
0.210708 1.000000 0.210708
0.412829 1.000000 0.210708
0.772543 1.000000 0.210708
1.000000 1.000000 0.210708
1.000000 1.000000 0.210708
1.000000 1.000000 0.210708
0.000000 0.000000 0.412829
0.084393 0.000000 0.412829
0.210708 0.000000 0.412829
0.412829 0.000000 0.412829
0.772543 0.000000 0.412829
1.000000 0.000000 0.412829
1.000000 0.000000 0.412829
1.000000 0.000000 0.412829
0.000000 0.084393 0.412829
0.084393 0.084393 0.412829
0.210708 0.084393 0.412829
0.412829 0.084393 0.412829
0.772543 0.084393 0.412829
1.000000 0.084393 0.412829
1.000000 0.084393 0.412829
1.000000 0.084393 0.412829
0.000000 0.210708 0.412829
0.084393 0.210708 0.412829
0.210708 0.210708 0.412829
0.412829 0.210708 0.412829
0.772543 0.210708 0.412829
1.000000 0.210708 0.412829
1.000000 0.210708 0.412829
1.000000 0.210708 0.412829
0.000000 0.412829 0.412829
0.084393 0.412829 0.412829
0.210708 0.412829 0.412829
0.412829 0.412829 0.412829
0.772543 0.412829 0.412829
1.000000 0.412829 0.412829
1.000000 0.412829 0.412829
1.000000 0.412829 0.412829
0.000000 0.772543 0.412829
0.084393 0.772543 0.412829
0.210708 0.772543 0.412829
0.412829 0.772543 0.412829
0.772543 0.772543 0.412829
1.000000 0.772543 0.412829
1.000000 0.772543 0.412829
1.000000 0.772543 0.412829
0.000000 1.000000 0.412829
0.084393 1.000000 0.412829
0.210708 1.000000 0.412829
0.412829 1.000000 0.412829
0.772543 1.000000 0.412829
1.000000 1.000000 0.412829
1.000000 1.000000 0.412829
1.000000 1.000000 0.412829
0.000000 1.000000 0.412829
0.084393 1.000000 0.412829
0.210708 1.000000 0.412829
0.412829 1.000000 0.412829
0.772543 1.000000 0.412829
1.000000 1.000000 0.412829
1.000000 1.000000 0.412829
1.000000 1.000000 0.412829
0.000000 1.000000 0.412829
0.084393 1.000000 0.412829
0.210708 1.000000 0.412829
0.412829 1.000000 0.412829
0.772543 1.000000 0.412829
1.000000 1.000000 0.412829
1.000000 1.000000 0.412829
1.000000 1.000000 0.412829
0.000000 0.000000 0.772543
0.084393 0.000000 0.772543
0.210708 0.000000 0.772543
0.412829 0.000000 0.772543
0.772543 0.000000 0.772543
1.000000 0.000000 0.772543
1.000000 0.000000 0.772543
1.000000 0.000000 0.772543
0.000000 0.084393 0.772543
0.084393 0.084393 0.772543
0.210708 0.084393 0.772543
0.412829 0.084393 0.772543
0.772543 0.084393 0.772543
1.000000 0.084393 0.772543
1.000000 0.084393 0.772543
1.000000 0.084393 0.772543
0.000000 0.210708 0.772543
0.084393 0.210708 0.772543
0.210708 0.210708 0.772543
0.412829 0.210708 0.772543
0.772543 0.210708 0.772543
1.000000 0.210708 0.772543
1.000000 0.210708 0.772543
1.000000 0.210708 0.772543
0.000000 0.412829 0.772543
0.084393 0.412829 0.772543
0.210708 0.412829 0.772543
0.412829 0.412829 0.772543
0.772543 0.412829 0.772543
1.000000 0.412829 0.772543
1.000000 0.412829 0.772543
1.000000 0.412829 0.772543
0.000000 0.772543 0.772543
0.084393 0.772543 0.772543
0.210708 0.772543 0.772543
0.412829 0.772543 0.772543
0.772543 0.772543 0.772543
1.000000 0.772543 0.772543
1.000000 0.772543 0.772543
1.000000 0.772543 0.772543
0.000000 1.000000 0.772543
0.084393 1.000000 0.772543
0.210708 1.000000 0.772543
0.412829 1.000000 0.772543
0.772543 1.000000 0.772543
1.000000 1.000000 0.772543
1.000000 1.000000 0.772543
1.000000 1.000000 0.772543
0.000000 1.000000 0.772543
0.084393 1.000000 0.772543
0.210708 1.000000 0.772543
0.412829 1.000000 0.772543
0.772543 1.000000 0.772543
1.000000 1.000000 0.772543
1.000000 1.000000 0.772543
1.000000 1.000000 0.772543
0.000000 1.000000 0.772543
0.084393 1.000000 0.772543
0.210708 1.000000 0.772543
0.412829 1.000000 0.772543
0.772543 1.000000 0.772543
1.000000 1.000000 0.772543
1.000000 1.000000 0.772543
1.000000 1.000000 0.772543
0.000000 0.000000 1.000000
0.084393 0.000000 1.000000
0.210708 0.000000 1.000000
0.412829 0.000000 1.000000
0.772543 0.000000 1.000000
1.000000 0.000000 1.000000
1.000000 0.000000 1.000000
1.000000 0.000000 1.000000
0.000000 0.084393 1.000000
0.084393 0.084393 1.000000
0.210708 0.084393 1.000000
0.412829 0.084393 1.000000
0.772543 0.084393 1.000000
1.000000 0.084393 1.000000
1.000000 0.084393 1.000000
1.000000 0.084393 1.000000
0.000000 0.210708 1.000000
0.084393 0.210708 1.000000
0.210708 0.210708 1.000000
0.412829 0.210708 1.000000
0.772543 0.210708 1.000000
1.000000 0.210708 1.000000
1.000000 0.210708 1.000000
1.000000 0.210708 1.000000
0.000000 0.412829 1.000000
0.084393 0.412829 1.000000
0.210708 0.412829 1.000000
0.412829 0.412829 1.000000
0.772543 0.412829 1.000000
1.000000 0.412829 1.000000
1.000000 0.412829 1.000000
1.000000 0.412829 1.000000
0.000000 0.772543 1.000000
0.084393 0.772543 1.000000
0.210708 0.772543 1.000000
0.412829 0.772543 1.000000
0.772543 0.772543 1.000000
1.000000 0.772543 1.000000
1.000000 0.772543 1.000000
1.000000 0.772543 1.000000
0.000000 1.000000 1.000000
0.084393 1.000000 1.000000
0.210708 1.000000 1.000000
0.412829 1.000000 1.000000
0.772543 1.000000 1.000000
1.000000 1.000000 1.000000
1.000000 1.000000 1.000000
1.000000 1.000000 1.000000
0.000000 1.000000 1.000000
0.084393 1.000000 1.000000
0.210708 1.000000 1.000000
0.412829 1.000000 1.000000
0.772543 1.000000 1.000000
1.000000 1.000000 1.000000
1.000000 1.000000 1.000000
1.000000 1.000000 1.000000
0.000000 1.000000 1.000000
0.084393 1.000000 1.000000
0.210708 1.000000 1.000000
0.412829 1.000000 1.000000
0.772543 1.000000 1.000000
1.000000 1.000000 1.000000
1.000000 1.000000 1.000000
1.000000 1.000000 1.000000
0.000000 0.000000 1.000000
0.084393 0.000000 1.000000
0.210708 0.000000 1.000000
0.412829 0.000000 1.000000
0.772543 0.000000 1.000000
1.000000 0.000000 1.000000
1.000000 0.000000 1.000000
1.000000 0.000000 1.000000
0.000000 0.084393 1.000000
0.084393 0.084393 1.000000
0.210708 0.084393 1.000000
0.412829 0.084393 1.000000
0.772543 0.084393 1.000000
1.000000 0.084393 1.000000
1.000000 0.084393 1.000000
1.000000 0.084393 1.000000
0.000000 0.210708 1.000000
0.084393 0.210708 1.000000
0.210708 0.210708 1.000000
0.412829 0.210708 1.000000
0.772543 0.210708 1.000000
1.000000 0.210708 1.000000
1.000000 0.210708 1.000000
1.000000 0.210708 1.000000
0.000000 0.412829 1.000000
0.084393 0.412829 1.000000
0.210708 0.412829 1.000000
0.412829 0.412829 1.000000
0.772543 0.412829 1.000000
1.000000 0.412829 1.000000
1.000000 0.412829 1.000000
1.000000 0.412829 1.000000
0.000000 0.772543 1.000000
0.084393 0.772543 1.000000
0.210708 0.772543 1.000000
0.412829 0.772543 1.000000
0.772543 0.772543 1.000000
1.000000 0.772543 1.000000
1.000000 0.772543 1.000000
1.000000 0.772543 1.000000
0.000000 1.000000 1.000000
0.084393 1.000000 1.000000
0.210708 1.000000 1.000000
0.412829 1.000000 1.000000
0.772543 1.000000 1.000000
1.000000 1.000000 1.000000
1.000000 1.000000 1.000000
1.000000 1.000000 1.000000
0.000000 1.000000 1.000000
0.084393 1.000000 1.000000
0.210708 1.000000 1.000000
0.412829 1.000000 1.000000
0.772543 1.000000 1.000000
1.000000 1.000000 1.000000
1.000000 1.000000 1.000000
1.000000 1.000000 1.000000
0.000000 1.000000 1.000000
0.084393 1.000000 1.000000
0.210708 1.000000 1.000000
0.412829 1.000000 1.000000
0.772543 1.000000 1.000000
1.000000 1.000000 1.000000
1.000000 1.000000 1.000000
1.000000 1.000000 1.000000
0.000000 0.000000 1.000000
0.084393 0.000000 1.000000
0.210708 0.000000 1.000000
0.412829 0.000000 1.000000
0.772543 0.000000 1.000000
1.000000 0.000000 1.000000
1.000000 0.000000 1.000000
1.000000 0.000000 1.000000
0.000000 0.084393 1.000000
0.084393 0.084393 1.000000
0.210708 0.084393 1.000000
0.412829 0.084393 1.000000
0.772543 0.084393 1.000000
1.000000 0.084393 1.000000
1.000000 0.084393 1.000000
1.000000 0.084393 1.000000
0.000000 0.210708 1.000000
0.084393 0.210708 1.000000
0.210708 0.210708 1.000000
0.412829 0.210708 1.000000
0.772543 0.210708 1.000000
1.000000 0.210708 1.000000
1.000000 0.210708 1.000000
1.000000 0.210708 1.000000
0.000000 0.412829 1.000000
0.084393 0.412829 1.000000
0.210708 0.412829 1.000000
0.412829 0.412829 1.000000
0.772543 0.412829 1.000000
1.000000 0.412829 1.000000
1.000000 0.412829 1.000000
1.000000 0.412829 1.000000
0.000000 0.772543 1.000000
0.084393 0.772543 1.000000
0.210708 0.772543 1.000000
0.412829 0.772543 1.000000
0.772543 0.772543 1.000000
1.000000 0.772543 1.000000
1.000000 0.772543 1.000000
1.000000 0.772543 1.000000
0.000000 1.000000 1.000000
0.084393 1.000000 1.000000
0.210708 1.000000 1.000000
0.412829 1.000000 1.000000
0.772543 1.000000 1.000000
1.000000 1.000000 1.000000
1.000000 1.000000 1.000000
1.000000 1.000000 1.000000
0.000000 1.000000 1.000000
0.084393 1.000000 1.000000
0.210708 1.000000 1.000000
0.412829 1.000000 1.000000
0.772543 1.000000 1.000000
1.000000 1.000000 1.000000
1.000000 1.000000 1.000000
1.000000 1.000000 1.000000
0.000000 1.000000 1.000000
0.084393 1.000000 1.000000
0.210708 1.000000 1.000000
0.412829 1.000000 1.000000
0.772543 1.000000 1.000000
1.000000 1.000000 1.000000
1.000000 1.000000 1.000000
1.000000 1.000000 1.000000
