tests/cube/square_root_max58.cube
TITLE "cube/square_root_max58.cube"
LUT_3D_SIZE 32
DOMAIN_MIN 0.0 0.0 0.0
DOMAIN_MAX 1.0 1.0 1.0
0.000000 0.000000 0.000000
0.000004 0.000000 0.000000
0.000013 0.000000 0.000000
0.007077 0.000000 0.000000
0.011111 0.000000 0.000000
0.014816 0.000000 0.000000
0.018811 0.000000 0.000000
0.023140 0.000000 0.000000
0.027868 0.000000 0.000000
0.033293 0.000000 0.000000
0.039446 0.000000 0.000000
0.046510 0.000000 0.000000
0.054660 0.000000 0.000000
0.063942 0.000000 0.000000
0.075027 0.000000 0.000000
0.087290 0.000000 0.000000
0.102148 0.000000 0.000000
0.118991 0.000000 0.000000
0.137956 0.000000 0.000000
0.160527 0.000000 0.000000
0.187181 0.000000 0.000000
0.218004 0.000000 0.000000
0.253871 0.000000 0.000000
0.296034 0.000000 0.000000
0.344020 0.000000 0.000000
0.401444 0.000000 0.000000
0.466452 0.000000 0.000000
0.544243 0.000000 0.000000
0.633007 0.000000 0.000000
0.736730 0.000000 0.000000
0.858549 0.000000 0.000000
0.997103 0.000000 0.000000
0.000000 0.000004 0.000000
0.000004 0.000004 0.000000
0.000013 0.000004 0.000000
0.007077 0.000004 0.000000
0.011111 0.000004 0.000000
0.014816 0.000004 0.000000
0.018811 0.000004 0.000000
0.023140 0.000004 0.000000
0.027868 0.000004 0.000000
0.033293 0.000004 0.000000
0.039446 0.000004 0.000000
0.046510 0.000004 0.000000
0.054660 0.000004 0.000000
0.063942 0.000004 0.000000
0.075027 0.000004 0.000000
0.087290 0.000004 0.000000
0.102148 0.000004 0.000000
0.118991 0.000004 0.000000
0.137956 0.000004 0.000000
0.160527 0.000004 0.000000
0.187181 0.000004 0.000000
0.218004 0.000004 0.000000
0.253871 0.000004 0.000000
0.296034 0.000004 0.000000
0.344020 0.000004 0.000000
0.401444 0.000004 0.000000
0.466452 0.000004 0.000000
0.544243 0.000004 0.000000
0.633007 0.000004 0.000000
0.736730 0.000004 0.000000
0.858549 0.000004 0.000000
0.997103 0.000004 0.000000
0.000000 0.000013 0.000000
0.000004 0.000013 0.000000
0.000013 0.000013 0.000000
0.007077 0.000013 0.000000
0.011111 0.000013 0.000000
0.014816 0.000013 0.000000
0.018811 0.000013 0.000000
0.023140 0.000013 0.000000
0.027868 0.000013 0.000000
0.033293 0.000013 0.000000
0.039446 0.000013 0.000000
0.046510 0.000013 0.000000
0.054660 0.000013 0.000000
0.063942 0.000013 0.000000
0.075027 0.000013 0.000000
0.087290 0.000013 0.000000
0.102148 0.000013 0.000000
0.118991 0.000013 0.000000
0.137956 0.000013 0.000000
0.160527 0.000013 0.000000
0.187181 0.000013 0.000000
0.218004 0.000013 0.000000
0.253871 0.000013 0.000000
0.296034 0.000013 0.000000
0.344020 0.000013 0.000000
0.401444 0.000013 0.000000
0.466452 0.000013 0.000000
0.544243 0.000013 0.000000
0.633007 0.000013 0.000000
0.736730 0.000013 0.000000
0.858549 0.000013 0.000000
0.997103 0.000013 0.000000
0.000000 0.007077 0.000000
0.000004 0.007077 0.000000
0.000013 0.007077 0.000000
0.007077 0.007077 0.000000
0.011111 0.007077 0.000000
0.014816 0.007077 0.000000
0.018811 0.007077 0.000000
0.023140 0.007077 0.000000
0.027868 0.007077 0.000000
0.033293 0.007077 0.000000
0.039446 0.007077 0.000000
0.046510 0.007077 0.000000
0.054660 0.007077 0.000000
0.063942 0.007077 0.000000
0.075027 0.007077 0.000000
0.087290 0.007077 0.000000
0.102148 0.007077 0.000000
0.118991 0.007077 0.000000
0.137956 0.007077 0.000000
0.160527 0.007077 0.000000
0.187181 0.007077 0.000000
0.218004 0.007077 0.000000
0.253871 0.007077 0.000000
0.296034 0.007077 0.000000
0.344020 0.007077 0.000000
0.401444 0.007077 0.000000
0.466452 0.007077 0.000000
0.544243 0.007077 0.000000
0.633007 0.007077 0.000000
0.736730 0.007077 0.000000
0.858549 0.007077 0.000000
0.997103 0.007077 0.000000
0.000000 0.011111 0.000000
0.000004 0.011111 0.000000
0.000013 0.011111 0.000000
0.007077 0.011111 0.000000
0.011111 0.011111 0.000000
0.014816 0.011111 0.000000
0.018811 0.011111 0.000000
0.023140 0.011111 0.000000
0.027868 0.011111 0.000000
0.033293 0.011111 0.000000
0.039446 0.011111 0.000000
0.046510 0.011111 0.000000
0.054660 0.011111 0.000000
0.063942 0.011111 0.000000
0.075027 0.011111 0.000000
0.087290 0.011111 0.000000
0.102148 0.011111 0.000000
0.118991 0.011111 0.000000
0.137956 0.011111 0.000000
0.160527 0.011111 0.000000
0.187181 0.011111 0.000000
0.218004 0.011111 0.000000
0.253871 0.011111 0.000000
0.296034 0.011111 0.000000
0.344020 0.011111 0.000000
0.401444 0.011111 0.000000
0.466452 0.011111 0.000000
0.544243 0.011111 0.000000
0.633007 0.011111 0.000000
0.736730 0.011111 0.000000
0.858549 0.011111 0.000000
0.997103 0.011111 0.000000
0.000000 0.014816 0.000000
0.000004 0.014816 0.000000
0.000013 0.014816 0.000000
0.007077 0.014816 0.000000
0.011111 0.014816 0.000000
0.014816 0.014816 0.000000
0.018811 0.014816 0.000000
0.023140 0.014816 0.000000
0.027868 0.014816 0.000000
0.033293 0.014816 0.000000
0.039446 0.014816 0.000000
0.046510 0.014816 0.000000
0.054660 0.014816 0.000000
0.063942 0.014816 0.000000
0.075027 0.014816 0.000000
0.087290 0.014816 0.000000
0.102148 0.014816 0.000000
0.118991 0.014816 0.000000
0.137956 0.014816 0.000000
0.160527 0.014816 0.000000
0.187181 0.014816 0.000000
0.218004 0.014816 0.000000
0.253871 0.014816 0.000000
0.296034 0.014816 0.000000
0.344020 0.014816 0.000000
0.401444 0.014816 0.000000
0.466452 0.014816 0.000000
0.544243 0.014816 0.000000
0.633007 0.014816 0.000000
0.736730 0.014816 0.000000
0.858549 0.014816 0.000000
0.997103 0.014816 0.000000
0.000000 0.018811 0.000000
0.000004 0.018811 0.000000
0.000013 0.018811 0.000000
0.007077 0.018811 0.000000
0.011111 0.018811 0.000000
0.014816 0.018811 0.000000
0.018811 0.018811 0.000000
0.023140 0.018811 0.000000
0.027868 0.018811 0.000000
0.033293 0.018811 0.000000
0.039446 0.018811 0.000000
0.046510 0.018811 0.000000
0.054660 0.018811 0.000000
0.063942 0.018811 0.000000
0.075027 0.018811 0.000000
0.087290 0.018811 0.000000
0.102148 0.018811 0.000000
0.118991 0.018811 0.000000
0.137956 0.018811 0.000000
0.160527 0.018811 0.000000
0.187181 0.018811 0.000000
0.218004 0.018811 0.000000
0.253871 0.018811 0.000000
0.296034 0.018811 0.000000
0.344020 0.018811 0.000000
0.401444 0.018811 0.000000
0.466452 0.018811 0.000000
0.544243 0.018811 0.000000
0.633007 0.018811 0.000000
0.736730 0.018811 0.000000
0.858549 0.018811 0.000000
0.997103 0.018811 0.000000
0.000000 0.023140 0.000000
0.000004 0.023140 0.000000
0.000013 0.023140 0.000000
0.007077 0.023140 0.000000
0.011111 0.023140 0.000000
0.014816 0.023140 0.000000
0.018811 0.023140 0.000000
0.023140 0.023140 0.000000
0.027868 0.023140 0.000000
0.033293 0.023140 0.000000
0.039446 0.023140 0.000000
0.046510 0.023140 0.000000
0.054660 0.023140 0.000000
0.063942 0.023140 0.000000
0.075027 0.023140 0.000000
0.087290 0.023140 0.000000
0.102148 0.023140 0.000000
0.118991 0.023140 0.000000
0.137956 0.023140 0.000000
0.160527 0.023140 0.000000
0.187181 0.023140 0.000000
0.218004 0.023140 0.000000
0.253871 0.023140 0.000000
0.296034 0.023140 0.000000
0.344020 0.023140 0.000000
0.401444 0.023140 0.000000
0.466452 0.023140 0.000000
0.544243 0.023140 0.000000
0.633007 0.023140 0.000000
0.736730 0.023140 0.000000
0.858549 0.023140 0.000000
0.997103 0.023140 0.000000
0.000000 0.027868 0.000000
0.000004 0.027868 0.000000
0.000013 0.027868 0.000000
0.007077 0.027868 0.000000
0.011111 0.027868 0.000000
0.014816 0.027868 0.000000
0.018811 0.027868 0.000000
0.023140 0.027868 0.000000
0.027868 0.027868 0.000000
0.033293 0.027868 0.000000
0.039446 0.027868 0.000000
0.046510 0.027868 0.000000
0.054660 0.027868 0.000000
0.063942 0.027868 0.000000
0.075027 0.027868 0.000000
0.087290 0.027868 0.000000
0.102148 0.027868 0.000000
0.118991 0.027868 0.000000
0.137956 0.027868 0.000000
0.160527 0.027868 0.000000
0.187181 0.027868 0.000000
0.218004 0.027868 0.000000
0.253871 0.027868 0.000000
0.296034 0.027868 0.000000
0.344020 0.027868 0.000000
0.401444 0.027868 0.000000
0.466452 0.027868 0.000000
0.544243 0.027868 0.000000
0.633007 0.027868 0.000000
0.736730 0.027868 0.000000
0.858549 0.027868 0.000000
0.997103 0.027868 0.000000
0.000000 0.033293 0.000000
0.000004 0.033293 0.000000
0.000013 0.033293 0.000000
0.007077 0.033293 0.000000
0.011111 0.033293 0.000000
0.014816 0.033293 0.000000
0.018811 0.033293 0.000000
0.023140 0.033293 0.000000
0.027868 0.033293 0.000000
0.033293 0.033293 0.000000
0.039446 0.033293 0.000000
0.046510 0.033293 0.000000
0.054660 0.033293 0.000000
0.063942 0.033293 0.000000
0.075027 0.033293 0.000000
0.087290 0.033293 0.000000
0.102148 0.033293 0.000000
0.118991 0.033293 0.000000
0.137956 0.033293 0.000000
0.160527 0.033293 0.000000
0.187181 0.033293 0.000000
0.218004 0.033293 0.000000
0.253871 0.033293 0.000000
0.296034 0.033293 0.000000
0.344020 0.033293 0.000000
0.401444 0.033293 0.000000
0.466452 0.033293 0.000000
0.544243 0.033293 0.000000
0.633007 0.033293 0.000000
0.736730 0.033293 0.000000
0.858549 0.033293 0.000000
0.997103 0.033293 0.000000
0.000000 0.039446 0.000000
0.000004 0.039446 0.000000
0.000013 0.039446 0.000000
0.007077 0.039446 0.000000
0.011111 0.039446 0.000000
0.014816 0.039446 0.000000
0.018811 0.039446 0.000000
0.023140 0.039446 0.000000
0.027868 0.039446 0.000000
0.033293 0.039446 0.000000
0.039446 0.039446 0.000000
0.046510 0.039446 0.000000
0.054660 0.039446 0.000000
0.063942 0.039446 0.000000
0.075027 0.039446 0.000000
0.087290 0.039446 0.000000
0.102148 0.039446 0.000000
0.118991 0.039446 0.000000
0.137956 0.039446 0.000000
0.160527 0.039446 0.000000
0.187181 0.039446 0.000000
0.218004 0.039446 0.000000
0.253871 0.039446 0.000000
0.296034 0.039446 0.000000
0.344020 0.039446 0.000000
0.401444 0.039446 0.000000
0.466452 0.039446 0.000000
0.544243 0.039446 0.000000
0.633007 0.039446 0.000000
0.736730 0.039446 0.000000
0.858549 0.039446 0.000000
0.997103 0.039446 0.000000
0.000000 0.046510 0.000000
0.000004 0.046510 0.000000
0.000013 0.046510 0.000000
0.007077 0.046510 0.000000
0.011111 0.046510 0.000000
0.014816 0.046510 0.000000
0.018811 0.046510 0.000000
0.023140 0.046510 0.000000
0.027868 0.046510 0.000000
0.033293 0.046510 0.000000
0.039446 0.046510 0.000000
0.046510 0.046510 0.000000
0.054660 0.046510 0.000000
0.063942 0.046510 0.000000
0.075027 0.046510 0.000000
0.087290 0.046510 0.000000
0.102148 0.046510 0.000000
0.118991 0.046510 0.000000
0.137956 0.046510 0.000000
0.160527 0.046510 0.000000
0.187181 0.046510 0.000000
0.218004 0.046510 0.000000
0.253871 0.046510 0.000000
0.296034 0.046510 0.000000
0.344020 0.046510 0.000000
0.401444 0.046510 0.000000
0.466452 0.046510 0.000000
0.544243 0.046510 0.000000
0.633007 0.046510 0.000000
0.736730 0.046510 0.000000
0.858549 0.046510 0.000000
0.997103 0.046510 0.000000
0.000000 0.054660 0.000000
0.000004 0.054660 0.000000
0.000013 0.054660 0.000000
0.007077 0.054660 0.000000
0.011111 0.054660 0.000000
0.014816 0.054660 0.000000
0.018811 0.054660 0.000000
0.023140 0.054660 0.000000
0.027868 0.054660 0.000000
0.033293 0.054660 0.000000
0.039446 0.054660 0.000000
0.046510 0.054660 0.000000
0.054660 0.054660 0.000000
0.063942 0.054660 0.000000
0.075027 0.054660 0.000000
0.087290 0.054660 0.000000
0.102148 0.054660 0.000000
0.118991 0.054660 0.000000
0.137956 0.054660 0.000000
0.160527 0.054660 0.000000
0.187181 0.054660 0.000000
0.218004 0.054660 0.000000
0.253871 0.054660 0.000000
0.296034 0.054660 0.000000
0.344020 0.054660 0.000000
0.401444 0.054660 0.000000
0.466452 0.054660 0.000000
0.544243 0.054660 0.000000
0.633007 0.054660 0.000000
0.736730 0.054660 0.000000
0.858549 0.054660 0.000000
0.997103 0.054660 0.000000
0.000000 0.063942 0.000000
0.000004 0.063942 0.000000
0.000013 0.063942 0.000000
0.007077 0.063942 0.000000
0.011111 0.063942 0.000000
0.014816 0.063942 0.000000
0.018811 0.063942 0.000000
0.023140 0.063942 0.000000
0.027868 0.063942 0.000000
0.033293 0.063942 0.000000
0.039446 0.063942 0.000000
0.046510 0.063942 0.000000
0.054660 0.063942 0.000000
0.063942 0.063942 0.000000
0.075027 0.063942 0.000000
0.087290 0.063942 0.000000
0.102148 0.063942 0.000000
0.118991 0.063942 0.000000
0.137956 0.063942 0.000000
0.160527 0.063942 0.000000
0.187181 0.063942 0.000000
0.218004 0.063942 0.000000
0.253871 0.063942 0.000000
0.296034 0.063942 0.000000
0.344020 0.063942 0.000000
0.401444 0.063942 0.000000
0.466452 0.063942 0.000000
0.544243 0.063942 0.000000
0.633007 0.063942 0.000000
0.736730 0.063942 0.000000
0.858549 0.063942 0.000000
0.997103 0.063942 0.000000
0.000000 0.075027 0.000000
0.000004 0.075027 0.000000
0.000013 0.075027 0.000000
0.007077 0.075027 0.000000
0.011111 0.075027 0.000000
0.014816 0.075027 0.000000
0.018811 0.075027 0.000000
0.023140 0.075027 0.000000
0.027868 0.075027 0.000000
0.033293 0.075027 0.000000
0.039446 0.075027 0.000000
0.046510 0.075027 0.000000
0.054660 0.075027 0.000000
0.063942 0.075027 0.000000
0.075027 0.075027 0.000000
0.087290 0.075027 0.000000
0.102148 0.075027 0.000000
0.118991 0.075027 0.000000
0.137956 0.075027 0.000000
0.160527 0.075027 0.000000
0.187181 0.075027 0.000000
0.218004 0.075027 0.000000
0.253871 0.075027 0.000000
0.296034 0.075027 0.000000
0.344020 0.075027 0.000000
0.401444 0.075027 0.000000
0.466452 0.075027 0.000000
0.544243 0.075027 0.000000
0.633007 0.075027 0.000000
0.736730 0.075027 0.000000
0.858549 0.075027 0.000000
0.997103 0.075027 0.000000
0.000000 0.087290 0.000000
0.000004 0.087290 0.000000
0.000013 0.087290 0.000000
0.007077 0.087290 0.000000
0.011111 0.087290 0.000000
0.014816 0.087290 0.000000
0.018811 0.087290 0.000000
0.023140 0.087290 0.000000
0.027868 0.087290 0.000000
0.033293 0.087290 0.000000
0.039446 0.087290 0.000000
0.046510 0.087290 0.000000
0.054660 0.087290 0.000000
0.063942 0.087290 0.000000
0.075027 0.087290 0.000000
0.087290 0.087290 0.000000
0.102148 0.087290 0.000000
0.118991 0.087290 0.000000
0.137956 0.087290 0.000000
0.160527 0.087290 0.000000
0.187181 0.087290 0.000000
0.218004 0.087290 0.000000
0.253871 0.087290 0.000000
0.296034 0.087290 0.000000
0.344020 0.087290 0.000000
0.401444 0.087290 0.000000
0.466452 0.087290 0.000000
0.544243 0.087290 0.000000
0.633007 0.087290 0.000000
0.736730 0.087290 0.000000
0.858549 0.087290 0.000000
0.997103 0.087290 0.000000
0.000000 0.102148 0.000000
0.000004 0.102148 0.000000
0.000013 0.102148 0.000000
0.007077 0.102148 0.000000
0.011111 0.102148 0.000000
0.014816 0.102148 0.000000
0.018811 0.102148 0.000000
0.023140 0.102148 0.000000
0.027868 0.102148 0.000000
0.033293 0.102148 0.000000
0.039446 0.102148 0.000000
0.046510 0.102148 0.000000
0.054660 0.102148 0.000000
0.063942 0.102148 0.000000
0.075027 0.102148 0.000000
0.087290 0.102148 0.000000
0.102148 0.102148 0.000000
0.118991 0.102148 0.000000
0.137956 0.102148 0.000000
0.160527 0.102148 0.000000
0.187181 0.102148 0.000000
0.218004 0.102148 0.000000
0.253871 0.102148 0.000000
0.296034 0.102148 0.000000
0.344020 0.102148 0.000000
0.401444 0.102148 0.000000
0.466452 0.102148 0.000000
0.544243 0.102148 0.000000
0.633007 0.102148 0.000000
0.736730 0.102148 0.000000
0.858549 0.102148 0.000000
0.997103 0.102148 0.000000
0.000000 0.118991 0.000000
0.000004 0.118991 0.000000
0.000013 0.118991 0.000000
0.007077 0.118991 0.000000
0.011111 0.118991 0.000000
0.014816 0.118991 0.000000
0.018811 0.118991 0.000000
0.023140 0.118991 0.000000
0.027868 0.118991 0.000000
0.033293 0.118991 0.000000
0.039446 0.118991 0.000000
0.046510 0.118991 0.000000
0.054660 0.118991 0.000000
0.063942 0.118991 0.000000
0.075027 0.118991 0.000000
0.087290 0.118991 0.000000
0.102148 0.118991 0.000000
0.118991 0.118991 0.000000
0.137956 0.118991 0.000000
0.160527 0.118991 0.000000
0.187181 0.118991 0.000000
0.218004 0.118991 0.000000
0.253871 0.118991 0.000000
0.296034 0.118991 0.000000
0.344020 0.118991 0.000000
0.401444 0.118991 0.000000
0.466452 0.118991 0.000000
0.544243 0.118991 0.000000
0.633007 0.118991 0.000000
0.736730 0.118991 0.000000
0.858549 0.118991 0.000000
0.997103 0.118991 0.000000
0.000000 0.137956 0.000000
0.000004 0.137956 0.000000
0.000013 0.137956 0.000000
0.007077 0.137956 0.000000
0.011111 0.137956 0.000000
0.014816 0.137956 0.000000
0.018811 0.137956 0.000000
0.023140 0.137956 0.000000
0.027868 0.137956 0.000000
0.033293 0.137956 0.000000
0.039446 0.137956 0.000000
0.046510 0.137956 0.000000
0.054660 0.137956 0.000000
0.063942 0.137956 0.000000
0.075027 0.137956 0.000000
0.087290 0.137956 0.000000
0.102148 0.137956 0.000000
0.118991 0.137956 0.000000
0.137956 0.137956 0.000000
0.160527 0.137956 0.000000
0.187181 0.137956 0.000000
0.218004 0.137956 0.000000
0.253871 0.137956 0.000000
0.296034 0.137956 0.000000
0.344020 0.137956 0.000000
0.401444 0.137956 0.000000
0.466452 0.137956 0.000000
0.544243 0.137956 0.000000
0.633007 0.137956 0.000000
0.736730 0.137956 0.000000
0.858549 0.137956 0.000000
0.997103 0.137956 0.000000
0.000000 0.160527 0.000000
0.000004 0.160527 0.000000
0.000013 0.160527 0.000000
0.007077 0.160527 0.000000
0.011111 0.160527 0.000000
0.014816 0.160527 0.000000
0.018811 0.160527 0.000000
0.023140 0.160527 0.000000
0.027868 0.160527 0.000000
0.033293 0.160527 0.000000
0.039446 0.160527 0.000000
0.046510 0.160527 0.000000
0.054660 0.160527 0.000000
0.063942 0.160527 0.000000
0.075027 0.160527 0.000000
0.087290 0.160527 0.000000
0.102148 0.160527 0.000000
0.118991 0.160527 0.000000
0.137956 0.160527 0.000000
0.160527 0.160527 0.000000
0.187181 0.160527 0.000000
0.218004 0.160527 0.000000
0.253871 0.160527 0.000000
0.296034 0.160527 0.000000
0.344020 0.160527 0.000000
0.401444 0.160527 0.000000
0.466452 0.160527 0.000000
0.544243 0.160527 0.000000
0.633007 0.160527 0.000000
0.736730 0.160527 0.000000
0.858549 0.160527 0.000000
0.997103 0.160527 0.000000
0.000000 0.187181 0.000000
0.000004 0.187181 0.000000
0.000013 0.187181 0.000000
0.007077 0.187181 0.000000
0.011111 0.187181 0.000000
0.014816 0.187181 0.000000
0.018811 0.187181 0.000000
0.023140 0.187181 0.000000
0.027868 0.187181 0.000000
0.033293 0.187181 0.000000
0.039446 0.187181 0.000000
0.046510 0.187181 0.000000
0.054660 0.187181 0.000000
0.063942 0.187181 0.000000
0.075027 0.187181 0.000000
0.087290 0.187181 0.000000
0.102148 0.187181 0.000000
0.118991 0.187181 0.000000
0.137956 0.187181 0.000000
0.160527 0.187181 0.000000
0.187181 0.187181 0.000000
0.218004 0.187181 0.000000
0.253871 0.187181 0.000000
0.296034 0.187181 0.000000
0.344020 0.187181 0.000000
0.401444 0.187181 0.000000
0.466452 0.187181 0.000000
0.544243 0.187181 0.000000
0.633007 0.187181 0.000000
0.736730 0.187181 0.000000
0.858549 0.187181 0.000000
0.997103 0.187181 0.000000
0.000000 0.218004 0.000000
0.000004 0.218004 0.000000
0.000013 0.218004 0.000000
0.007077 0.218004 0.000000
0.011111 0.218004 0.000000
0.014816 0.218004 0.000000
0.018811 0.218004 0.000000
0.023140 0.218004 0.000000
0.027868 0.218004 0.000000
0.033293 0.218004 0.000000
0.039446 0.218004 0.000000
0.046510 0.218004 0.000000
0.054660 0.218004 0.000000
0.063942 0.218004 0.000000
0.075027 0.218004 0.000000
0.087290 0.218004 0.000000
0.102148 0.218004 0.000000
0.118991 0.218004 0.000000
0.137956 0.218004 0.000000
0.160527 0.218004 0.000000
0.187181 0.218004 0.000000
0.218004 0.218004 0.000000
0.253871 0.218004 0.000000
0.296034 0.218004 0.000000
0.344020 0.218004 0.000000
0.401444 0.218004 0.000000
0.466452 0.218004 0.000000
0.544243 0.218004 0.000000
0.633007 0.218004 0.000000
0.736730 0.218004 0.000000
0.858549 0.218004 0.000000
0.997103 0.218004 0.000000
0.000000 0.253871 0.000000
0.000004 0.253871 0.000000
0.000013 0.253871 0.000000
0.007077 0.253871 0.000000
0.011111 0.253871 0.000000
0.014816 0.253871 0.000000
0.018811 0.253871 0.000000
0.023140 0.253871 0.000000
0.027868 0.253871 0.000000
0.033293 0.253871 0.000000
0.039446 0.253871 0.000000
0.046510 0.253871 0.000000
0.054660 0.253871 0.000000
0.063942 0.253871 0.000000
0.075027 0.253871 0.000000
0.087290 0.253871 0.000000
0.102148 0.253871 0.000000
0.118991 0.253871 0.000000
0.137956 0.253871 0.000000
0.160527 0.253871 0.000000
0.187181 0.253871 0.000000
0.218004 0.253871 0.000000
0.253871 0.253871 0.000000
0.296034 0.253871 0.000000
0.344020 0.253871 0.000000
0.401444 0.253871 0.000000
0.466452 0.253871 0.000000
0.544243 0.253871 0.000000
0.633007 0.253871 0.000000
0.736730 0.253871 0.000000
0.858549 0.253871 0.000000
0.997103 0.253871 0.000000
0.000000 0.296034 0.000000
0.000004 0.296034 0.000000
0.000013 0.296034 0.000000
0.007077 0.296034 0.000000
0.011111 0.296034 0.000000
0.014816 0.296034 0.000000
0.018811 0.296034 0.000000
0.023140 0.296034 0.000000
0.027868 0.296034 0.000000
0.033293 0.296034 0.000000
0.039446 0.296034 0.000000
0.046510 0.296034 0.000000
0.054660 0.296034 0.000000
0.063942 0.296034 0.000000
0.075027 0.296034 0.000000
0.087290 0.296034 0.000000
0.102148 0.296034 0.000000
0.118991 0.296034 0.000000
0.137956 0.296034 0.000000
0.160527 0.296034 0.000000
0.187181 0.296034 0.000000
0.218004 0.296034 0.000000
0.253871 0.296034 0.000000
0.296034 0.296034 0.000000
0.344020 0.296034 0.000000
0.401444 0.296034 0.000000
0.466452 0.296034 0.000000
0.544243 0.296034 0.000000
0.633007 0.296034 0.000000
0.736730 0.296034 0.000000
0.858549 0.296034 0.000000
0.997103 0.296034 0.000000
0.000000 0.344020 0.000000
0.000004 0.344020 0.000000
0.000013 0.344020 0.000000
0.007077 0.344020 0.000000
0.011111 0.344020 0.000000
0.014816 0.344020 0.000000
0.018811 0.344020 0.000000
0.023140 0.344020 0.000000
0.027868 0.344020 0.000000
0.033293 0.344020 0.000000
0.039446 0.344020 0.000000
0.046510 0.344020 0.000000
0.054660 0.344020 0.000000
0.063942 0.344020 0.000000
0.075027 0.344020 0.000000
0.087290 0.344020 0.000000
0.102148 0.344020 0.000000
0.118991 0.344020 0.000000
0.137956 0.344020 0.000000
0.160527 0.344020 0.000000
0.187181 0.344020 0.000000
0.218004 0.344020 0.000000
0.253871 0.344020 0.000000
0.296034 0.344020 0.000000
0.344020 0.344020 0.000000
0.401444 0.344020 0.000000
0.466452 0.344020 0.000000
0.544243 0.344020 0.000000
0.633007 0.344020 0.000000
0.736730 0.344020 0.000000
0.858549 0.344020 0.000000
0.997103 0.344020 0.000000
0.000000 0.401444 0.000000
0.000004 0.401444 0.000000
0.000013 0.401444 0.000000
0.007077 0.401444 0.000000
0.011111 0.401444 0.000000
0.014816 0.401444 0.000000
0.018811 0.401444 0.000000
0.023140 0.401444 0.000000
0.027868 0.401444 0.000000
0.033293 0.401444 0.000000
0.039446 0.401444 0.000000
0.046510 0.401444 0.000000
0.054660 0.401444 0.000000
0.063942 0.401444 0.000000
0.075027 0.401444 0.000000
0.087290 0.401444 0.000000
0.102148 0.401444 0.000000
0.118991 0.401444 0.000000
0.137956 0.401444 0.000000
0.160527 0.401444 0.000000
0.187181 0.401444 0.000000
0.218004 0.401444 0.000000
0.253871 0.401444 0.000000
0.296034 0.401444 0.000000
0.344020 0.401444 0.000000
0.401444 0.401444 0.000000
0.466452 0.401444 0.000000
0.544243 0.401444 0.000000
0.633007 0.401444 0.000000
0.736730 0.401444 0.000000
0.858549 0.401444 0.000000
0.997103 0.401444 0.000000
0.000000 0.466452 0.000000
0.000004 0.466452 0.000000
0.000013 0.466452 0.000000
0.007077 0.466452 0.000000
0.011111 0.466452 0.000000
0.014816 0.466452 0.000000
0.018811 0.466452 0.000000
0.023140 0.466452 0.000000
0.027868 0.466452 0.000000
0.033293 0.466452 0.000000
0.039446 0.466452 0.000000
0.046510 0.466452 0.000000
0.054660 0.466452 0.000000
0.063942 0.466452 0.000000
0.075027 0.466452 0.000000
0.087290 0.466452 0.000000
0.102148 0.466452 0.000000
0.118991 0.466452 0.000000
0.137956 0.466452 0.000000
0.160527 0.466452 0.000000
0.187181 0.466452 0.000000
0.218004 0.466452 0.000000
0.253871 0.466452 0.000000
0.296034 0.466452 0.000000
0.344020 0.466452 0.000000
0.401444 0.466452 0.000000
0.466452 0.466452 0.000000
0.544243 0.466452 0.000000
0.633007 0.466452 0.000000
0.736730 0.466452 0.000000
0.858549 0.466452 0.000000
0.997103 0.466452 0.000000
0.000000 0.544243 0.000000
0.000004 0.544243 0.000000
0.000013 0.544243 0.000000
0.007077 0.544243 0.000000
0.011111 0.544243 0.000000
0.014816 0.544243 0.000000
0.018811 0.544243 0.000000
0.023140 0.544243 0.000000
0.027868 0.544243 0.000000
0.033293 0.544243 0.000000
0.039446 0.544243 0.000000
0.046510 0.544243 0.000000
0.054660 0.544243 0.000000
0.063942 0.544243 0.000000
0.075027 0.544243 0.000000
0.087290 0.544243 0.000000
0.102148 0.544243 0.000000
0.118991 0.544243 0.000000
0.137956 0.544243 0.000000
0.160527 0.544243 0.000000
0.187181 0.544243 0.000000
