tests/cube/square_root.cube
TITLE "cube/square_root.cube"
LUT_3D_SIZE 5
DOMAIN_MIN 0.000000 0.000000 0.000000
DOMAIN_MAX 0.903226 0.903226 0.903226
0.000000 0.000000 0.000000
0.174603 0.000000 0.000000
0.566373 0.000000 0.000000
1.000000 0.000000 0.000000
1.000000 0.000000 0.000000
0.000000 0.174603 0.000000
0.174603 0.174603 0.000000
0.566373 0.174603 0.000000
1.000000 0.174603 0.000000
1.000000 0.174603 0.000000
0.000000 0.566373 0.000000
0.174603 0.566373 0.000000
0.566373 0.566373 0.000000
1.000000 0.566373 0.000000
1.000000 0.566373 0.000000
0.000000 1.000000 0.000000
0.174603 1.000000 0.000000
0.566373 1.000000 0.000000
1.000000 1.000000 0.000000
1.000000 1.000000 0.000000
0.000000 1.000000 0.000000
0.174603 1.000000 0.000000
0.566373 1.000000 0.000000
1.000000 1.000000 0.000000
1.000000 1.000000 0.000000
0.000000 0.000000 0.174603
0.174603 0.000000 0.174603
0.566373 0.000000 0.174603
1.000000 0.000000 0.174603
1.000000 0.000000 0.174603
0.000000 0.174603 0.174603
0.174603 0.174603 0.174603
0.566373 0.174603 0.174603
1.000000 0.174603 0.174603
1.000000 0.174603 0.174603
0.000000 0.566373 0.174603
0.174603 0.566373 0.174603
0.566373 0.566373 0.174603
1.000000 0.566373 0.174603
1.000000 0.566373 0.174603
0.000000 1.000000 0.174603
0.174603 1.000000 0.174603
0.566373 1.000000 0.174603
1.000000 1.000000 0.174603
1.000000 1.000000 0.174603
0.000000 1.000000 0.174603
0.174603 1.000000 0.174603
0.566373 1.000000 0.174603
1.000000 1.000000 0.174603
1.000000 1.000000 0.174603
0.000000 0.000000 0.566373
0.174603 0.000000 0.566373
0.566373 0.000000 0.566373
1.000000 0.000000 0.566373
1.000000 0.000000 0.566373
0.000000 0.174603 0.566373
0.174603 0.174603 0.566373
0.566373 0.174603 0.566373
1.000000 0.174603 0.566373
1.000000 0.174603 0.566373
0.000000 0.566373 0.566373
0.174603 0.566373 0.566373
0.566373 0.566373 0.566373
1.000000 0.566373 0.566373
1.000000 0.566373 0.566373
0.000000 1.000000 0.566373
0.174603 1.000000 0.566373
0.566373 1.000000 0.566373
1.000000 1.000000 0.566373
1.000000 1.000000 0.566373
0.000000 1.000000 0.566373
0.174603 1.000000 0.566373
0.566373 1.000000 0.566373
1.000000 1.000000 0.566373
1.000000 1.000000 0.566373
0.000000 0.000000 1.000000
0.174603 0.000000 1.000000
0.566373 0.000000 1.000000
1.000000 0.000000 1.000000
1.000000 0.000000 1.000000
0.000000 0.174603 1.000000
0.174603 0.174603 1.000000
0.566373 0.174603 1.000000
1.000000 0.174603 1.000000
1.000000 0.174603 1.000000
0.000000 0.566373 1.000000
0.174603 0.566373 1.000000
0.566373 0.566373 1.000000
1.000000 0.566373 1.000000
1.000000 0.566373 1.000000
0.000000 1.000000 1.000000
0.174603 1.000000 1.000000
0.566373 1.000000 1.000000
1.000000 1.000000 1.000000
1.000000 1.000000 1.000000
0.000000 1.000000 1.000000
0.174603 1.000000 1.000000
0.566373 1.000000 1.000000
1.000000 1.000000 1.000000
1.000000 1.000000 1.000000
0.000000 0.000000 1.000000
0.174603 0.000000 1.000000
0.566373 0.000000 1.000000
1.000000 0.000000 1.000000
1.000000 0.000000 1.000000
0.000000 0.174603 1.000000
0.174603 0.174603 1.000000
0.566373 0.174603 1.000000
1.000000 0.174603 1.000000
1.000000 0.174603 1.000000
0.000000 0.566373 1.000000
0.174603 0.566373 1.000000
0.566373 0.566373 1.000000
1.000000 0.566373 1.000000
1.000000 0.566373 1.000000
0.000000 1.000000 1.000000
0.174603 1.000000 1.000000
0.566373 1.000000 1.000000
1.000000 1.000000 1.000000
1.000000 1.000000 1.000000
0.000000 1.000000 1.000000
0.174603 1.000000 1.000000
0.566373 1.000000 1.000000
1.000000 1.000000 1.000000
1.000000 1.000000 1.000000
