tests/cube/square.cube
TITLE "cube/square.cube"
LUT_3D_SIZE 8
DOMAIN_MIN 0.000000 0.000000 0.000000
DOMAIN_MAX 0.903226 0.903226 0.903226
0.000000 0.000000 0.000000
0.000051 0.000000 0.000000
0.001971 0.000000 0.000000
0.029046 0.000000 0.000000
0.356197 0.000000 0.000000
1.000000 0.000000 0.000000
1.000000 0.000000 0.000000
1.000000 0.000000 0.000000
0.000000 0.000051 0.000000
0.000051 0.000051 0.000000
0.001971 0.000051 0.000000
0.029046 0.000051 0.000000
0.356197 0.000051 0.000000
1.000000 0.000051 0.000000
1.000000 0.000051 0.000000
1.000000 0.000051 0.000000
0.000000 0.001971 0.000000
0.000051 0.001971 0.000000
0.001971 0.001971 0.000000
0.029046 0.001971 0.000000
0.356197 0.001971 0.000000
1.000000 0.001971 0.000000
1.000000 0.001971 0.000000
1.000000 0.001971 0.000000
0.000000 0.029046 0.000000
0.000051 0.029046 0.000000
0.001971 0.029046 0.000000
0.029046 0.029046 0.000000
0.356197 0.029046 0.000000
1.000000 0.029046 0.000000
1.000000 0.029046 0.000000
1.000000 0.029046 0.000000
0.000000 0.356197 0.000000
0.000051 0.356197 0.000000
0.001971 0.356197 0.000000
0.029046 0.356197 0.000000
0.356197 0.356197 0.000000
1.000000 0.356197 0.000000
1.000000 0.356197 0.000000
1.000000 0.356197 0.000000
0.000000 1.000000 0.000000
0.000051 1.000000 0.000000
0.001971 1.000000 0.000000
0.029046 1.000000 0.000000
0.356197 1.000000 0.000000
1.000000 1.000000 0.000000
1.000000 1.000000 0.000000
1.000000 1.000000 0.000000
0.000000 1.000000 0.000000
0.000051 1.000000 0.000000
0.001971 1.000000 0.000000
0.029046 1.000000 0.000000
0.356197 1.000000 0.000000
1.000000 1.000000 0.000000
1.000000 1.000000 0.000000
1.000000 1.000000 0.000000
0.000000 1.000000 0.000000
0.000051 1.000000 0.000000
0.001971 1.000000 0.000000
0.029046 1.000000 0.000000
0.356197 1.000000 0.000000
1.000000 1.000000 0.000000
1.000000 1.000000 0.000000
1.000000 1.000000 0.000000
0.000000 0.000000 0.000051
0.000051 0.000000 0.000051
0.001971 0.000000 0.000051
0.029046 0.000000 0.000051
0.356197 0.000000 0.000051
1.000000 0.000000 0.000051
1.000000 0.000000 0.000051
1.000000 0.000000 0.000051
0.000000 0.000051 0.000051
0.000051 0.000051 0.000051
0.001971 0.000051 0.000051
0.029046 0.000051 0.000051
0.356197 0.000051 0.000051
1.000000 0.000051 0.000051
1.000000 0.000051 0.000051
1.000000 0.000051 0.000051
0.000000 0.001971 0.000051
0.000051 0.001971 0.000051
0.001971 0.001971 0.000051
0.029046 0.001971 0.000051
0.356197 0.001971 0.000051
1.000000 0.001971 0.000051
1.000000 0.001971 0.000051
1.000000 0.001971 0.000051
0.000000 0.029046 0.000051
0.000051 0.029046 0.000051
0.001971 0.029046 0.000051
0.029046 0.029046 0.000051
0.356197 0.029046 0.000051
1.000000 0.029046 0.000051
1.000000 0.029046 0.000051
1.000000 0.029046 0.000051
0.000000 0.356197 0.000051
0.000051 0.356197 0.000051
0.001971 0.356197 0.000051
0.029046 0.356197 0.000051
0.356197 0.356197 0.000051
1.000000 0.356197 0.000051
1.000000 0.356197 0.000051
1.000000 0.356197 0.000051
0.000000 1.000000 0.000051
0.000051 1.000000 0.000051
0.001971 1.000000 0.000051
0.029046 1.000000 0.000051
0.356197 1.000000 0.000051
1.000000 1.000000 0.000051
1.000000 1.000000 0.000051
1.000000 1.000000 0.000051
0.000000 1.000000 0.000051
0.000051 1.000000 0.000051
0.001971 1.000000 0.000051
0.029046 1.000000 0.000051
0.356197 1.000000 0.000051
1.000000 1.000000 0.000051
1.000000 1.000000 0.000051
1.000000 1.000000 0.000051
0.000000 1.000000 0.000051
0.000051 1.000000 0.000051
0.001971 1.000000 0.000051
0.029046 1.000000 0.000051
0.356197 1.000000 0.000051
1.000000 1.000000 0.000051
1.000000 1.000000 0.000051
1.000000 1.000000 0.000051
0.000000 0.000000 0.001971
0.000051 0.000000 0.001971
0.001971 0.000000 0.001971
0.029046 0.000000 0.001971
0.356197 0.000000 0.001971
1.000000 0.000000 0.001971
1.000000 0.000000 0.001971
1.000000 0.000000 0.001971
0.000000 0.000051 0.001971
0.000051 0.000051 0.001971
0.001971 0.000051 0.001971
0.029046 0.000051 0.001971
0.356197 0.000051 0.001971
1.000000 0.000051 0.001971
1.000000 0.000051 0.001971
1.000000 0.000051 0.001971
0.000000 0.001971 0.001971
0.000051 0.001971 0.001971
0.001971 0.001971 0.001971
0.029046 0.001971 0.001971
0.356197 0.001971 0.001971
1.000000 0.001971 0.001971
1.000000 0.001971 0.001971
1.000000 0.001971 0.001971
0.000000 0.029046 0.001971
0.000051 0.029046 0.001971
0.001971 0.029046 0.001971
0.029046 0.029046 0.001971
0.356197 0.029046 0.001971
1.000000 0.029046 0.001971
1.000000 0.029046 0.001971
1.000000 0.029046 0.001971
0.000000 0.356197 0.001971
0.000051 0.356197 0.001971
0.001971 0.356197 0.001971
0.029046 0.356197 0.001971
0.356197 0.356197 0.001971
1.000000 0.356197 0.001971
1.000000 0.356197 0.001971
1.000000 0.356197 0.001971
0.000000 1.000000 0.001971
0.000051 1.000000 0.001971
0.001971 1.000000 0.001971
0.029046 1.000000 0.001971
0.356197 1.000000 0.001971
1.000000 1.000000 0.001971
1.000000 1.000000 0.001971
1.000000 1.000000 0.001971
0.000000 1.000000 0.001971
0.000051 1.000000 0.001971
0.001971 1.000000 0.001971
0.029046 1.000000 0.001971
0.356197 1.000000 0.001971
1.000000 1.000000 0.001971
1.000000 1.000000 0.001971
1.000000 1.000000 0.001971
0.000000 1.000000 0.001971
0.000051 1.000000 0.001971
0.001971 1.000000 0.001971
0.029046 1.000000 0.001971
0.356197 1.000000 0.001971
1.000000 1.000000 0.001971
1.000000 1.000000 0.001971
1.000000 1.000000 0.001971
0.000000 0.000000 0.029046
0.000051 0.000000 0.029046
0.001971 0.000000 0.029046
0.029046 0.000000 0.029046
0.356197 0.000000 0.029046
1.000000 0.000000 0.029046
1.000000 0.000000 0.029046
1.000000 0.000000 0.029046
0.000000 0.000051 0.029046
0.000051 0.000051 0.029046
0.001971 0.000051 0.029046
0.029046 0.000051 0.029046
0.356197 0.000051 0.029046
1.000000 0.000051 0.029046
1.000000 0.000051 0.029046
1.000000 0.000051 0.029046
0.000000 0.001971 0.029046
0.000051 0.001971 0.029046
0.001971 0.001971 0.029046
0.029046 0.001971 0.029046
0.356197 0.001971 0.029046
1.000000 0.001971 0.029046
1.000000 0.001971 0.029046
1.000000 0.001971 0.029046
0.000000 0.029046 0.029046
0.000051 0.029046 0.029046
0.001971 0.029046 0.029046
0.029046 0.029046 0.029046
0.356197 0.029046 0.029046
1.000000 0.029046 0.029046
1.000000 0.029046 0.029046
1.000000 0.029046 0.029046
0.000000 0.356197 0.029046
0.000051 0.356197 0.029046
0.001971 0.356197 0.029046
0.029046 0.356197 0.029046
0.356197 0.356197 0.029046
1.000000 0.356197 0.029046
1.000000 0.356197 0.029046
1.000000 0.356197 0.029046
0.000000 1.000000 0.029046
0.000051 1.000000 0.029046
0.001971 1.000000 0.029046
0.029046 1.000000 0.029046
0.356197 1.000000 0.029046
1.000000 1.000000 0.029046
1.000000 1.000000 0.029046
1.000000 1.000000 0.029046
0.000000 1.000000 0.029046
0.000051 1.000000 0.029046
0.001971 1.000000 0.029046
0.029046 1.000000 0.029046
0.356197 1.000000 0.029046
1.000000 1.000000 0.029046
1.000000 1.000000 0.029046
1.000000 1.000000 0.029046
0.000000 1.000000 0.029046
0.000051 1.000000 0.029046
0.001971 1.000000 0.029046
0.029046 1.000000 0.029046
0.356197 1.000000 0.029046
1.000000 1.000000 0.029046
1.000000 1.000000 0.029046
1.000000 1.000000 0.029046
0.000000 0.000000 0.356197
0.000051 0.000000 0.356197
0.001971 0.000000 0.356197
0.029046 0.000000 0.356197
0.356197 0.000000 0.356197
1.000000 0.000000 0.356197
1.000000 0.000000 0.356197
1.000000 0.000000 0.356197
0.000000 0.000051 0.356197
0.000051 0.000051 0.356197
0.001971 0.000051 0.356197
0.029046 0.000051 0.356197
0.356197 0.000051 0.356197
1.000000 0.000051 0.356197
1.000000 0.000051 0.356197
1.000000 0.000051 0.356197
0.000000 0.001971 0.356197
0.000051 0.001971 0.356197
0.001971 0.001971 0.356197
0.029046 0.001971 0.356197
0.356197 0.001971 0.356197
1.000000 0.001971 0.356197
1.000000 0.001971 0.356197
1.000000 0.001971 0.356197
0.000000 0.029046 0.356197
0.000051 0.029046 0.356197
0.001971 0.029046 0.356197
0.029046 0.029046 0.356197
0.356197 0.029046 0.356197
1.000000 0.029046 0.356197
1.000000 0.029046 0.356197
1.000000 0.029046 0.356197
0.000000 0.356197 0.356197
0.000051 0.356197 0.356197
0.001971 0.356197 0.356197
0.029046 0.356197 0.356197
0.356197 0.356197 0.356197
1.000000 0.356197 0.356197
1.000000 0.356197 0.356197
1.000000 0.356197 0.356197
0.000000 1.000000 0.356197
0.000051 1.000000 0.356197
0.001971 1.000000 0.356197
0.029046 1.000000 0.356197
0.356197 1.000000 0.356197
1.000000 1.000000 0.356197
1.000000 1.000000 0.356197
1.000000 1.000000 0.356197
0.000000 1.000000 0.356197
0.000051 1.000000 0.356197
0.001971 1.000000 0.356197
0.029046 1.000000 0.356197
0.356197 1.000000 0.356197
1.000000 1.000000 0.356197
1.000000 1.000000 0.356197
1.000000 1.000000 0.356197
0.000000 1.000000 0.356197
0.000051 1.000000 0.356197
0.001971 1.000000 0.356197
0.029046 1.000000 0.356197
0.356197 1.000000 0.356197
1.000000 1.000000 0.356197
1.000000 1.000000 0.356197
1.000000 1.000000 0.356197
0.000000 0.000000 1.000000
0.000051 0.000000 1.000000
0.001971 0.000000 1.000000
0.029046 0.000000 1.000000
0.356197 0.000000 1.000000
1.000000 0.000000 1.000000
1.000000 0.000000 1.000000
1.000000 0.000000 1.000000
0.000000 0.000051 1.000000
0.000051 0.000051 1.000000
0.001971 0.000051 1.000000
0.029046 0.000051 1.000000
0.356197 0.000051 1.000000
1.000000 0.000051 1.000000
1.000000 0.000051 1.000000
1.000000 0.000051 1.000000
0.000000 0.001971 1.000000
0.000051 0.001971 1.000000
0.001971 0.001971 1.000000
0.029046 0.001971 1.000000
0.356197 0.001971 1.000000
1.000000 0.001971 1.000000
1.000000 0.001971 1.000000
1.000000 0.001971 1.000000
0.000000 0.029046 1.000000
0.000051 0.029046 1.000000
0.001971 0.029046 1.000000
0.029046 0.029046 1.000000
0.356197 0.029046 1.000000
1.000000 0.029046 1.000000
1.000000 0.029046 1.000000
1.000000 0.029046 1.000000
0.000000 0.356197 1.000000
0.000051 0.356197 1.000000
0.001971 0.356197 1.000000
0.029046 0.356197 1.000000
0.356197 0.356197 1.000000
1.000000 0.356197 1.000000
1.000000 0.356197 1.000000
1.000000 0.356197 1.000000
0.000000 1.000000 1.000000
0.000051 1.000000 1.000000
0.001971 1.000000 1.000000
0.029046 1.000000 1.000000
0.356197 1.000000 1.000000
1.000000 1.000000 1.000000
1.000000 1.000000 1.000000
1.000000 1.000000 1.000000
0.000000 1.000000 1.000000
0.000051 1.000000 1.000000
0.001971 1.000000 1.000000
0.029046 1.000000 1.000000
0.356197 1.000000 1.000000
1.000000 1.000000 1.000000
1.000000 1.000000 1.000000
1.000000 1.000000 1.000000
0.000000 1.000000 1.000000
0.000051 1.000000 1.000000
0.001971 1.000000 1.000000
0.029046 1.000000 1.000000
0.356197 1.000000 1.000000
1.000000 1.000000 1.000000
1.000000 1.000000 1.000000
1.000000 1.000000 1.000000
0.000000 0.000000 1.000000
0.000051 0.000000 1.000000
0.001971 0.000000 1.000000
0.029046 0.000000 1.000000
0.356197 0.000000 1.000000
1.000000 0.000000 1.000000
1.000000 0.000000 1.000000
1.000000 0.000000 1.000000
0.000000 0.000051 1.000000
0.000051 0.000051 1.000000
0.001971 0.000051 1.000000
0.029046 0.000051 1.000000
0.356197 0.000051 1.000000
1.000000 0.000051 1.000000
1.000000 0.000051 1.000000
1.000000 0.000051 1.000000
0.000000 0.001971 1.000000
0.000051 0.001971 1.000000
0.001971 0.001971 1.000000
0.029046 0.001971 1.000000
0.356197 0.001971 1.000000
1.000000 0.001971 1.000000
1.000000 0.001971 1.000000
1.000000 0.001971 1.000000
0.000000 0.029046 1.000000
0.000051 0.029046 1.000000
0.001971 0.029046 1.000000
0.029046 0.029046 1.000000
0.356197 0.029046 1.000000
1.000000 0.029046 1.000000
1.000000 0.029046 1.000000
1.000000 0.029046 1.000000
0.000000 0.356197 1.000000
0.000051 0.356197 1.000000
0.001971 0.356197 1.000000
0.029046 0.356197 1.000000
0.356197 0.356197 1.000000
1.000000 0.356197 1.000000
1.000000 0.356197 1.000000
1.000000 0.356197 1.000000
0.000000 1.000000 1.000000
0.000051 1.000000 1.000000
0.001971 1.000000 1.000000
0.029046 1.000000 1.000000
0.356197 1.000000 1.000000
1.000000 1.000000 1.000000
1.000000 1.000000 1.000000
1.000000 1.000000 1.000000
0.000000 1.000000 1.000000
0.000051 1.000000 1.000000
0.001971 1.000000 1.000000
0.029046 1.000000 1.000000
0.356197 1.000000 1.000000
1.000000 1.000000 1.000000
1.000000 1.000000 1.000000
1.000000 1.000000 1.000000
0.000000 1.000000 1.000000
0.000051 1.000000 1.000000
0.001971 1.000000 1.000000
0.029046 1.000000 1.000000
0.356197 1.000000 1.000000
1.000000 1.000000 1.000000
1.000000 1.000000 1.000000
1.000000 1.000000 1.000000
0.000000 0.000000 1.000000
0.000051 0.000000 1.000000
0.001971 0.000000 1.000000
0.029046 0.000000 1.000000
0.356197 0.000000 1.000000
1.000000 0.000000 1.000000
1.000000 0.000000 1.000000
1.000000 0.000000 1.000000
0.000000 0.000051 1.000000
0.000051 0.000051 1.000000
0.001971 0.000051 1.000000
0.029046 0.000051 1.000000
0.356197 0.000051 1.000000
1.000000 0.000051 1.000000
1.000000 0.000051 1.000000
1.000000 0.000051 1.000000
0.000000 0.001971 1.000000
0.000051 0.001971 1.000000
0.001971 0.001971 1.000000
0.029046 0.001971 1.000000
0.356197 0.001971 1.000000
1.000000 0.001971 1.000000
1.000000 0.001971 1.000000
1.000000 0.001971 1.000000
0.000000 0.029046 1.000000
0.000051 0.029046 1.000000
0.001971 0.029046 1.000000
0.029046 0.029046 1.000000
0.356197 0.029046 1.000000
1.000000 0.029046 1.000000
1.000000 0.029046 1.000000
1.000000 0.029046 1.000000
0.000000 0.356197 1.000000
0.000051 0.356197 1.000000
0.001971 0.356197 1.000000
0.029046 0.356197 1.000000
0.356197 0.356197 1.000000
1.000000 0.356197 1.000000
1.000000 0.356197 1.000000
1.000000 0.356197 1.000000
0.000000 1.000000 1.000000
0.000051 1.000000 1.000000
0.001971 1.000000 1.000000
0.029046 1.000000 1.000000
0.356197 1.000000 1.000000
1.000000 1.000000 1.000000
1.000000 1.000000 1.000000
1.000000 1.000000 1.000000
0.000000 1.000000 1.000000
0.000051 1.000000 1.000000
0.001971 1.000000 1.000000
0.029046 1.000000 1.000000
0.356197 1.000000 1.000000
1.000000 1.000000 1.000000
1.000000 1.000000 1.000000
1.000000 1.000000 1.000000
0.000000 1.000000 1.000000
0.000051 1.000000 1.000000
0.001971 1.000000 1.000000
0.029046 1.000000 1.000000
0.356197 1.000000 1.000000
1.000000 1.000000 1.000000
1.000000 1.000000 1.000000
1.000000 1.000000 1.000000
