python/4 - creating cube files/cube files/linearize_achromatic.cube
TITLE "cube/linearize_achromatic.cube"
LUT_3D_SIZE 32
DOMAIN_MIN 0.0 0.0 0.0
DOMAIN_MAX 1.0 1.0 1.0
0.000000 0.000000 0.000000
0.000000 0.000000 0.000000
0.000000 0.000000 0.000000
0.000000 0.000000 0.000000
-0.003226 0.000000 0.000000
0.024504 0.000000 0.000000
0.057549 0.000000 0.000000
0.085124 0.000000 0.000000
0.116180 0.000000 0.000000
0.152630 0.000000 0.000000
0.193842 0.000000 0.000000
0.244594 0.000000 0.000000
0.304953 0.000000 0.000000
0.378574 0.000000 0.000000
0.469089 0.000000 0.000000
0.577188 0.000000 0.000000
0.712513 0.000000 0.000000
0.875974 0.000000 0.000000
1.072575 0.000000 0.000000
1.000000 0.000000 0.000000
1.000000 0.000000 0.000000
1.000000 0.000000 0.000000
1.000000 0.000000 0.000000
1.000000 0.000000 0.000000
1.000000 0.000000 0.000000
1.000000 0.000000 0.000000
1.000000 0.000000 0.000000
1.000000 0.000000 0.000000
1.000000 0.000000 0.000000
1.000000 0.000000 0.000000
1.000000 0.000000 0.000000
1.000000 0.000000 0.000000
0.000000 0.000000 0.000000
0.000000 0.000000 0.000000
0.000000 0.000000 0.000000
0.000000 0.000000 0.000000
-0.003226 0.000000 0.000000
0.024504 0.000000 0.000000
0.057549 0.000000 0.000000
0.085124 0.000000 0.000000
0.116180 0.000000 0.000000
0.152630 0.000000 0.000000
0.193842 0.000000 0.000000
0.244594 0.000000 0.000000
0.304953 0.000000 0.000000
0.378574 0.000000 0.000000
0.469089 0.000000 0.000000
0.577188 0.000000 0.000000
0.712513 0.000000 0.000000
0.875974 0.000000 0.000000
1.072575 0.000000 0.000000
1.000000 0.000000 0.000000
1.000000 0.000000 0.000000
1.000000 0.000000 0.000000
1.000000 0.000000 0.000000
1.000000 0.000000 0.000000
1.000000 0.000000 0.000000
1.000000 0.000000 0.000000
1.000000 0.000000 0.000000
1.000000 0.000000 0.000000
1.000000 0.000000 0.000000
1.000000 0.000000 0.000000
1.000000 0.000000 0.000000
1.000000 0.000000 0.000000
0.000000 0.000000 0.000000
0.000000 0.000000 0.000000
0.000000 0.000000 0.000000
0.000000 0.000000 0.000000
-0.003226 0.000000 0.000000
0.024504 0.000000 0.000000
0.057549 0.000000 0.000000
0.085124 0.000000 0.000000
0.116180 0.000000 0.000000
0.152630 0.000000 0.000000
0.193842 0.000000 0.000000
0.244594 0.000000 0.000000
0.304953 0.000000 0.000000
0.378574 0.000000 0.000000
0.469089 0.000000 0.000000
0.577188 0.000000 0.000000
0.712513 0.000000 0.000000
0.875974 0.000000 0.000000
1.072575 0.000000 0.000000
1.000000 0.000000 0.000000
1.000000 0.000000 0.000000
1.000000 0.000000 0.000000
1.000000 0.000000 0.000000
1.000000 0.000000 0.000000
1.000000 0.000000 0.000000
1.000000 0.000000 0.000000
1.000000 0.000000 0.000000
1.000000 0.000000 0.000000
1.000000 0.000000 0.000000
1.000000 0.000000 0.000000
1.000000 0.000000 0.000000
1.000000 0.000000 0.000000
0.000000 0.000000 0.000000
0.000000 0.000000 0.000000
0.000000 0.000000 0.000000
0.000000 0.000000 0.000000
-0.003226 0.000000 0.000000
0.024504 0.000000 0.000000
0.057549 0.000000 0.000000
0.085124 0.000000 0.000000
0.116180 0.000000 0.000000
0.152630 0.000000 0.000000
0.193842 0.000000 0.000000
0.244594 0.000000 0.000000
0.304953 0.000000 0.000000
0.378574 0.000000 0.000000
0.469089 0.000000 0.000000
0.577188 0.000000 0.000000
0.712513 0.000000 0.000000
0.875974 0.000000 0.000000
1.072575 0.000000 0.000000
1.000000 0.000000 0.000000
1.000000 0.000000 0.000000
1.000000 0.000000 0.000000
1.000000 0.000000 0.000000
1.000000 0.000000 0.000000
1.000000 0.000000 0.000000
1.000000 0.000000 0.000000
1.000000 0.000000 0.000000
1.000000 0.000000 0.000000
1.000000 0.000000 0.000000
1.000000 0.000000 0.000000
1.000000 0.000000 0.000000
1.000000 0.000000 0.000000
0.000000 -0.003226 0.000000
0.000000 -0.003226 0.000000
0.000000 -0.003226 0.000000
0.000000 -0.003226 0.000000
-0.003226 -0.003226 0.000000
0.024504 -0.003226 0.000000
0.057549 -0.003226 0.000000
0.085124 -0.003226 0.000000
0.116180 -0.003226 0.000000
0.152630 -0.003226 0.000000
0.193842 -0.003226 0.000000
0.244594 -0.003226 0.000000
0.304953 -0.003226 0.000000
0.378574 -0.003226 0.000000
0.469089 -0.003226 0.000000
0.577188 -0.003226 0.000000
0.712513 -0.003226 0.000000
0.875974 -0.003226 0.000000
1.072575 -0.003226 0.000000
1.000000 -0.003226 0.000000
1.000000 -0.003226 0.000000
1.000000 -0.003226 0.000000
1.000000 -0.003226 0.000000
1.000000 -0.003226 0.000000
1.000000 -0.003226 0.000000
1.000000 -0.003226 0.000000
1.000000 -0.003226 0.000000
1.000000 -0.003226 0.000000
1.000000 -0.003226 0.000000
1.000000 -0.003226 0.000000
1.000000 -0.003226 0.000000
1.000000 -0.003226 0.000000
0.000000 0.024504 0.000000
0.000000 0.024504 0.000000
0.000000 0.024504 0.000000
0.000000 0.024504 0.000000
-0.003226 0.024504 0.000000
0.024504 0.024504 0.000000
0.057549 0.024504 0.000000
0.085124 0.024504 0.000000
0.116180 0.024504 0.000000
0.152630 0.024504 0.000000
0.193842 0.024504 0.000000
0.244594 0.024504 0.000000
0.304953 0.024504 0.000000
0.378574 0.024504 0.000000
0.469089 0.024504 0.000000
0.577188 0.024504 0.000000
0.712513 0.024504 0.000000
0.875974 0.024504 0.000000
1.072575 0.024504 0.000000
1.000000 0.024504 0.000000
1.000000 0.024504 0.000000
1.000000 0.024504 0.000000
1.000000 0.024504 0.000000
1.000000 0.024504 0.000000
1.000000 0.024504 0.000000
1.000000 0.024504 0.000000
1.000000 0.024504 0.000000
1.000000 0.024504 0.000000
1.000000 0.024504 0.000000
1.000000 0.024504 0.000000
1.000000 0.024504 0.000000
1.000000 0.024504 0.000000
0.000000 0.057549 0.000000
0.000000 0.057549 0.000000
0.000000 0.057549 0.000000
0.000000 0.057549 0.000000
-0.003226 0.057549 0.000000
0.024504 0.057549 0.000000
0.057549 0.057549 0.000000
0.085124 0.057549 0.000000
0.116180 0.057549 0.000000
0.152630 0.057549 0.000000
0.193842 0.057549 0.000000
0.244594 0.057549 0.000000
0.304953 0.057549 0.000000
0.378574 0.057549 0.000000
0.469089 0.057549 0.000000
0.577188 0.057549 0.000000
0.712513 0.057549 0.000000
0.875974 0.057549 0.000000
1.072575 0.057549 0.000000
1.000000 0.057549 0.000000
1.000000 0.057549 0.000000
1.000000 0.057549 0.000000
1.000000 0.057549 0.000000
1.000000 0.057549 0.000000
1.000000 0.057549 0.000000
1.000000 0.057549 0.000000
1.000000 0.057549 0.000000
1.000000 0.057549 0.000000
1.000000 0.057549 0.000000
1.000000 0.057549 0.000000
1.000000 0.057549 0.000000
1.000000 0.057549 0.000000
0.000000 0.085124 0.000000
0.000000 0.085124 0.000000
0.000000 0.085124 0.000000
0.000000 0.085124 0.000000
-0.003226 0.085124 0.000000
0.024504 0.085124 0.000000
0.057549 0.085124 0.000000
0.085124 0.085124 0.000000
0.116180 0.085124 0.000000
0.152630 0.085124 0.000000
0.193842 0.085124 0.000000
0.244594 0.085124 0.000000
0.304953 0.085124 0.000000
0.378574 0.085124 0.000000
0.469089 0.085124 0.000000
0.577188 0.085124 0.000000
0.712513 0.085124 0.000000
0.875974 0.085124 0.000000
1.072575 0.085124 0.000000
1.000000 0.085124 0.000000
1.000000 0.085124 0.000000
1.000000 0.085124 0.000000
1.000000 0.085124 0.000000
1.000000 0.085124 0.000000
1.000000 0.085124 0.000000
1.000000 0.085124 0.000000
1.000000 0.085124 0.000000
1.000000 0.085124 0.000000
1.000000 0.085124 0.000000
1.000000 0.085124 0.000000
1.000000 0.085124 0.000000
1.000000 0.085124 0.000000
0.000000 0.116180 0.000000
0.000000 0.116180 0.000000
0.000000 0.116180 0.000000
0.000000 0.116180 0.000000
-0.003226 0.116180 0.000000
0.024504 0.116180 0.000000
0.057549 0.116180 0.000000
0.085124 0.116180 0.000000
0.116180 0.116180 0.000000
0.152630 0.116180 0.000000
0.193842 0.116180 0.000000
0.244594 0.116180 0.000000
0.304953 0.116180 0.000000
0.378574 0.116180 0.000000
0.469089 0.116180 0.000000
0.577188 0.116180 0.000000
0.712513 0.116180 0.000000
0.875974 0.116180 0.000000
1.072575 0.116180 0.000000
1.000000 0.116180 0.000000
1.000000 0.116180 0.000000
1.000000 0.116180 0.000000
1.000000 0.116180 0.000000
1.000000 0.116180 0.000000
1.000000 0.116180 0.000000
1.000000 0.116180 0.000000
1.000000 0.116180 0.000000
1.000000 0.116180 0.000000
1.000000 0.116180 0.000000
1.000000 0.116180 0.000000
1.000000 0.116180 0.000000
1.000000 0.116180 0.000000
0.000000 0.152630 0.000000
0.000000 0.152630 0.000000
0.000000 0.152630 0.000000
0.000000 0.152630 0.000000
-0.003226 0.152630 0.000000
0.024504 0.152630 0.000000
0.057549 0.152630 0.000000
0.085124 0.152630 0.000000
0.116180 0.152630 0.000000
0.152630 0.152630 0.000000
0.193842 0.152630 0.000000
0.244594 0.152630 0.000000
0.304953 0.152630 0.000000
0.378574 0.152630 0.000000
0.469089 0.152630 0.000000
0.577188 0.152630 0.000000
0.712513 0.152630 0.000000
0.875974 0.152630 0.000000
1.072575 0.152630 0.000000
1.000000 0.152630 0.000000
1.000000 0.152630 0.000000
1.000000 0.152630 0.000000
1.000000 0.152630 0.000000
1.000000 0.152630 0.000000
1.000000 0.152630 0.000000
1.000000 0.152630 0.000000
1.000000 0.152630 0.000000
1.000000 0.152630 0.000000
1.000000 0.152630 0.000000
1.000000 0.152630 0.000000
1.000000 0.152630 0.000000
1.000000 0.152630 0.000000
0.000000 0.193842 0.000000
0.000000 0.193842 0.000000
0.000000 0.193842 0.000000
0.000000 0.193842 0.000000
-0.003226 0.193842 0.000000
0.024504 0.193842 0.000000
0.057549 0.193842 0.000000
0.085124 0.193842 0.000000
0.116180 0.193842 0.000000
0.152630 0.193842 0.000000
0.193842 0.193842 0.000000
0.244594 0.193842 0.000000
0.304953 0.193842 0.000000
0.378574 0.193842 0.000000
0.469089 0.193842 0.000000
0.577188 0.193842 0.000000
0.712513 0.193842 0.000000
0.875974 0.193842 0.000000
1.072575 0.193842 0.000000
1.000000 0.193842 0.000000
1.000000 0.193842 0.000000
1.000000 0.193842 0.000000
1.000000 0.193842 0.000000
1.000000 0.193842 0.000000
1.000000 0.193842 0.000000
1.000000 0.193842 0.000000
1.000000 0.193842 0.000000
1.000000 0.193842 0.000000
1.000000 0.193842 0.000000
1.000000 0.193842 0.000000
1.000000 0.193842 0.000000
1.000000 0.193842 0.000000
0.000000 0.244594 0.000000
0.000000 0.244594 0.000000
0.000000 0.244594 0.000000
0.000000 0.244594 0.000000
-0.003226 0.244594 0.000000
0.024504 0.244594 0.000000
0.057549 0.244594 0.000000
0.085124 0.244594 0.000000
0.116180 0.244594 0.000000
0.152630 0.244594 0.000000
0.193842 0.244594 0.000000
0.244594 0.244594 0.000000
0.304953 0.244594 0.000000
0.378574 0.244594 0.000000
0.469089 0.244594 0.000000
0.577188 0.244594 0.000000
0.712513 0.244594 0.000000
0.875974 0.244594 0.000000
1.072575 0.244594 0.000000
1.000000 0.244594 0.000000
1.000000 0.244594 0.000000
1.000000 0.244594 0.000000
1.000000 0.244594 0.000000
1.000000 0.244594 0.000000
1.000000 0.244594 0.000000
1.000000 0.244594 0.000000
1.000000 0.244594 0.000000
1.000000 0.244594 0.000000
1.000000 0.244594 0.000000
1.000000 0.244594 0.000000
1.000000 0.244594 0.000000
1.000000 0.244594 0.000000
0.000000 0.304953 0.000000
0.000000 0.304953 0.000000
0.000000 0.304953 0.000000
0.000000 0.304953 0.000000
-0.003226 0.304953 0.000000
0.024504 0.304953 0.000000
0.057549 0.304953 0.000000
0.085124 0.304953 0.000000
0.116180 0.304953 0.000000
0.152630 0.304953 0.000000
0.193842 0.304953 0.000000
0.244594 0.304953 0.000000
0.304953 0.304953 0.000000
0.378574 0.304953 0.000000
0.469089 0.304953 0.000000
0.577188 0.304953 0.000000
0.712513 0.304953 0.000000
0.875974 0.304953 0.000000
1.072575 0.304953 0.000000
1.000000 0.304953 0.000000
1.000000 0.304953 0.000000
1.000000 0.304953 0.000000
1.000000 0.304953 0.000000
1.000000 0.304953 0.000000
1.000000 0.304953 0.000000
1.000000 0.304953 0.000000
1.000000 0.304953 0.000000
1.000000 0.304953 0.000000
1.000000 0.304953 0.000000
1.000000 0.304953 0.000000
1.000000 0.304953 0.000000
1.000000 0.304953 0.000000
0.000000 0.378574 0.000000
0.000000 0.378574 0.000000
0.000000 0.378574 0.000000
0.000000 0.378574 0.000000
-0.003226 0.378574 0.000000
0.024504 0.378574 0.000000
0.057549 0.378574 0.000000
0.085124 0.378574 0.000000
0.116180 0.378574 0.000000
0.152630 0.378574 0.000000
0.193842 0.378574 0.000000
0.244594 0.378574 0.000000
0.304953 0.378574 0.000000
0.378574 0.378574 0.000000
0.469089 0.378574 0.000000
0.577188 0.378574 0.000000
0.712513 0.378574 0.000000
0.875974 0.378574 0.000000
1.072575 0.378574 0.000000
1.000000 0.378574 0.000000
1.000000 0.378574 0.000000
1.000000 0.378574 0.000000
1.000000 0.378574 0.000000
1.000000 0.378574 0.000000
1.000000 0.378574 0.000000
1.000000 0.378574 0.000000
1.000000 0.378574 0.000000
1.000000 0.378574 0.000000
1.000000 0.378574 0.000000
1.000000 0.378574 0.000000
1.000000 0.378574 0.000000
1.000000 0.378574 0.000000
0.000000 0.469089 0.000000
0.000000 0.469089 0.000000
0.000000 0.469089 0.000000
0.000000 0.469089 0.000000
-0.003226 0.469089 0.000000
0.024504 0.469089 0.000000
0.057549 0.469089 0.000000
0.085124 0.469089 0.000000
0.116180 0.469089 0.000000
0.152630 0.469089 0.000000
0.193842 0.469089 0.000000
0.244594 0.469089 0.000000
0.304953 0.469089 0.000000
0.378574 0.469089 0.000000
0.469089 0.469089 0.000000
0.577188 0.469089 0.000000
0.712513 0.469089 0.000000
0.875974 0.469089 0.000000
1.072575 0.469089 0.000000
1.000000 0.469089 0.000000
1.000000 0.469089 0.000000
1.000000 0.469089 0.000000
1.000000 0.469089 0.000000
1.000000 0.469089 0.000000
1.000000 0.469089 0.000000
1.000000 0.469089 0.000000
1.000000 0.469089 0.000000
1.000000 0.469089 0.000000
1.000000 0.469089 0.000000
1.000000 0.469089 0.000000
1.000000 0.469089 0.000000
1.000000 0.469089 0.000000
0.000000 0.577188 0.000000
0.000000 0.577188 0.000000
0.000000 0.577188 0.000000
0.000000 0.577188 0.000000
-0.003226 0.577188 0.000000
0.024504 0.577188 0.000000
0.057549 0.577188 0.000000
0.085124 0.577188 0.000000
0.116180 0.577188 0.000000
0.152630 0.577188 0.000000
0.193842 0.577188 0.000000
0.244594 0.577188 0.000000
0.304953 0.577188 0.000000
0.378574 0.577188 0.000000
0.469089 0.577188 0.000000
0.577188 0.577188 0.000000
0.712513 0.577188 0.000000
0.875974 0.577188 0.000000
1.072575 0.577188 0.000000
1.000000 0.577188 0.000000
1.000000 0.577188 0.000000
1.000000 0.577188 0.000000
1.000000 0.577188 0.000000
1.000000 0.577188 0.000000
1.000000 0.577188 0.000000
1.000000 0.577188 0.000000
1.000000 0.577188 0.000000
1.000000 0.577188 0.000000
1.000000 0.577188 0.000000
1.000000 0.577188 0.000000
1.000000 0.577188 0.000000
1.000000 0.577188 0.000000
0.000000 0.712513 0.000000
0.000000 0.712513 0.000000
0.000000 0.712513 0.000000
0.000000 0.712513 0.000000
-0.003226 0.712513 0.000000
0.024504 0.712513 0.000000
0.057549 0.712513 0.000000
0.085124 0.712513 0.000000
0.116180 0.712513 0.000000
0.152630 0.712513 0.000000
0.193842 0.712513 0.000000
0.244594 0.712513 0.000000
0.304953 0.712513 0.000000
0.378574 0.712513 0.000000
0.469089 0.712513 0.000000
0.577188 0.712513 0.000000
0.712513 0.712513 0.000000
0.875974 0.712513 0.000000
1.072575 0.712513 0.000000
1.000000 0.712513 0.000000
1.000000 0.712513 0.000000
1.000000 0.712513 0.000000
1.000000 0.712513 0.000000
1.000000 0.712513 0.000000
1.000000 0.712513 0.000000
1.000000 0.712513 0.000000
1.000000 0.712513 0.000000
1.000000 0.712513 0.000000
1.000000 0.712513 0.000000
1.000000 0.712513 0.000000
1.000000 0.712513 0.000000
1.000000 0.712513 0.000000
0.000000 0.875974 0.000000
0.000000 0.875974 0.000000
0.000000 0.875974 0.000000
0.000000 0.875974 0.000000
-0.003226 0.875974 0.000000
0.024504 0.875974 0.000000
0.057549 0.875974 0.000000
0.085124 0.875974 0.000000
0.116180 0.875974 0.000000
0.152630 0.875974 0.000000
0.193842 0.875974 0.000000
0.244594 0.875974 0.000000
0.304953 0.875974 0.000000
0.378574 0.875974 0.000000
0.469089 0.875974 0.000000
0.577188 0.875974 0.000000
0.712513 0.875974 0.000000
0.875974 0.875974 0.000000
1.072575 0.875974 0.000000
1.000000 0.875974 0.000000
1.000000 0.875974 0.000000
1.000000 0.875974 0.000000
1.000000 0.875974 0.000000
1.000000 0.875974 0.000000
1.000000 0.875974 0.000000
1.000000 0.875974 0.000000
1.000000 0.875974 0.000000
1.000000 0.875974 0.000000
1.000000 0.875974 0.000000
1.000000 0.875974 0.000000
1.000000 0.875974 0.000000
1.000000 0.875974 0.000000
0.000000 1.072575 0.000000
0.000000 1.072575 0.000000
0.000000 1.072575 0.000000
0.000000 1.072575 0.000000
-0.003226 1.072575 0.000000
0.024504 1.072575 0.000000
0.057549 1.072575 0.000000
0.085124 1.072575 0.000000
0.116180 1.072575 0.000000
0.152630 1.072575 0.000000
0.193842 1.072575 0.000000
0.244594 1.072575 0.000000
0.304953 1.072575 0.000000
0.378574 1.072575 0.000000
0.469089 1.072575 0.000000
0.577188 1.072575 0.000000
0.712513 1.072575 0.000000
0.875974 1.072575 0.000000
1.072575 1.072575 0.000000
1.000000 1.072575 0.000000
1.000000 1.072575 0.000000
1.000000 1.072575 0.000000
1.000000 1.072575 0.000000
1.000000 1.072575 0.000000
1.000000 1.072575 0.000000
1.000000 1.072575 0.000000
1.000000 1.072575 0.000000
1.000000 1.072575 0.000000
1.000000 1.072575 0.000000
1.000000 1.072575 0.000000
1.000000 1.072575 0.000000
1.000000 1.072575 0.000000
0.000000 1.000000 0.000000
0.000000 1.000000 0.000000
0.000000 1.000000 0.000000
0.000000 1.000000 0.000000
-0.003226 1.000000 0.000000
0.024504 1.000000 0.000000
0.057549 1.000000 0.000000
0.085124 1.000000 0.000000
0.116180 1.000000 0.000000
0.152630 1.000000 0.000000
0.193842 1.000000 0.000000
0.244594 1.000000 0.000000
0.304953 1.000000 0.000000
0.378574 1.000000 0.000000
0.469089 1.000000 0.000000
0.577188 1.000000 0.000000
0.712513 1.000000 0.000000
0.875974 1.000000 0.000000
1.072575 1.000000 0.000000
1.000000 1.000000 0.000000
1.000000 1.000000 0.000000
1.000000 1.000000 0.000000
1.000000 1.000000 0.000000
1.000000 1.000000 0.000000
1.000000 1.000000 0.000000
1.000000 1.000000 0.000000
1.000000 1.000000 0.000000
1.000000 1.000000 0.000000
1.000000 1.000000 0.000000
1.000000 1.000000 0.000000
1.000000 1.000000 0.000000
1.000000 1.000000 0.000000
0.000000 1.000000 0.000000
0.000000 1.000000 0.000000
0.000000 1.000000 0.000000
0.000000 1.000000 0.000000
-0.003226 1.000000 0.000000
0.024504 1.000000 0.000000
0.057549 1.000000 0.000000
0.085124 1.000000 0.000000
0.116180 1.000000 0.000000
0.152630 1.000000 0.000000
0.193842 1.000000 0.000000
0.244594 1.000000 0.000000
0.304953 1.000000 0.000000
0.378574 1.000000 0.000000
0.469089 1.000000 0.000000
0.577188 1.000000 0.000000
0.712513 1.000000 0.000000
0.875974 1.000000 0.000000
1.072575 1.000000 0.000000
1.000000 1.000000 0.000000
1.000000 1.000000 0.000000
1.000000 1.000000 0.000000
1.000000 1.000000 0.000000
1.000000 1.000000 0.000000
1.000000 1.000000 0.000000
1.000000 1.000000 0.000000
1.000000 1.000000 0.000000
1.000000 1.000000 0.000000
1.000000 1.000000 0.000000
1.000000 1.000000 0.000000
1.000000 1.000000 0.000000
1.000000 1.000000 0.000000
0.000000 1.000000 0.000000
0.000000 1.000000 0.000000
0.000000 1.000000 0.000000
0.000000 1.000000 0.000000
-0.003226 1.000000 0.000000
0.024504 1.000000 0.000000
0.057549 1.000000 0.000000
0.085124 1.000000 0.000000
0.116180 1.000000 0.000000
0.152630 1.000000 0.000000
0.193842 1.000000 0.000000
0.244594 1.000000 0.000000
0.304953 1.000000 0.000000
0.378574 1.000000 0.000000
0.469089 1.000000 0.000000
0.577188 1.000000 0.000000
0.712513 1.000000 0.000000
0.875974 1.000000 0.000000
1.072575 1.000000 0.000000
1.000000 1.000000 0.000000
1.000000 1.000000 0.000000
1.000000 1.000000 0.000000
1.000000 1.000000 0.000000
1.000000 1.000000 0.000000
1.000000 1.000000 0.000000
1.000000 1.000000 0.000000
1.000000 1.000000 0.000000
1.000000 1.000000 0.000000
1.000000 1.000000 0.000000
1.000000 1.000000 0.000000
1.000000 1.000000 0.000000
1.000000 1.000000 0.000000
0.000000 1.000000 0.000000
0.000000 1.000000 0.000000
0.000000 1.000000 0.000000
0.000000 1.000000 0.000000
-0.003226 1.000000 0.000000
0.024504 1.000000 0.000000
0.057549 1.000000 0.000000
0.085124 1.000000 0.000000
0.116180 1.000000 0.000000
0.152630 1.000000 0.000000
0.193842 1.000000 0.000000
0.244594 1.000000 0.000000
0.304953 1.000000 0.000000
0.378574 1.000000 0.000000
0.469089 1.000000 0.000000
0.577188 1.000000 0.000000
0.712513 1.000000 0.000000
0.875974 1.000000 0.000000
1.072575 1.000000 0.000000
1.000000 1.000000 0.000000
1.000000 1.000000 0.000000
1.000000 1.000000 0.000000
1.000000 1.000000 0.000000
1.000000 1.000000 0.000000
1.000000 1.000000 0.000000
1.000000 1.000000 0.000000
1.000000 1.000000 0.000000
1.000000 1.000000 0.000000
1.000000 1.000000 0.000000
1.000000 1.000000 0.000000
1.000000 1.000000 0.000000
1.000000 1.000000 0.000000
0.000000 1.000000 0.000000
0.000000 1.000000 0.000000
0.000000 1.000000 0.000000
0.000000 1.000000 0.000000
-0.003226 1.000000 0.000000
0.024504 1.000000 0.000000
0.057549 1.000000 0.000000
0.085124 1.000000 0.000000
0.116180 1.000000 0.000000
0.152630 1.000000 0.000000
0.193842 1.000000 0.000000
0.244594 1.000000 0.000000
0.304953 1.000000 0.000000
0.378574 1.000000 0.000000
0.469089 1.000000 0.000000
0.577188 1.000000 0.000000
0.712513 1.000000 0.000000
0.875974 1.000000 0.000000
1.072575 1.000000 0.000000
1.000000 1.000000 0.000000
1.000000 1.000000 0.000000
1.000000 1.000000 0.000000
1.000000 1.000000 0.000000
1.000000 1.000000 0.000000
1.000000 1.000000 0.000000
1.000000 1.000000 0.000000
1.000000 1.000000 0.000000
1.000000 1.000000 0.000000
1.000000 1.000000 0.000000
1.000000 1.000000 0.000000
1.000000 1.000000 0.000000
1.000000 1.000000 0.000000
0.000000 1.000000 0.000000
0.000000 1.000000 0.000000
0.000000 1.000000 0.000000
0.000000 1.000000 0.000000
-0.003226 1.000000 0.000000
0.024504 1.000000 0.000000
0.057549 1.000000 0.000000
0.085124 1.000000 0.000000
0.116180 1.000000 0.000000
0.152630 1.000000 0.000000
0.193842 1.000000 0.000000
0.244594 1.000000 0.000000
0.304953 1.000000 0.000000
0.378574 1.000000 0.000000
0.469089 1.000000 0.000000
0.577188 1.000000 0.000000
0.712513 1.000000 0.000000
0.875974 1.000000 0.000000
1.072575 1.000000 0.000000
1.000000 1.000000 0.000000
1.000000 1.000000 0.000000
1.000000 1.000000 0.000000
1.000000 1.000000 0.000000
1.000000 1.000000 0.000000
1.000000 1.000000 0.000000
1.000000 1.000000 0.000000
1.000000 1.000000 0.000000
1.000000 1.000000 0.000000
1.000000 1.000000 0.000000
1.000000 1.000000 0.000000
1.000000 1.000000 0.000000
1.000000 1.000000 0.000000
0.000000 1.000000 0.000000
0.000000 1.000000 0.000000
0.000000 1.000000 0.000000
0.000000 1.000000 0.000000
-0.003226 1.000000 0.000000
0.024504 1.000000 0.000000
0.057549 1.000000 0.000000
0.085124 1.000000 0.000000
0.116180 1.000000 0.000000
0.152630 1.000000 0.000000
0.193842 1.000000 0.000000
0.244594 1.000000 0.000000
0.304953 1.000000 0.000000
0.378574 1.000000 0.000000
0.469089 1.000000 0.000000
0.577188 1.000000 0.000000
0.712513 1.000000 0.000000
0.875974 1.000000 0.000000
1.072575 1.000000 0.000000
1.000000 1.000000 0.000000
1.000000 1.000000 0.000000
1.000000 1.000000 0.000000
1.000000 1.000000 0.000000
1.000000 1.000000 0.000000
1.000000 1.000000 0.000000
1.000000 1.000000 0.000000
1.000000 1.000000 0.000000
1.000000 1.000000 0.000000
1.000000 1.000000 0.000000
1.000000 1.000000 0.000000
1.000000 1.000000 0.000000
1.000000 1.000000 0.000000
0.000000 1.000000 0.000000
0.000000 1.000000 0.000000
0.000000 1.000000 0.000000
0.000000 1.000000 0.000000
-0.003226 1.000000 0.000000
0.024504 1.000000 0.000000
0.057549 1.000000 0.000000
0.085124 1.000000 0.000000
0.116180 1.000000 0.000000
0.152630 1.000000 0.000000
0.193842 1.000000 0.000000
0.244594 1.000000 0.000000
0.304953 1.000000 0.000000
0.378574 1.000000 0.000000
0.469089 1.000000 0.000000
0.577188 1.000000 0.000000
0.712513 1.000000 0.000000
0.875974 1.000000 0.000000
1.072575 1.000000 0.000000
1.000000 1.000000 0.000000
1.000000 1.000000 0.000000
1.000000 1.000000 0.000000
1.000000 1.000000 0.000000
1.000000 1.000000 0.000000
1.000000 1.000000 0.000000
1.000000 1.000000 0.000000
1.000000 1.000000 0.000000
1.000000 1.000000 0.000000
1.000000 1.000000 0.000000
1.000000 1.000000 0.000000
1.000000 1.000000 0.000000
1.000000 1.000000 0.000000
0.000000 1.000000 0.000000
0.000000 1.000000 0.000000
0.000000 1.000000 0.000000
0.000000 1.000000 0.000000
-0.003226 1.000000 0.000000
0.024504 1.000000 0.000000
0.057549 1.000000 0.000000
0.085124 1.000000 0.000000
0.116180 1.000000 0.000000
0.152630 1.000000 0.000000
0.193842 1.000000 0.000000
0.244594 1.000000 0.000000
0.304953 1.000000 0.000000
0.378574 1.000000 0.000000
0.469089 1.000000 0.000000
0.577188 1.000000 0.000000
0.712513 1.000000 0.000000
0.875974 1.000000 0.000000
