python/4 - creating cube files/cube files/linearize_achromatic.cube
TITLE "cube/linearize_achromatic.cube"
LUT_3D_SIZE 5
DOMAIN_MIN 0.000000 0.000000 0.000000
DOMAIN_MAX 0.903226 0.903226 0.903226
0.000000 0.000000 0.000000
0.085124 0.000000 0.000000
0.469089 0.000000 0.000000
1.000000 0.000000 0.000000
1.000000 0.000000 0.000000
0.000000 0.085124 0.000000
0.085124 0.085124 0.000000
0.469089 0.085124 0.000000
1.000000 0.085124 0.000000
1.000000 0.085124 0.000000
0.000000 0.469089 0.000000
0.085124 0.469089 0.000000
0.469089 0.469089 0.000000
1.000000 0.469089 0.000000
1.000000 0.469089 0.000000
0.000000 1.000000 0.000000
0.085124 1.000000 0.000000
0.469089 1.000000 0.000000
1.000000 1.000000 0.000000
1.000000 1.000000 0.000000
0.000000 1.000000 0.000000
0.085124 1.000000 0.000000
0.469089 1.000000 0.000000
1.000000 1.000000 0.000000
1.000000 1.000000 0.000000
0.000000 0.000000 0.085124
0.085124 0.000000 0.085124
0.469089 0.000000 0.085124
1.000000 0.000000 0.085124
1.000000 0.000000 0.085124
0.000000 0.085124 0.085124
0.085124 0.085124 0.085124
0.469089 0.085124 0.085124
1.000000 0.085124 0.085124
1.000000 0.085124 0.085124
0.000000 0.469089 0.085124
0.085124 0.469089 0.085124
0.469089 0.469089 0.085124
1.000000 0.469089 0.085124
1.000000 0.469089 0.085124
0.000000 1.000000 0.085124
0.085124 1.000000 0.085124
0.469089 1.000000 0.085124
1.000000 1.000000 0.085124
1.000000 1.000000 0.085124
0.000000 1.000000 0.085124
0.085124 1.000000 0.085124
0.469089 1.000000 0.085124
1.000000 1.000000 0.085124
1.000000 1.000000 0.085124
0.000000 0.000000 0.469089
0.085124 0.000000 0.469089
0.469089 0.000000 0.469089
1.000000 0.000000 0.469089
1.000000 0.000000 0.469089
0.000000 0.085124 0.469089
0.085124 0.085124 0.469089
0.469089 0.085124 0.469089
1.000000 0.085124 0.469089
1.000000 0.085124 0.469089
0.000000 0.469089 0.469089
0.085124 0.469089 0.469089
0.469089 0.469089 0.469089
1.000000 0.469089 0.469089
1.000000 0.469089 0.469089
0.000000 1.000000 0.469089
0.085124 1.000000 0.469089
0.469089 1.000000 0.469089
1.000000 1.000000 0.469089
1.000000 1.000000 0.469089
0.000000 1.000000 0.469089
0.085124 1.000000 0.469089
0.469089 1.000000 0.469089
1.000000 1.000000 0.469089
1.000000 1.000000 0.469089
0.000000 0.000000 1.000000
0.085124 0.000000 1.000000
0.469089 0.000000 1.000000
1.000000 0.000000 1.000000
1.000000 0.000000 1.000000
0.000000 0.085124 1.000000
0.085124 0.085124 1.000000
0.469089 0.085124 1.000000
1.000000 0.085124 1.000000
1.000000 0.085124 1.000000
0.000000 0.469089 1.000000
0.085124 0.469089 1.000000
0.469089 0.469089 1.000000
1.000000 0.469089 1.000000
1.000000 0.469089 1.000000
0.000000 1.000000 1.000000
0.085124 1.000000 1.000000
0.469089 1.000000 1.000000
1.000000 1.000000 1.000000
1.000000 1.000000 1.000000
0.000000 1.000000 1.000000
0.085124 1.000000 1.000000
0.469089 1.000000 1.000000
1.000000 1.000000 1.000000
1.000000 1.000000 1.000000
0.000000 0.000000 1.000000
0.085124 0.000000 1.000000
0.469089 0.000000 1.000000
1.000000 0.000000 1.000000
1.000000 0.000000 1.000000
0.000000 0.085124 1.000000
0.085124 0.085124 1.000000
0.469089 0.085124 1.000000
1.000000 0.085124 1.000000
1.000000 0.085124 1.000000
0.000000 0.469089 1.000000
0.085124 0.469089 1.000000
0.469089 0.469089 1.000000
1.000000 0.469089 1.000000
1.000000 0.469089 1.000000
0.000000 1.000000 1.000000
0.085124 1.000000 1.000000
0.469089 1.000000 1.000000
1.000000 1.000000 1.000000
1.000000 1.000000 1.000000
0.000000 1.000000 1.000000
0.085124 1.000000 1.000000
0.469089 1.000000 1.000000
1.000000 1.000000 1.000000
1.000000 1.000000 1.000000
