python/4 - creating cube files/cube files/linearize_achromatic.cube
TITLE "cube/linearize_achromatic.cube"
LUT_3D_SIZE 8
DOMAIN_MIN 0.000000 0.000000 0.000000
DOMAIN_MAX 0.903226 0.903226 0.903226
0.000000 0.000000 0.000000
-0.003226 0.000000 0.000000
0.116180 0.000000 0.000000
0.304953 0.000000 0.000000
0.712513 0.000000 0.000000
1.000000 0.000000 0.000000
1.000000 0.000000 0.000000
1.000000 0.000000 0.000000
0.000000 -0.003226 0.000000
-0.003226 -0.003226 0.000000
0.116180 -0.003226 0.000000
0.304953 -0.003226 0.000000
0.712513 -0.003226 0.000000
1.000000 -0.003226 0.000000
1.000000 -0.003226 0.000000
1.000000 -0.003226 0.000000
0.000000 0.116180 0.000000
-0.003226 0.116180 0.000000
0.116180 0.116180 0.000000
0.304953 0.116180 0.000000
0.712513 0.116180 0.000000
1.000000 0.116180 0.000000
1.000000 0.116180 0.000000
1.000000 0.116180 0.000000
0.000000 0.304953 0.000000
-0.003226 0.304953 0.000000
0.116180 0.304953 0.000000
0.304953 0.304953 0.000000
0.712513 0.304953 0.000000
1.000000 0.304953 0.000000
1.000000 0.304953 0.000000
1.000000 0.304953 0.000000
0.000000 0.712513 0.000000
-0.003226 0.712513 0.000000
0.116180 0.712513 0.000000
0.304953 0.712513 0.000000
0.712513 0.712513 0.000000
1.000000 0.712513 0.000000
1.000000 0.712513 0.000000
1.000000 0.712513 0.000000
0.000000 1.000000 0.000000
-0.003226 1.000000 0.000000
0.116180 1.000000 0.000000
0.304953 1.000000 0.000000
0.712513 1.000000 0.000000
1.000000 1.000000 0.000000
1.000000 1.000000 0.000000
1.000000 1.000000 0.000000
0.000000 1.000000 0.000000
-0.003226 1.000000 0.000000
0.116180 1.000000 0.000000
0.304953 1.000000 0.000000
0.712513 1.000000 0.000000
1.000000 1.000000 0.000000
1.000000 1.000000 0.000000
1.000000 1.000000 0.000000
0.000000 1.000000 0.000000
-0.003226 1.000000 0.000000
0.116180 1.000000 0.000000
0.304953 1.000000 0.000000
0.712513 1.000000 0.000000
1.000000 1.000000 0.000000
1.000000 1.000000 0.000000
1.000000 1.000000 0.000000
0.000000 0.000000 -0.003226
-0.003226 0.000000 -0.003226
0.116180 0.000000 -0.003226
0.304953 0.000000 -0.003226
0.712513 0.000000 -0.003226
1.000000 0.000000 -0.003226
1.000000 0.000000 -0.003226
1.000000 0.000000 -0.003226
0.000000 -0.003226 -0.003226
-0.003226 -0.003226 -0.003226
0.116180 -0.003226 -0.003226
0.304953 -0.003226 -0.003226
0.712513 -0.003226 -0.003226
1.000000 -0.003226 -0.003226
1.000000 -0.003226 -0.003226
1.000000 -0.003226 -0.003226
0.000000 0.116180 -0.003226
-0.003226 0.116180 -0.003226
0.116180 0.116180 -0.003226
0.304953 0.116180 -0.003226
0.712513 0.116180 -0.003226
1.000000 0.116180 -0.003226
1.000000 0.116180 -0.003226
1.000000 0.116180 -0.003226
0.000000 0.304953 -0.003226
-0.003226 0.304953 -0.003226
0.116180 0.304953 -0.003226
0.304953 0.304953 -0.003226
0.712513 0.304953 -0.003226
1.000000 0.304953 -0.003226
1.000000 0.304953 -0.003226
1.000000 0.304953 -0.003226
0.000000 0.712513 -0.003226
-0.003226 0.712513 -0.003226
0.116180 0.712513 -0.003226
0.304953 0.712513 -0.003226
0.712513 0.712513 -0.003226
1.000000 0.712513 -0.003226
1.000000 0.712513 -0.003226
1.000000 0.712513 -0.003226
0.000000 1.000000 -0.003226
-0.003226 1.000000 -0.003226
0.116180 1.000000 -0.003226
0.304953 1.000000 -0.003226
0.712513 1.000000 -0.003226
1.000000 1.000000 -0.003226
1.000000 1.000000 -0.003226
1.000000 1.000000 -0.003226
0.000000 1.000000 -0.003226
-0.003226 1.000000 -0.003226
0.116180 1.000000 -0.003226
0.304953 1.000000 -0.003226
0.712513 1.000000 -0.003226
1.000000 1.000000 -0.003226
1.000000 1.000000 -0.003226
1.000000 1.000000 -0.003226
0.000000 1.000000 -0.003226
-0.003226 1.000000 -0.003226
0.116180 1.000000 -0.003226
0.304953 1.000000 -0.003226
0.712513 1.000000 -0.003226
1.000000 1.000000 -0.003226
1.000000 1.000000 -0.003226
1.000000 1.000000 -0.003226
0.000000 0.000000 0.116180
-0.003226 0.000000 0.116180
0.116180 0.000000 0.116180
0.304953 0.000000 0.116180
0.712513 0.000000 0.116180
1.000000 0.000000 0.116180
1.000000 0.000000 0.116180
1.000000 0.000000 0.116180
0.000000 -0.003226 0.116180
-0.003226 -0.003226 0.116180
0.116180 -0.003226 0.116180
0.304953 -0.003226 0.116180
0.712513 -0.003226 0.116180
1.000000 -0.003226 0.116180
1.000000 -0.003226 0.116180
1.000000 -0.003226 0.116180
0.000000 0.116180 0.116180
-0.003226 0.116180 0.116180
0.116180 0.116180 0.116180
0.304953 0.116180 0.116180
0.712513 0.116180 0.116180
1.000000 0.116180 0.116180
1.000000 0.116180 0.116180
1.000000 0.116180 0.116180
0.000000 0.304953 0.116180
-0.003226 0.304953 0.116180
0.116180 0.304953 0.116180
0.304953 0.304953 0.116180
0.712513 0.304953 0.116180
1.000000 0.304953 0.116180
1.000000 0.304953 0.116180
1.000000 0.304953 0.116180
0.000000 0.712513 0.116180
-0.003226 0.712513 0.116180
0.116180 0.712513 0.116180
0.304953 0.712513 0.116180
0.712513 0.712513 0.116180
1.000000 0.712513 0.116180
1.000000 0.712513 0.116180
1.000000 0.712513 0.116180
0.000000 1.000000 0.116180
-0.003226 1.000000 0.116180
0.116180 1.000000 0.116180
0.304953 1.000000 0.116180
0.712513 1.000000 0.116180
1.000000 1.000000 0.116180
1.000000 1.000000 0.116180
1.000000 1.000000 0.116180
0.000000 1.000000 0.116180
-0.003226 1.000000 0.116180
0.116180 1.000000 0.116180
0.304953 1.000000 0.116180
0.712513 1.000000 0.116180
1.000000 1.000000 0.116180
1.000000 1.000000 0.116180
1.000000 1.000000 0.116180
0.000000 1.000000 0.116180
-0.003226 1.000000 0.116180
0.116180 1.000000 0.116180
0.304953 1.000000 0.116180
0.712513 1.000000 0.116180
1.000000 1.000000 0.116180
1.000000 1.000000 0.116180
1.000000 1.000000 0.116180
0.000000 0.000000 0.304953
-0.003226 0.000000 0.304953
0.116180 0.000000 0.304953
0.304953 0.000000 0.304953
0.712513 0.000000 0.304953
1.000000 0.000000 0.304953
1.000000 0.000000 0.304953
1.000000 0.000000 0.304953
0.000000 -0.003226 0.304953
-0.003226 -0.003226 0.304953
0.116180 -0.003226 0.304953
0.304953 -0.003226 0.304953
0.712513 -0.003226 0.304953
1.000000 -0.003226 0.304953
1.000000 -0.003226 0.304953
1.000000 -0.003226 0.304953
0.000000 0.116180 0.304953
-0.003226 0.116180 0.304953
0.116180 0.116180 0.304953
0.304953 0.116180 0.304953
0.712513 0.116180 0.304953
1.000000 0.116180 0.304953
1.000000 0.116180 0.304953
1.000000 0.116180 0.304953
0.000000 0.304953 0.304953
-0.003226 0.304953 0.304953
0.116180 0.304953 0.304953
0.304953 0.304953 0.304953
0.712513 0.304953 0.304953
1.000000 0.304953 0.304953
1.000000 0.304953 0.304953
1.000000 0.304953 0.304953
0.000000 0.712513 0.304953
-0.003226 0.712513 0.304953
0.116180 0.712513 0.304953
0.304953 0.712513 0.304953
0.712513 0.712513 0.304953
1.000000 0.712513 0.304953
1.000000 0.712513 0.304953
1.000000 0.712513 0.304953
0.000000 1.000000 0.304953
-0.003226 1.000000 0.304953
0.116180 1.000000 0.304953
0.304953 1.000000 0.304953
0.712513 1.000000 0.304953
1.000000 1.000000 0.304953
1.000000 1.000000 0.304953
1.000000 1.000000 0.304953
0.000000 1.000000 0.304953
-0.003226 1.000000 0.304953
0.116180 1.000000 0.304953
0.304953 1.000000 0.304953
0.712513 1.000000 0.304953
1.000000 1.000000 0.304953
1.000000 1.000000 0.304953
1.000000 1.000000 0.304953
0.000000 1.000000 0.304953
-0.003226 1.000000 0.304953
0.116180 1.000000 0.304953
0.304953 1.000000 0.304953
0.712513 1.000000 0.304953
1.000000 1.000000 0.304953
1.000000 1.000000 0.304953
1.000000 1.000000 0.304953
0.000000 0.000000 0.712513
-0.003226 0.000000 0.712513
0.116180 0.000000 0.712513
0.304953 0.000000 0.712513
0.712513 0.000000 0.712513
1.000000 0.000000 0.712513
1.000000 0.000000 0.712513
1.000000 0.000000 0.712513
0.000000 -0.003226 0.712513
-0.003226 -0.003226 0.712513
0.116180 -0.003226 0.712513
0.304953 -0.003226 0.712513
0.712513 -0.003226 0.712513
1.000000 -0.003226 0.712513
1.000000 -0.003226 0.712513
1.000000 -0.003226 0.712513
0.000000 0.116180 0.712513
-0.003226 0.116180 0.712513
0.116180 0.116180 0.712513
0.304953 0.116180 0.712513
0.712513 0.116180 0.712513
1.000000 0.116180 0.712513
1.000000 0.116180 0.712513
1.000000 0.116180 0.712513
0.000000 0.304953 0.712513
-0.003226 0.304953 0.712513
0.116180 0.304953 0.712513
0.304953 0.304953 0.712513
0.712513 0.304953 0.712513
1.000000 0.304953 0.712513
1.000000 0.304953 0.712513
1.000000 0.304953 0.712513
0.000000 0.712513 0.712513
-0.003226 0.712513 0.712513
0.116180 0.712513 0.712513
0.304953 0.712513 0.712513
0.712513 0.712513 0.712513
1.000000 0.712513 0.712513
1.000000 0.712513 0.712513
1.000000 0.712513 0.712513
0.000000 1.000000 0.712513
-0.003226 1.000000 0.712513
0.116180 1.000000 0.712513
0.304953 1.000000 0.712513
0.712513 1.000000 0.712513
1.000000 1.000000 0.712513
1.000000 1.000000 0.712513
1.000000 1.000000 0.712513
0.000000 1.000000 0.712513
-0.003226 1.000000 0.712513
0.116180 1.000000 0.712513
0.304953 1.000000 0.712513
0.712513 1.000000 0.712513
1.000000 1.000000 0.712513
1.000000 1.000000 0.712513
1.000000 1.000000 0.712513
0.000000 1.000000 0.712513
-0.003226 1.000000 0.712513
0.116180 1.000000 0.712513
0.304953 1.000000 0.712513
0.712513 1.000000 0.712513
1.000000 1.000000 0.712513
1.000000 1.000000 0.712513
1.000000 1.000000 0.712513
0.000000 0.000000 1.000000
-0.003226 0.000000 1.000000
0.116180 0.000000 1.000000
0.304953 0.000000 1.000000
0.712513 0.000000 1.000000
1.000000 0.000000 1.000000
1.000000 0.000000 1.000000
1.000000 0.000000 1.000000
0.000000 -0.003226 1.000000
-0.003226 -0.003226 1.000000
0.116180 -0.003226 1.000000
0.304953 -0.003226 1.000000
0.712513 -0.003226 1.000000
1.000000 -0.003226 1.000000
1.000000 -0.003226 1.000000
1.000000 -0.003226 1.000000
0.000000 0.116180 1.000000
-0.003226 0.116180 1.000000
0.116180 0.116180 1.000000
0.304953 0.116180 1.000000
0.712513 0.116180 1.000000
1.000000 0.116180 1.000000
1.000000 0.116180 1.000000
1.000000 0.116180 1.000000
0.000000 0.304953 1.000000
-0.003226 0.304953 1.000000
0.116180 0.304953 1.000000
0.304953 0.304953 1.000000
0.712513 0.304953 1.000000
1.000000 0.304953 1.000000
1.000000 0.304953 1.000000
1.000000 0.304953 1.000000
0.000000 0.712513 1.000000
-0.003226 0.712513 1.000000
0.116180 0.712513 1.000000
0.304953 0.712513 1.000000
0.712513 0.712513 1.000000
1.000000 0.712513 1.000000
1.000000 0.712513 1.000000
1.000000 0.712513 1.000000
0.000000 1.000000 1.000000
-0.003226 1.000000 1.000000
0.116180 1.000000 1.000000
0.304953 1.000000 1.000000
0.712513 1.000000 1.000000
1.000000 1.000000 1.000000
1.000000 1.000000 1.000000
1.000000 1.000000 1.000000
0.000000 1.000000 1.000000
-0.003226 1.000000 1.000000
0.116180 1.000000 1.000000
0.304953 1.000000 1.000000
0.712513 1.000000 1.000000
1.000000 1.000000 1.000000
1.000000 1.000000 1.000000
1.000000 1.000000 1.000000
0.000000 1.000000 1.000000
-0.003226 1.000000 1.000000
0.116180 1.000000 1.000000
0.304953 1.000000 1.000000
0.712513 1.000000 1.000000
1.000000 1.000000 1.000000
1.000000 1.000000 1.000000
1.000000 1.000000 1.000000
0.000000 0.000000 1.000000
-0.003226 0.000000 1.000000
0.116180 0.000000 1.000000
0.304953 0.000000 1.000000
0.712513 0.000000 1.000000
1.000000 0.000000 1.000000
1.000000 0.000000 1.000000
1.000000 0.000000 1.000000
0.000000 -0.003226 1.000000
-0.003226 -0.003226 1.000000
0.116180 -0.003226 1.000000
0.304953 -0.003226 1.000000
0.712513 -0.003226 1.000000
1.000000 -0.003226 1.000000
1.000000 -0.003226 1.000000
1.000000 -0.003226 1.000000
0.000000 0.116180 1.000000
-0.003226 0.116180 1.000000
0.116180 0.116180 1.000000
0.304953 0.116180 1.000000
0.712513 0.116180 1.000000
1.000000 0.116180 1.000000
1.000000 0.116180 1.000000
1.000000 0.116180 1.000000
0.000000 0.304953 1.000000
-0.003226 0.304953 1.000000
0.116180 0.304953 1.000000
0.304953 0.304953 1.000000
0.712513 0.304953 1.000000
1.000000 0.304953 1.000000
1.000000 0.304953 1.000000
1.000000 0.304953 1.000000
0.000000 0.712513 1.000000
-0.003226 0.712513 1.000000
0.116180 0.712513 1.000000
0.304953 0.712513 1.000000
0.712513 0.712513 1.000000
1.000000 0.712513 1.000000
1.000000 0.712513 1.000000
1.000000 0.712513 1.000000
0.000000 1.000000 1.000000
-0.003226 1.000000 1.000000
0.116180 1.000000 1.000000
0.304953 1.000000 1.000000
0.712513 1.000000 1.000000
1.000000 1.000000 1.000000
1.000000 1.000000 1.000000
1.000000 1.000000 1.000000
0.000000 1.000000 1.000000
-0.003226 1.000000 1.000000
0.116180 1.000000 1.000000
0.304953 1.000000 1.000000
0.712513 1.000000 1.000000
1.000000 1.000000 1.000000
1.000000 1.000000 1.000000
1.000000 1.000000 1.000000
0.000000 1.000000 1.000000
-0.003226 1.000000 1.000000
0.116180 1.000000 1.000000
0.304953 1.000000 1.000000
0.712513 1.000000 1.000000
1.000000 1.000000 1.000000
1.000000 1.000000 1.000000
1.000000 1.000000 1.000000
0.000000 0.000000 1.000000
-0.003226 0.000000 1.000000
0.116180 0.000000 1.000000
0.304953 0.000000 1.000000
0.712513 0.000000 1.000000
1.000000 0.000000 1.000000
1.000000 0.000000 1.000000
1.000000 0.000000 1.000000
0.000000 -0.003226 1.000000
-0.003226 -0.003226 1.000000
0.116180 -0.003226 1.000000
0.304953 -0.003226 1.000000
0.712513 -0.003226 1.000000
1.000000 -0.003226 1.000000
1.000000 -0.003226 1.000000
1.000000 -0.003226 1.000000
0.000000 0.116180 1.000000
-0.003226 0.116180 1.000000
0.116180 0.116180 1.000000
0.304953 0.116180 1.000000
0.712513 0.116180 1.000000
1.000000 0.116180 1.000000
1.000000 0.116180 1.000000
1.000000 0.116180 1.000000
0.000000 0.304953 1.000000
-0.003226 0.304953 1.000000
0.116180 0.304953 1.000000
0.304953 0.304953 1.000000
0.712513 0.304953 1.000000
1.000000 0.304953 1.000000
1.000000 0.304953 1.000000
1.000000 0.304953 1.000000
0.000000 0.712513 1.000000
-0.003226 0.712513 1.000000
0.116180 0.712513 1.000000
0.304953 0.712513 1.000000
0.712513 0.712513 1.000000
1.000000 0.712513 1.000000
1.000000 0.712513 1.000000
1.000000 0.712513 1.000000
0.000000 1.000000 1.000000
-0.003226 1.000000 1.000000
0.116180 1.000000 1.000000
0.304953 1.000000 1.000000
0.712513 1.000000 1.000000
1.000000 1.000000 1.000000
1.000000 1.000000 1.000000
1.000000 1.000000 1.000000
0.000000 1.000000 1.000000
-0.003226 1.000000 1.000000
0.116180 1.000000 1.000000
0.304953 1.000000 1.000000
0.712513 1.000000 1.000000
1.000000 1.000000 1.000000
1.000000 1.000000 1.000000
1.000000 1.000000 1.000000
0.000000 1.000000 1.000000
-0.003226 1.000000 1.000000
0.116180 1.000000 1.000000
0.304953 1.000000 1.000000
0.712513 1.000000 1.000000
1.000000 1.000000 1.000000
1.000000 1.000000 1.000000
1.000000 1.000000 1.000000
