python/4 - creating cube files/cube files/linear_max58.cube
TITLE "cube/linear_max58.cube"
LUT_3D_SIZE 32
DOMAIN_MIN 0.0 0.0 0.0
DOMAIN_MAX 1.0 1.0 1.0
0.000000 0.000000 0.000000
0.000000 0.000000 0.000000
0.000000 0.000000 0.000000
0.000049 0.000000 0.000000
0.000124 0.000000 0.000000
0.000220 0.000000 0.000000
0.000354 0.000000 0.000000
0.000534 0.000000 0.000000
0.000776 0.000000 0.000000
0.001106 0.000000 0.000000
0.001555 0.000000 0.000000
0.002160 0.000000 0.000000
0.002983 0.000000 0.000000
0.004090 0.000000 0.000000
0.005621 0.000000 0.000000
0.007629 0.000000 0.000000
0.010419 0.000000 0.000000
0.014162 0.000000 0.000000
0.019034 0.000000 0.000000
0.025776 0.000000 0.000000
0.035034 0.000000 0.000000
0.047517 0.000000 0.000000
0.064448 0.000000 0.000000
0.087638 0.000000 0.000000
0.118345 0.000000 0.000000
0.161155 0.000000 0.000000
0.217586 0.000000 0.000000
0.296207 0.000000 0.000000
0.400690 0.000000 0.000000
0.542759 0.000000 0.000000
0.737069 0.000000 0.000000
0.994138 0.000000 0.000000
0.000000 0.000000 0.000000
0.000000 0.000000 0.000000
0.000000 0.000000 0.000000
0.000049 0.000000 0.000000
0.000124 0.000000 0.000000
0.000220 0.000000 0.000000
0.000354 0.000000 0.000000
0.000534 0.000000 0.000000
0.000776 0.000000 0.000000
0.001106 0.000000 0.000000
0.001555 0.000000 0.000000
0.002160 0.000000 0.000000
0.002983 0.000000 0.000000
0.004090 0.000000 0.000000
0.005621 0.000000 0.000000
0.007629 0.000000 0.000000
0.010419 0.000000 0.000000
0.014162 0.000000 0.000000
0.019034 0.000000 0.000000
0.025776 0.000000 0.000000
0.035034 0.000000 0.000000
0.047517 0.000000 0.000000
0.064448 0.000000 0.000000
0.087638 0.000000 0.000000
0.118345 0.000000 0.000000
0.161155 0.000000 0.000000
0.217586 0.000000 0.000000
0.296207 0.000000 0.000000
0.400690 0.000000 0.000000
0.542759 0.000000 0.000000
0.737069 0.000000 0.000000
0.994138 0.000000 0.000000
0.000000 0.000000 0.000000
0.000000 0.000000 0.000000
0.000000 0.000000 0.000000
0.000049 0.000000 0.000000
0.000124 0.000000 0.000000
0.000220 0.000000 0.000000
0.000354 0.000000 0.000000
0.000534 0.000000 0.000000
0.000776 0.000000 0.000000
0.001106 0.000000 0.000000
0.001555 0.000000 0.000000
0.002160 0.000000 0.000000
0.002983 0.000000 0.000000
0.004090 0.000000 0.000000
0.005621 0.000000 0.000000
0.007629 0.000000 0.000000
0.010419 0.000000 0.000000
0.014162 0.000000 0.000000
0.019034 0.000000 0.000000
0.025776 0.000000 0.000000
0.035034 0.000000 0.000000
0.047517 0.000000 0.000000
0.064448 0.000000 0.000000
0.087638 0.000000 0.000000
0.118345 0.000000 0.000000
0.161155 0.000000 0.000000
0.217586 0.000000 0.000000
0.296207 0.000000 0.000000
0.400690 0.000000 0.000000
0.542759 0.000000 0.000000
0.737069 0.000000 0.000000
0.994138 0.000000 0.000000
0.000000 0.000049 0.000000
0.000000 0.000049 0.000000
0.000000 0.000049 0.000000
0.000049 0.000049 0.000000
0.000124 0.000049 0.000000
0.000220 0.000049 0.000000
0.000354 0.000049 0.000000
0.000534 0.000049 0.000000
0.000776 0.000049 0.000000
0.001106 0.000049 0.000000
0.001555 0.000049 0.000000
0.002160 0.000049 0.000000
0.002983 0.000049 0.000000
0.004090 0.000049 0.000000
0.005621 0.000049 0.000000
0.007629 0.000049 0.000000
0.010419 0.000049 0.000000
0.014162 0.000049 0.000000
0.019034 0.000049 0.000000
0.025776 0.000049 0.000000
0.035034 0.000049 0.000000
0.047517 0.000049 0.000000
0.064448 0.000049 0.000000
0.087638 0.000049 0.000000
0.118345 0.000049 0.000000
0.161155 0.000049 0.000000
0.217586 0.000049 0.000000
0.296207 0.000049 0.000000
0.400690 0.000049 0.000000
0.542759 0.000049 0.000000
0.737069 0.000049 0.000000
0.994138 0.000049 0.000000
0.000000 0.000124 0.000000
0.000000 0.000124 0.000000
0.000000 0.000124 0.000000
0.000049 0.000124 0.000000
0.000124 0.000124 0.000000
0.000220 0.000124 0.000000
0.000354 0.000124 0.000000
0.000534 0.000124 0.000000
0.000776 0.000124 0.000000
0.001106 0.000124 0.000000
0.001555 0.000124 0.000000
0.002160 0.000124 0.000000
0.002983 0.000124 0.000000
0.004090 0.000124 0.000000
0.005621 0.000124 0.000000
0.007629 0.000124 0.000000
0.010419 0.000124 0.000000
0.014162 0.000124 0.000000
0.019034 0.000124 0.000000
0.025776 0.000124 0.000000
0.035034 0.000124 0.000000
0.047517 0.000124 0.000000
0.064448 0.000124 0.000000
0.087638 0.000124 0.000000
0.118345 0.000124 0.000000
0.161155 0.000124 0.000000
0.217586 0.000124 0.000000
0.296207 0.000124 0.000000
0.400690 0.000124 0.000000
0.542759 0.000124 0.000000
0.737069 0.000124 0.000000
0.994138 0.000124 0.000000
0.000000 0.000220 0.000000
0.000000 0.000220 0.000000
0.000000 0.000220 0.000000
0.000049 0.000220 0.000000
0.000124 0.000220 0.000000
0.000220 0.000220 0.000000
0.000354 0.000220 0.000000
0.000534 0.000220 0.000000
0.000776 0.000220 0.000000
0.001106 0.000220 0.000000
0.001555 0.000220 0.000000
0.002160 0.000220 0.000000
0.002983 0.000220 0.000000
0.004090 0.000220 0.000000
0.005621 0.000220 0.000000
0.007629 0.000220 0.000000
0.010419 0.000220 0.000000
0.014162 0.000220 0.000000
0.019034 0.000220 0.000000
0.025776 0.000220 0.000000
0.035034 0.000220 0.000000
0.047517 0.000220 0.000000
0.064448 0.000220 0.000000
0.087638 0.000220 0.000000
0.118345 0.000220 0.000000
0.161155 0.000220 0.000000
0.217586 0.000220 0.000000
0.296207 0.000220 0.000000
0.400690 0.000220 0.000000
0.542759 0.000220 0.000000
0.737069 0.000220 0.000000
0.994138 0.000220 0.000000
0.000000 0.000354 0.000000
0.000000 0.000354 0.000000
0.000000 0.000354 0.000000
0.000049 0.000354 0.000000
0.000124 0.000354 0.000000
0.000220 0.000354 0.000000
0.000354 0.000354 0.000000
0.000534 0.000354 0.000000
0.000776 0.000354 0.000000
0.001106 0.000354 0.000000
0.001555 0.000354 0.000000
0.002160 0.000354 0.000000
0.002983 0.000354 0.000000
0.004090 0.000354 0.000000
0.005621 0.000354 0.000000
0.007629 0.000354 0.000000
0.010419 0.000354 0.000000
0.014162 0.000354 0.000000
0.019034 0.000354 0.000000
0.025776 0.000354 0.000000
0.035034 0.000354 0.000000
0.047517 0.000354 0.000000
0.064448 0.000354 0.000000
0.087638 0.000354 0.000000
0.118345 0.000354 0.000000
0.161155 0.000354 0.000000
0.217586 0.000354 0.000000
0.296207 0.000354 0.000000
0.400690 0.000354 0.000000
0.542759 0.000354 0.000000
0.737069 0.000354 0.000000
0.994138 0.000354 0.000000
0.000000 0.000534 0.000000
0.000000 0.000534 0.000000
0.000000 0.000534 0.000000
0.000049 0.000534 0.000000
0.000124 0.000534 0.000000
0.000220 0.000534 0.000000
0.000354 0.000534 0.000000
0.000534 0.000534 0.000000
0.000776 0.000534 0.000000
0.001106 0.000534 0.000000
0.001555 0.000534 0.000000
0.002160 0.000534 0.000000
0.002983 0.000534 0.000000
0.004090 0.000534 0.000000
0.005621 0.000534 0.000000
0.007629 0.000534 0.000000
0.010419 0.000534 0.000000
0.014162 0.000534 0.000000
0.019034 0.000534 0.000000
0.025776 0.000534 0.000000
0.035034 0.000534 0.000000
0.047517 0.000534 0.000000
0.064448 0.000534 0.000000
0.087638 0.000534 0.000000
0.118345 0.000534 0.000000
0.161155 0.000534 0.000000
0.217586 0.000534 0.000000
0.296207 0.000534 0.000000
0.400690 0.000534 0.000000
0.542759 0.000534 0.000000
0.737069 0.000534 0.000000
0.994138 0.000534 0.000000
0.000000 0.000776 0.000000
0.000000 0.000776 0.000000
0.000000 0.000776 0.000000
0.000049 0.000776 0.000000
0.000124 0.000776 0.000000
0.000220 0.000776 0.000000
0.000354 0.000776 0.000000
0.000534 0.000776 0.000000
0.000776 0.000776 0.000000
0.001106 0.000776 0.000000
0.001555 0.000776 0.000000
0.002160 0.000776 0.000000
0.002983 0.000776 0.000000
0.004090 0.000776 0.000000
0.005621 0.000776 0.000000
0.007629 0.000776 0.000000
0.010419 0.000776 0.000000
0.014162 0.000776 0.000000
0.019034 0.000776 0.000000
0.025776 0.000776 0.000000
0.035034 0.000776 0.000000
0.047517 0.000776 0.000000
0.064448 0.000776 0.000000
0.087638 0.000776 0.000000
0.118345 0.000776 0.000000
0.161155 0.000776 0.000000
0.217586 0.000776 0.000000
0.296207 0.000776 0.000000
0.400690 0.000776 0.000000
0.542759 0.000776 0.000000
0.737069 0.000776 0.000000
0.994138 0.000776 0.000000
0.000000 0.001106 0.000000
0.000000 0.001106 0.000000
0.000000 0.001106 0.000000
0.000049 0.001106 0.000000
0.000124 0.001106 0.000000
0.000220 0.001106 0.000000
0.000354 0.001106 0.000000
0.000534 0.001106 0.000000
0.000776 0.001106 0.000000
0.001106 0.001106 0.000000
0.001555 0.001106 0.000000
0.002160 0.001106 0.000000
0.002983 0.001106 0.000000
0.004090 0.001106 0.000000
0.005621 0.001106 0.000000
0.007629 0.001106 0.000000
0.010419 0.001106 0.000000
0.014162 0.001106 0.000000
0.019034 0.001106 0.000000
0.025776 0.001106 0.000000
0.035034 0.001106 0.000000
0.047517 0.001106 0.000000
0.064448 0.001106 0.000000
0.087638 0.001106 0.000000
0.118345 0.001106 0.000000
0.161155 0.001106 0.000000
0.217586 0.001106 0.000000
0.296207 0.001106 0.000000
0.400690 0.001106 0.000000
0.542759 0.001106 0.000000
0.737069 0.001106 0.000000
0.994138 0.001106 0.000000
0.000000 0.001555 0.000000
0.000000 0.001555 0.000000
0.000000 0.001555 0.000000
0.000049 0.001555 0.000000
0.000124 0.001555 0.000000
0.000220 0.001555 0.000000
0.000354 0.001555 0.000000
0.000534 0.001555 0.000000
0.000776 0.001555 0.000000
0.001106 0.001555 0.000000
0.001555 0.001555 0.000000
0.002160 0.001555 0.000000
0.002983 0.001555 0.000000
0.004090 0.001555 0.000000
0.005621 0.001555 0.000000
0.007629 0.001555 0.000000
0.010419 0.001555 0.000000
0.014162 0.001555 0.000000
0.019034 0.001555 0.000000
0.025776 0.001555 0.000000
0.035034 0.001555 0.000000
0.047517 0.001555 0.000000
0.064448 0.001555 0.000000
0.087638 0.001555 0.000000
0.118345 0.001555 0.000000
0.161155 0.001555 0.000000
0.217586 0.001555 0.000000
0.296207 0.001555 0.000000
0.400690 0.001555 0.000000
0.542759 0.001555 0.000000
0.737069 0.001555 0.000000
0.994138 0.001555 0.000000
0.000000 0.002160 0.000000
0.000000 0.002160 0.000000
0.000000 0.002160 0.000000
0.000049 0.002160 0.000000
0.000124 0.002160 0.000000
0.000220 0.002160 0.000000
0.000354 0.002160 0.000000
0.000534 0.002160 0.000000
0.000776 0.002160 0.000000
0.001106 0.002160 0.000000
0.001555 0.002160 0.000000
0.002160 0.002160 0.000000
0.002983 0.002160 0.000000
0.004090 0.002160 0.000000
0.005621 0.002160 0.000000
0.007629 0.002160 0.000000
0.010419 0.002160 0.000000
0.014162 0.002160 0.000000
0.019034 0.002160 0.000000
0.025776 0.002160 0.000000
0.035034 0.002160 0.000000
0.047517 0.002160 0.000000
0.064448 0.002160 0.000000
0.087638 0.002160 0.000000
0.118345 0.002160 0.000000
0.161155 0.002160 0.000000
0.217586 0.002160 0.000000
0.296207 0.002160 0.000000
0.400690 0.002160 0.000000
0.542759 0.002160 0.000000
0.737069 0.002160 0.000000
0.994138 0.002160 0.000000
0.000000 0.002983 0.000000
0.000000 0.002983 0.000000
0.000000 0.002983 0.000000
0.000049 0.002983 0.000000
0.000124 0.002983 0.000000
0.000220 0.002983 0.000000
0.000354 0.002983 0.000000
0.000534 0.002983 0.000000
0.000776 0.002983 0.000000
0.001106 0.002983 0.000000
0.001555 0.002983 0.000000
0.002160 0.002983 0.000000
0.002983 0.002983 0.000000
0.004090 0.002983 0.000000
0.005621 0.002983 0.000000
0.007629 0.002983 0.000000
0.010419 0.002983 0.000000
0.014162 0.002983 0.000000
0.019034 0.002983 0.000000
0.025776 0.002983 0.000000
0.035034 0.002983 0.000000
0.047517 0.002983 0.000000
0.064448 0.002983 0.000000
0.087638 0.002983 0.000000
0.118345 0.002983 0.000000
0.161155 0.002983 0.000000
0.217586 0.002983 0.000000
0.296207 0.002983 0.000000
0.400690 0.002983 0.000000
0.542759 0.002983 0.000000
0.737069 0.002983 0.000000
0.994138 0.002983 0.000000
0.000000 0.004090 0.000000
0.000000 0.004090 0.000000
0.000000 0.004090 0.000000
0.000049 0.004090 0.000000
0.000124 0.004090 0.000000
0.000220 0.004090 0.000000
0.000354 0.004090 0.000000
0.000534 0.004090 0.000000
0.000776 0.004090 0.000000
0.001106 0.004090 0.000000
0.001555 0.004090 0.000000
0.002160 0.004090 0.000000
0.002983 0.004090 0.000000
0.004090 0.004090 0.000000
0.005621 0.004090 0.000000
0.007629 0.004090 0.000000
0.010419 0.004090 0.000000
0.014162 0.004090 0.000000
0.019034 0.004090 0.000000
0.025776 0.004090 0.000000
0.035034 0.004090 0.000000
0.047517 0.004090 0.000000
0.064448 0.004090 0.000000
0.087638 0.004090 0.000000
0.118345 0.004090 0.000000
0.161155 0.004090 0.000000
0.217586 0.004090 0.000000
0.296207 0.004090 0.000000
0.400690 0.004090 0.000000
0.542759 0.004090 0.000000
0.737069 0.004090 0.000000
0.994138 0.004090 0.000000
0.000000 0.005621 0.000000
0.000000 0.005621 0.000000
0.000000 0.005621 0.000000
0.000049 0.005621 0.000000
0.000124 0.005621 0.000000
0.000220 0.005621 0.000000
0.000354 0.005621 0.000000
0.000534 0.005621 0.000000
0.000776 0.005621 0.000000
0.001106 0.005621 0.000000
0.001555 0.005621 0.000000
0.002160 0.005621 0.000000
0.002983 0.005621 0.000000
0.004090 0.005621 0.000000
0.005621 0.005621 0.000000
0.007629 0.005621 0.000000
0.010419 0.005621 0.000000
0.014162 0.005621 0.000000
0.019034 0.005621 0.000000
0.025776 0.005621 0.000000
0.035034 0.005621 0.000000
0.047517 0.005621 0.000000
0.064448 0.005621 0.000000
0.087638 0.005621 0.000000
0.118345 0.005621 0.000000
0.161155 0.005621 0.000000
0.217586 0.005621 0.000000
0.296207 0.005621 0.000000
0.400690 0.005621 0.000000
0.542759 0.005621 0.000000
0.737069 0.005621 0.000000
0.994138 0.005621 0.000000
0.000000 0.007629 0.000000
0.000000 0.007629 0.000000
0.000000 0.007629 0.000000
0.000049 0.007629 0.000000
0.000124 0.007629 0.000000
0.000220 0.007629 0.000000
0.000354 0.007629 0.000000
0.000534 0.007629 0.000000
0.000776 0.007629 0.000000
0.001106 0.007629 0.000000
0.001555 0.007629 0.000000
0.002160 0.007629 0.000000
0.002983 0.007629 0.000000
0.004090 0.007629 0.000000
0.005621 0.007629 0.000000
0.007629 0.007629 0.000000
0.010419 0.007629 0.000000
0.014162 0.007629 0.000000
0.019034 0.007629 0.000000
0.025776 0.007629 0.000000
0.035034 0.007629 0.000000
0.047517 0.007629 0.000000
0.064448 0.007629 0.000000
0.087638 0.007629 0.000000
0.118345 0.007629 0.000000
0.161155 0.007629 0.000000
0.217586 0.007629 0.000000
0.296207 0.007629 0.000000
0.400690 0.007629 0.000000
0.542759 0.007629 0.000000
0.737069 0.007629 0.000000
0.994138 0.007629 0.000000
0.000000 0.010419 0.000000
0.000000 0.010419 0.000000
0.000000 0.010419 0.000000
0.000049 0.010419 0.000000
0.000124 0.010419 0.000000
0.000220 0.010419 0.000000
0.000354 0.010419 0.000000
0.000534 0.010419 0.000000
0.000776 0.010419 0.000000
0.001106 0.010419 0.000000
0.001555 0.010419 0.000000
0.002160 0.010419 0.000000
0.002983 0.010419 0.000000
0.004090 0.010419 0.000000
0.005621 0.010419 0.000000
0.007629 0.010419 0.000000
0.010419 0.010419 0.000000
0.014162 0.010419 0.000000
0.019034 0.010419 0.000000
0.025776 0.010419 0.000000
0.035034 0.010419 0.000000
0.047517 0.010419 0.000000
0.064448 0.010419 0.000000
0.087638 0.010419 0.000000
0.118345 0.010419 0.000000
0.161155 0.010419 0.000000
0.217586 0.010419 0.000000
0.296207 0.010419 0.000000
0.400690 0.010419 0.000000
0.542759 0.010419 0.000000
0.737069 0.010419 0.000000
0.994138 0.010419 0.000000
0.000000 0.014162 0.000000
0.000000 0.014162 0.000000
0.000000 0.014162 0.000000
0.000049 0.014162 0.000000
0.000124 0.014162 0.000000
0.000220 0.014162 0.000000
0.000354 0.014162 0.000000
0.000534 0.014162 0.000000
0.000776 0.014162 0.000000
0.001106 0.014162 0.000000
0.001555 0.014162 0.000000
0.002160 0.014162 0.000000
0.002983 0.014162 0.000000
0.004090 0.014162 0.000000
0.005621 0.014162 0.000000
0.007629 0.014162 0.000000
0.010419 0.014162 0.000000
0.014162 0.014162 0.000000
0.019034 0.014162 0.000000
0.025776 0.014162 0.000000
0.035034 0.014162 0.000000
0.047517 0.014162 0.000000
0.064448 0.014162 0.000000
0.087638 0.014162 0.000000
0.118345 0.014162 0.000000
0.161155 0.014162 0.000000
0.217586 0.014162 0.000000
0.296207 0.014162 0.000000
0.400690 0.014162 0.000000
0.542759 0.014162 0.000000
0.737069 0.014162 0.000000
0.994138 0.014162 0.000000
0.000000 0.019034 0.000000
0.000000 0.019034 0.000000
0.000000 0.019034 0.000000
0.000049 0.019034 0.000000
0.000124 0.019034 0.000000
0.000220 0.019034 0.000000
0.000354 0.019034 0.000000
0.000534 0.019034 0.000000
0.000776 0.019034 0.000000
0.001106 0.019034 0.000000
0.001555 0.019034 0.000000
0.002160 0.019034 0.000000
0.002983 0.019034 0.000000
0.004090 0.019034 0.000000
0.005621 0.019034 0.000000
0.007629 0.019034 0.000000
0.010419 0.019034 0.000000
0.014162 0.019034 0.000000
0.019034 0.019034 0.000000
0.025776 0.019034 0.000000
0.035034 0.019034 0.000000
0.047517 0.019034 0.000000
0.064448 0.019034 0.000000
0.087638 0.019034 0.000000
0.118345 0.019034 0.000000
0.161155 0.019034 0.000000
0.217586 0.019034 0.000000
0.296207 0.019034 0.000000
0.400690 0.019034 0.000000
0.542759 0.019034 0.000000
0.737069 0.019034 0.000000
0.994138 0.019034 0.000000
0.000000 0.025776 0.000000
0.000000 0.025776 0.000000
0.000000 0.025776 0.000000
0.000049 0.025776 0.000000
0.000124 0.025776 0.000000
0.000220 0.025776 0.000000
0.000354 0.025776 0.000000
0.000534 0.025776 0.000000
0.000776 0.025776 0.000000
0.001106 0.025776 0.000000
0.001555 0.025776 0.000000
0.002160 0.025776 0.000000
0.002983 0.025776 0.000000
0.004090 0.025776 0.000000
0.005621 0.025776 0.000000
0.007629 0.025776 0.000000
0.010419 0.025776 0.000000
0.014162 0.025776 0.000000
0.019034 0.025776 0.000000
0.025776 0.025776 0.000000
0.035034 0.025776 0.000000
0.047517 0.025776 0.000000
0.064448 0.025776 0.000000
0.087638 0.025776 0.000000
0.118345 0.025776 0.000000
0.161155 0.025776 0.000000
0.217586 0.025776 0.000000
0.296207 0.025776 0.000000
0.400690 0.025776 0.000000
0.542759 0.025776 0.000000
0.737069 0.025776 0.000000
0.994138 0.025776 0.000000
0.000000 0.035034 0.000000
0.000000 0.035034 0.000000
0.000000 0.035034 0.000000
0.000049 0.035034 0.000000
0.000124 0.035034 0.000000
0.000220 0.035034 0.000000
0.000354 0.035034 0.000000
0.000534 0.035034 0.000000
0.000776 0.035034 0.000000
0.001106 0.035034 0.000000
0.001555 0.035034 0.000000
0.002160 0.035034 0.000000
0.002983 0.035034 0.000000
0.004090 0.035034 0.000000
0.005621 0.035034 0.000000
0.007629 0.035034 0.000000
0.010419 0.035034 0.000000
0.014162 0.035034 0.000000
0.019034 0.035034 0.000000
0.025776 0.035034 0.000000
0.035034 0.035034 0.000000
0.047517 0.035034 0.000000
0.064448 0.035034 0.000000
0.087638 0.035034 0.000000
0.118345 0.035034 0.000000
0.161155 0.035034 0.000000
0.217586 0.035034 0.000000
0.296207 0.035034 0.000000
0.400690 0.035034 0.000000
0.542759 0.035034 0.000000
0.737069 0.035034 0.000000
0.994138 0.035034 0.000000
0.000000 0.047517 0.000000
0.000000 0.047517 0.000000
0.000000 0.047517 0.000000
0.000049 0.047517 0.000000
0.000124 0.047517 0.000000
0.000220 0.047517 0.000000
0.000354 0.047517 0.000000
0.000534 0.047517 0.000000
0.000776 0.047517 0.000000
0.001106 0.047517 0.000000
0.001555 0.047517 0.000000
0.002160 0.047517 0.000000
0.002983 0.047517 0.000000
0.004090 0.047517 0.000000
0.005621 0.047517 0.000000
0.007629 0.047517 0.000000
0.010419 0.047517 0.000000
0.014162 0.047517 0.000000
0.019034 0.047517 0.000000
0.025776 0.047517 0.000000
0.035034 0.047517 0.000000
0.047517 0.047517 0.000000
0.064448 0.047517 0.000000
0.087638 0.047517 0.000000
0.118345 0.047517 0.000000
0.161155 0.047517 0.000000
0.217586 0.047517 0.000000
0.296207 0.047517 0.000000
0.400690 0.047517 0.000000
0.542759 0.047517 0.000000
0.737069 0.047517 0.000000
0.994138 0.047517 0.000000
0.000000 0.064448 0.000000
0.000000 0.064448 0.000000
0.000000 0.064448 0.000000
0.000049 0.064448 0.000000
0.000124 0.064448 0.000000
0.000220 0.064448 0.000000
0.000354 0.064448 0.000000
0.000534 0.064448 0.000000
0.000776 0.064448 0.000000
0.001106 0.064448 0.000000
0.001555 0.064448 0.000000
0.002160 0.064448 0.000000
0.002983 0.064448 0.000000
0.004090 0.064448 0.000000
0.005621 0.064448 0.000000
0.007629 0.064448 0.000000
0.010419 0.064448 0.000000
0.014162 0.064448 0.000000
0.019034 0.064448 0.000000
0.025776 0.064448 0.000000
0.035034 0.064448 0.000000
0.047517 0.064448 0.000000
0.064448 0.064448 0.000000
0.087638 0.064448 0.000000
0.118345 0.064448 0.000000
0.161155 0.064448 0.000000
0.217586 0.064448 0.000000
0.296207 0.064448 0.000000
0.400690 0.064448 0.000000
0.542759 0.064448 0.000000
0.737069 0.064448 0.000000
0.994138 0.064448 0.000000
0.000000 0.087638 0.000000
0.000000 0.087638 0.000000
0.000000 0.087638 0.000000
0.000049 0.087638 0.000000
0.000124 0.087638 0.000000
0.000220 0.087638 0.000000
0.000354 0.087638 0.000000
0.000534 0.087638 0.000000
0.000776 0.087638 0.000000
0.001106 0.087638 0.000000
0.001555 0.087638 0.000000
0.002160 0.087638 0.000000
0.002983 0.087638 0.000000
0.004090 0.087638 0.000000
0.005621 0.087638 0.000000
0.007629 0.087638 0.000000
0.010419 0.087638 0.000000
0.014162 0.087638 0.000000
0.019034 0.087638 0.000000
0.025776 0.087638 0.000000
0.035034 0.087638 0.000000
0.047517 0.087638 0.000000
0.064448 0.087638 0.000000
0.087638 0.087638 0.000000
0.118345 0.087638 0.000000
0.161155 0.087638 0.000000
0.217586 0.087638 0.000000
0.296207 0.087638 0.000000
0.400690 0.087638 0.000000
0.542759 0.087638 0.000000
0.737069 0.087638 0.000000
0.994138 0.087638 0.000000
0.000000 0.118345 0.000000
0.000000 0.118345 0.000000
0.000000 0.118345 0.000000
0.000049 0.118345 0.000000
0.000124 0.118345 0.000000
0.000220 0.118345 0.000000
0.000354 0.118345 0.000000
0.000534 0.118345 0.000000
0.000776 0.118345 0.000000
0.001106 0.118345 0.000000
0.001555 0.118345 0.000000
0.002160 0.118345 0.000000
0.002983 0.118345 0.000000
0.004090 0.118345 0.000000
0.005621 0.118345 0.000000
0.007629 0.118345 0.000000
0.010419 0.118345 0.000000
0.014162 0.118345 0.000000
0.019034 0.118345 0.000000
0.025776 0.118345 0.000000
0.035034 0.118345 0.000000
0.047517 0.118345 0.000000
0.064448 0.118345 0.000000
0.087638 0.118345 0.000000
0.118345 0.118345 0.000000
0.161155 0.118345 0.000000
0.217586 0.118345 0.000000
0.296207 0.118345 0.000000
0.400690 0.118345 0.000000
0.542759 0.118345 0.000000
0.737069 0.118345 0.000000
0.994138 0.118345 0.000000
0.000000 0.161155 0.000000
0.000000 0.161155 0.000000
0.000000 0.161155 0.000000
0.000049 0.161155 0.000000
0.000124 0.161155 0.000000
0.000220 0.161155 0.000000
0.000354 0.161155 0.000000
0.000534 0.161155 0.000000
0.000776 0.161155 0.000000
0.001106 0.161155 0.000000
0.001555 0.161155 0.000000
0.002160 0.161155 0.000000
0.002983 0.161155 0.000000
0.004090 0.161155 0.000000
0.005621 0.161155 0.000000
0.007629 0.161155 0.000000
0.010419 0.161155 0.000000
0.014162 0.161155 0.000000
0.019034 0.161155 0.000000
0.025776 0.161155 0.000000
0.035034 0.161155 0.000000
0.047517 0.161155 0.000000
0.064448 0.161155 0.000000
0.087638 0.161155 0.000000
0.118345 0.161155 0.000000
0.161155 0.161155 0.000000
0.217586 0.161155 0.000000
0.296207 0.161155 0.000000
0.400690 0.161155 0.000000
0.542759 0.161155 0.000000
0.737069 0.161155 0.000000
0.994138 0.161155 0.000000
0.000000 0.217586 0.000000
0.000000 0.217586 0.000000
0.000000 0.217586 0.000000
0.000049 0.217586 0.000000
0.000124 0.217586 0.000000
0.000220 0.217586 0.000000
0.000354 0.217586 0.000000
0.000534 0.217586 0.000000
0.000776 0.217586 0.000000
0.001106 0.217586 0.000000
0.001555 0.217586 0.000000
0.002160 0.217586 0.000000
0.002983 0.217586 0.000000
0.004090 0.217586 0.000000
0.005621 0.217586 0.000000
0.007629 0.217586 0.000000
0.010419 0.217586 0.000000
0.014162 0.217586 0.000000
0.019034 0.217586 0.000000
0.025776 0.217586 0.000000
0.035034 0.217586 0.000000
0.047517 0.217586 0.000000
0.064448 0.217586 0.000000
0.087638 0.217586 0.000000
0.118345 0.217586 0.000000
0.161155 0.217586 0.000000
0.217586 0.217586 0.000000
0.296207 0.217586 0.000000
0.400690 0.217586 0.000000
0.542759 0.217586 0.000000
0.737069 0.217586 0.000000
0.994138 0.217586 0.000000
0.000000 0.296207 0.000000
0.000000 0.296207 0.000000
0.000000 0.296207 0.000000
0.000049 0.296207 0.000000
0.000124 0.296207 0.000000
0.000220 0.296207 0.000000
0.000354 0.296207 0.000000
0.000534 0.296207 0.000000
0.000776 0.296207 0.000000
0.001106 0.296207 0.000000
0.001555 0.296207 0.000000
0.002160 0.296207 0.000000
0.002983 0.296207 0.000000
0.004090 0.296207 0.000000
0.005621 0.296207 0.000000
0.007629 0.296207 0.000000
0.010419 0.296207 0.000000
0.014162 0.296207 0.000000
0.019034 0.296207 0.000000
0.025776 0.296207 0.000000
0.035034 0.296207 0.000000
