python/4 - creating cube files/cube files/linear_max58.cube
TITLE "cube/linear_max58.cube"
LUT_3D_SIZE 8
DOMAIN_MIN 0.000000 0.000000 0.000000
DOMAIN_MAX 0.903226 0.903226 0.903226
0.000000 0.000000 0.000000
0.000124 0.000000 0.000000
0.000776 0.000000 0.000000
0.002983 0.000000 0.000000
0.010419 0.000000 0.000000
0.035034 0.000000 0.000000
0.118345 0.000000 0.000000
0.400690 0.000000 0.000000
0.000000 0.000124 0.000000
0.000124 0.000124 0.000000
0.000776 0.000124 0.000000
0.002983 0.000124 0.000000
0.010419 0.000124 0.000000
0.035034 0.000124 0.000000
0.118345 0.000124 0.000000
0.400690 0.000124 0.000000
0.000000 0.000776 0.000000
0.000124 0.000776 0.000000
0.000776 0.000776 0.000000
0.002983 0.000776 0.000000
0.010419 0.000776 0.000000
0.035034 0.000776 0.000000
0.118345 0.000776 0.000000
0.400690 0.000776 0.000000
0.000000 0.002983 0.000000
0.000124 0.002983 0.000000
0.000776 0.002983 0.000000
0.002983 0.002983 0.000000
0.010419 0.002983 0.000000
0.035034 0.002983 0.000000
0.118345 0.002983 0.000000
0.400690 0.002983 0.000000
0.000000 0.010419 0.000000
0.000124 0.010419 0.000000
0.000776 0.010419 0.000000
0.002983 0.010419 0.000000
0.010419 0.010419 0.000000
0.035034 0.010419 0.000000
0.118345 0.010419 0.000000
0.400690 0.010419 0.000000
0.000000 0.035034 0.000000
0.000124 0.035034 0.000000
0.000776 0.035034 0.000000
0.002983 0.035034 0.000000
0.010419 0.035034 0.000000
0.035034 0.035034 0.000000
0.118345 0.035034 0.000000
0.400690 0.035034 0.000000
0.000000 0.118345 0.000000
0.000124 0.118345 0.000000
0.000776 0.118345 0.000000
0.002983 0.118345 0.000000
0.010419 0.118345 0.000000
0.035034 0.118345 0.000000
0.118345 0.118345 0.000000
0.400690 0.118345 0.000000
0.000000 0.400690 0.000000
0.000124 0.400690 0.000000
0.000776 0.400690 0.000000
0.002983 0.400690 0.000000
0.010419 0.400690 0.000000
0.035034 0.400690 0.000000
0.118345 0.400690 0.000000
0.400690 0.400690 0.000000
0.000000 0.000000 0.000124
0.000124 0.000000 0.000124
0.000776 0.000000 0.000124
0.002983 0.000000 0.000124
0.010419 0.000000 0.000124
0.035034 0.000000 0.000124
0.118345 0.000000 0.000124
0.400690 0.000000 0.000124
0.000000 0.000124 0.000124
0.000124 0.000124 0.000124
0.000776 0.000124 0.000124
0.002983 0.000124 0.000124
0.010419 0.000124 0.000124
0.035034 0.000124 0.000124
0.118345 0.000124 0.000124
0.400690 0.000124 0.000124
0.000000 0.000776 0.000124
0.000124 0.000776 0.000124
0.000776 0.000776 0.000124
0.002983 0.000776 0.000124
0.010419 0.000776 0.000124
0.035034 0.000776 0.000124
0.118345 0.000776 0.000124
0.400690 0.000776 0.000124
0.000000 0.002983 0.000124
0.000124 0.002983 0.000124
0.000776 0.002983 0.000124
0.002983 0.002983 0.000124
0.010419 0.002983 0.000124
0.035034 0.002983 0.000124
0.118345 0.002983 0.000124
0.400690 0.002983 0.000124
0.000000 0.010419 0.000124
0.000124 0.010419 0.000124
0.000776 0.010419 0.000124
0.002983 0.010419 0.000124
0.010419 0.010419 0.000124
0.035034 0.010419 0.000124
0.118345 0.010419 0.000124
0.400690 0.010419 0.000124
0.000000 0.035034 0.000124
0.000124 0.035034 0.000124
0.000776 0.035034 0.000124
0.002983 0.035034 0.000124
0.010419 0.035034 0.000124
0.035034 0.035034 0.000124
0.118345 0.035034 0.000124
0.400690 0.035034 0.000124
0.000000 0.118345 0.000124
0.000124 0.118345 0.000124
0.000776 0.118345 0.000124
0.002983 0.118345 0.000124
0.010419 0.118345 0.000124
0.035034 0.118345 0.000124
0.118345 0.118345 0.000124
0.400690 0.118345 0.000124
0.000000 0.400690 0.000124
0.000124 0.400690 0.000124
0.000776 0.400690 0.000124
0.002983 0.400690 0.000124
0.010419 0.400690 0.000124
0.035034 0.400690 0.000124
0.118345 0.400690 0.000124
0.400690 0.400690 0.000124
0.000000 0.000000 0.000776
0.000124 0.000000 0.000776
0.000776 0.000000 0.000776
0.002983 0.000000 0.000776
0.010419 0.000000 0.000776
0.035034 0.000000 0.000776
0.118345 0.000000 0.000776
0.400690 0.000000 0.000776
0.000000 0.000124 0.000776
0.000124 0.000124 0.000776
0.000776 0.000124 0.000776
0.002983 0.000124 0.000776
0.010419 0.000124 0.000776
0.035034 0.000124 0.000776
0.118345 0.000124 0.000776
0.400690 0.000124 0.000776
0.000000 0.000776 0.000776
0.000124 0.000776 0.000776
0.000776 0.000776 0.000776
0.002983 0.000776 0.000776
0.010419 0.000776 0.000776
0.035034 0.000776 0.000776
0.118345 0.000776 0.000776
0.400690 0.000776 0.000776
0.000000 0.002983 0.000776
0.000124 0.002983 0.000776
0.000776 0.002983 0.000776
0.002983 0.002983 0.000776
0.010419 0.002983 0.000776
0.035034 0.002983 0.000776
0.118345 0.002983 0.000776
0.400690 0.002983 0.000776
0.000000 0.010419 0.000776
0.000124 0.010419 0.000776
0.000776 0.010419 0.000776
0.002983 0.010419 0.000776
0.010419 0.010419 0.000776
0.035034 0.010419 0.000776
0.118345 0.010419 0.000776
0.400690 0.010419 0.000776
0.000000 0.035034 0.000776
0.000124 0.035034 0.000776
0.000776 0.035034 0.000776
0.002983 0.035034 0.000776
0.010419 0.035034 0.000776
0.035034 0.035034 0.000776
0.118345 0.035034 0.000776
0.400690 0.035034 0.000776
0.000000 0.118345 0.000776
0.000124 0.118345 0.000776
0.000776 0.118345 0.000776
0.002983 0.118345 0.000776
0.010419 0.118345 0.000776
0.035034 0.118345 0.000776
0.118345 0.118345 0.000776
0.400690 0.118345 0.000776
0.000000 0.400690 0.000776
0.000124 0.400690 0.000776
0.000776 0.400690 0.000776
0.002983 0.400690 0.000776
0.010419 0.400690 0.000776
0.035034 0.400690 0.000776
0.118345 0.400690 0.000776
0.400690 0.400690 0.000776
0.000000 0.000000 0.002983
0.000124 0.000000 0.002983
0.000776 0.000000 0.002983
0.002983 0.000000 0.002983
0.010419 0.000000 0.002983
0.035034 0.000000 0.002983
0.118345 0.000000 0.002983
0.400690 0.000000 0.002983
0.000000 0.000124 0.002983
0.000124 0.000124 0.002983
0.000776 0.000124 0.002983
0.002983 0.000124 0.002983
0.010419 0.000124 0.002983
0.035034 0.000124 0.002983
0.118345 0.000124 0.002983
0.400690 0.000124 0.002983
0.000000 0.000776 0.002983
0.000124 0.000776 0.002983
0.000776 0.000776 0.002983
0.002983 0.000776 0.002983
0.010419 0.000776 0.002983
0.035034 0.000776 0.002983
0.118345 0.000776 0.002983
0.400690 0.000776 0.002983
0.000000 0.002983 0.002983
0.000124 0.002983 0.002983
0.000776 0.002983 0.002983
0.002983 0.002983 0.002983
0.010419 0.002983 0.002983
0.035034 0.002983 0.002983
0.118345 0.002983 0.002983
0.400690 0.002983 0.002983
0.000000 0.010419 0.002983
0.000124 0.010419 0.002983
0.000776 0.010419 0.002983
0.002983 0.010419 0.002983
0.010419 0.010419 0.002983
0.035034 0.010419 0.002983
0.118345 0.010419 0.002983
0.400690 0.010419 0.002983
0.000000 0.035034 0.002983
0.000124 0.035034 0.002983
0.000776 0.035034 0.002983
0.002983 0.035034 0.002983
0.010419 0.035034 0.002983
0.035034 0.035034 0.002983
0.118345 0.035034 0.002983
0.400690 0.035034 0.002983
0.000000 0.118345 0.002983
0.000124 0.118345 0.002983
0.000776 0.118345 0.002983
0.002983 0.118345 0.002983
0.010419 0.118345 0.002983
0.035034 0.118345 0.002983
0.118345 0.118345 0.002983
0.400690 0.118345 0.002983
0.000000 0.400690 0.002983
0.000124 0.400690 0.002983
0.000776 0.400690 0.002983
0.002983 0.400690 0.002983
0.010419 0.400690 0.002983
0.035034 0.400690 0.002983
0.118345 0.400690 0.002983
0.400690 0.400690 0.002983
0.000000 0.000000 0.010419
0.000124 0.000000 0.010419
0.000776 0.000000 0.010419
0.002983 0.000000 0.010419
0.010419 0.000000 0.010419
0.035034 0.000000 0.010419
0.118345 0.000000 0.010419
0.400690 0.000000 0.010419
0.000000 0.000124 0.010419
0.000124 0.000124 0.010419
0.000776 0.000124 0.010419
0.002983 0.000124 0.010419
0.010419 0.000124 0.010419
0.035034 0.000124 0.010419
0.118345 0.000124 0.010419
0.400690 0.000124 0.010419
0.000000 0.000776 0.010419
0.000124 0.000776 0.010419
0.000776 0.000776 0.010419
0.002983 0.000776 0.010419
0.010419 0.000776 0.010419
0.035034 0.000776 0.010419
0.118345 0.000776 0.010419
0.400690 0.000776 0.010419
0.000000 0.002983 0.010419
0.000124 0.002983 0.010419
0.000776 0.002983 0.010419
0.002983 0.002983 0.010419
0.010419 0.002983 0.010419
0.035034 0.002983 0.010419
0.118345 0.002983 0.010419
0.400690 0.002983 0.010419
0.000000 0.010419 0.010419
0.000124 0.010419 0.010419
0.000776 0.010419 0.010419
0.002983 0.010419 0.010419
0.010419 0.010419 0.010419
0.035034 0.010419 0.010419
0.118345 0.010419 0.010419
0.400690 0.010419 0.010419
0.000000 0.035034 0.010419
0.000124 0.035034 0.010419
0.000776 0.035034 0.010419
0.002983 0.035034 0.010419
0.010419 0.035034 0.010419
0.035034 0.035034 0.010419
0.118345 0.035034 0.010419
0.400690 0.035034 0.010419
0.000000 0.118345 0.010419
0.000124 0.118345 0.010419
0.000776 0.118345 0.010419
0.002983 0.118345 0.010419
0.010419 0.118345 0.010419
0.035034 0.118345 0.010419
0.118345 0.118345 0.010419
0.400690 0.118345 0.010419
0.000000 0.400690 0.010419
0.000124 0.400690 0.010419
0.000776 0.400690 0.010419
0.002983 0.400690 0.010419
0.010419 0.400690 0.010419
0.035034 0.400690 0.010419
0.118345 0.400690 0.010419
0.400690 0.400690 0.010419
0.000000 0.000000 0.035034
0.000124 0.000000 0.035034
0.000776 0.000000 0.035034
0.002983 0.000000 0.035034
0.010419 0.000000 0.035034
0.035034 0.000000 0.035034
0.118345 0.000000 0.035034
0.400690 0.000000 0.035034
0.000000 0.000124 0.035034
0.000124 0.000124 0.035034
0.000776 0.000124 0.035034
0.002983 0.000124 0.035034
0.010419 0.000124 0.035034
0.035034 0.000124 0.035034
0.118345 0.000124 0.035034
0.400690 0.000124 0.035034
0.000000 0.000776 0.035034
0.000124 0.000776 0.035034
0.000776 0.000776 0.035034
0.002983 0.000776 0.035034
0.010419 0.000776 0.035034
0.035034 0.000776 0.035034
0.118345 0.000776 0.035034
0.400690 0.000776 0.035034
0.000000 0.002983 0.035034
0.000124 0.002983 0.035034
0.000776 0.002983 0.035034
0.002983 0.002983 0.035034
0.010419 0.002983 0.035034
0.035034 0.002983 0.035034
0.118345 0.002983 0.035034
0.400690 0.002983 0.035034
0.000000 0.010419 0.035034
0.000124 0.010419 0.035034
0.000776 0.010419 0.035034
0.002983 0.010419 0.035034
0.010419 0.010419 0.035034
0.035034 0.010419 0.035034
0.118345 0.010419 0.035034
0.400690 0.010419 0.035034
0.000000 0.035034 0.035034
0.000124 0.035034 0.035034
0.000776 0.035034 0.035034
0.002983 0.035034 0.035034
0.010419 0.035034 0.035034
0.035034 0.035034 0.035034
0.118345 0.035034 0.035034
0.400690 0.035034 0.035034
0.000000 0.118345 0.035034
0.000124 0.118345 0.035034
0.000776 0.118345 0.035034
0.002983 0.118345 0.035034
0.010419 0.118345 0.035034
0.035034 0.118345 0.035034
0.118345 0.118345 0.035034
0.400690 0.118345 0.035034
0.000000 0.400690 0.035034
0.000124 0.400690 0.035034
0.000776 0.400690 0.035034
0.002983 0.400690 0.035034
0.010419 0.400690 0.035034
0.035034 0.400690 0.035034
0.118345 0.400690 0.035034
0.400690 0.400690 0.035034
0.000000 0.000000 0.118345
0.000124 0.000000 0.118345
0.000776 0.000000 0.118345
0.002983 0.000000 0.118345
0.010419 0.000000 0.118345
0.035034 0.000000 0.118345
0.118345 0.000000 0.118345
0.400690 0.000000 0.118345
0.000000 0.000124 0.118345
0.000124 0.000124 0.118345
0.000776 0.000124 0.118345
0.002983 0.000124 0.118345
0.010419 0.000124 0.118345
0.035034 0.000124 0.118345
0.118345 0.000124 0.118345
0.400690 0.000124 0.118345
0.000000 0.000776 0.118345
0.000124 0.000776 0.118345
0.000776 0.000776 0.118345
0.002983 0.000776 0.118345
0.010419 0.000776 0.118345
0.035034 0.000776 0.118345
0.118345 0.000776 0.118345
0.400690 0.000776 0.118345
0.000000 0.002983 0.118345
0.000124 0.002983 0.118345
0.000776 0.002983 0.118345
0.002983 0.002983 0.118345
0.010419 0.002983 0.118345
0.035034 0.002983 0.118345
0.118345 0.002983 0.118345
0.400690 0.002983 0.118345
0.000000 0.010419 0.118345
0.000124 0.010419 0.118345
0.000776 0.010419 0.118345
0.002983 0.010419 0.118345
0.010419 0.010419 0.118345
0.035034 0.010419 0.118345
0.118345 0.010419 0.118345
0.400690 0.010419 0.118345
0.000000 0.035034 0.118345
0.000124 0.035034 0.118345
0.000776 0.035034 0.118345
0.002983 0.035034 0.118345
0.010419 0.035034 0.118345
0.035034 0.035034 0.118345
0.118345 0.035034 0.118345
0.400690 0.035034 0.118345
0.000000 0.118345 0.118345
0.000124 0.118345 0.118345
0.000776 0.118345 0.118345
0.002983 0.118345 0.118345
0.010419 0.118345 0.118345
0.035034 0.118345 0.118345
0.118345 0.118345 0.118345
0.400690 0.118345 0.118345
0.000000 0.400690 0.118345
0.000124 0.400690 0.118345
0.000776 0.400690 0.118345
0.002983 0.400690 0.118345
0.010419 0.400690 0.118345
0.035034 0.400690 0.118345
0.118345 0.400690 0.118345
0.400690 0.400690 0.118345
0.000000 0.000000 0.400690
0.000124 0.000000 0.400690
0.000776 0.000000 0.400690
0.002983 0.000000 0.400690
0.010419 0.000000 0.400690
0.035034 0.000000 0.400690
0.118345 0.000000 0.400690
0.400690 0.000000 0.400690
0.000000 0.000124 0.400690
0.000124 0.000124 0.400690
0.000776 0.000124 0.400690
0.002983 0.000124 0.400690
0.010419 0.000124 0.400690
0.035034 0.000124 0.400690
0.118345 0.000124 0.400690
0.400690 0.000124 0.400690
0.000000 0.000776 0.400690
0.000124 0.000776 0.400690
0.000776 0.000776 0.400690
0.002983 0.000776 0.400690
0.010419 0.000776 0.400690
0.035034 0.000776 0.400690
0.118345 0.000776 0.400690
0.400690 0.000776 0.400690
0.000000 0.002983 0.400690
0.000124 0.002983 0.400690
0.000776 0.002983 0.400690
0.002983 0.002983 0.400690
0.010419 0.002983 0.400690
0.035034 0.002983 0.400690
0.118345 0.002983 0.400690
0.400690 0.002983 0.400690
0.000000 0.010419 0.400690
0.000124 0.010419 0.400690
0.000776 0.010419 0.400690
0.002983 0.010419 0.400690
0.010419 0.010419 0.400690
0.035034 0.010419 0.400690
0.118345 0.010419 0.400690
0.400690 0.010419 0.400690
0.000000 0.035034 0.400690
0.000124 0.035034 0.400690
0.000776 0.035034 0.400690
0.002983 0.035034 0.400690
0.010419 0.035034 0.400690
0.035034 0.035034 0.400690
0.118345 0.035034 0.400690
0.400690 0.035034 0.400690
0.000000 0.118345 0.400690
0.000124 0.118345 0.400690
0.000776 0.118345 0.400690
0.002983 0.118345 0.400690
0.010419 0.118345 0.400690
0.035034 0.118345 0.400690
0.118345 0.118345 0.400690
0.400690 0.118345 0.400690
0.000000 0.400690 0.400690
0.000124 0.400690 0.400690
0.000776 0.400690 0.400690
0.002983 0.400690 0.400690
0.010419 0.400690 0.400690
0.035034 0.400690 0.400690
0.118345 0.400690 0.400690
0.400690 0.400690 0.400690
