python/4 - creating cube files/cube files/linear_max58.cube
TITLE "cube/linear_max58.cube"
LUT_3D_SIZE 5
DOMAIN_MIN 0.000000 0.000000 0.000000
DOMAIN_MAX 0.903226 0.903226 0.903226
0.000000 0.000000 0.000000
0.000534 0.000000 0.000000
0.005621 0.000000 0.000000
0.047517 0.000000 0.000000
0.400690 0.000000 0.000000
0.000000 0.000534 0.000000
0.000534 0.000534 0.000000
0.005621 0.000534 0.000000
0.047517 0.000534 0.000000
0.400690 0.000534 0.000000
0.000000 0.005621 0.000000
0.000534 0.005621 0.000000
0.005621 0.005621 0.000000
0.047517 0.005621 0.000000
0.400690 0.005621 0.000000
0.000000 0.047517 0.000000
0.000534 0.047517 0.000000
0.005621 0.047517 0.000000
0.047517 0.047517 0.000000
0.400690 0.047517 0.000000
0.000000 0.400690 0.000000
0.000534 0.400690 0.000000
0.005621 0.400690 0.000000
0.047517 0.400690 0.000000
0.400690 0.400690 0.000000
0.000000 0.000000 0.000534
0.000534 0.000000 0.000534
0.005621 0.000000 0.000534
0.047517 0.000000 0.000534
0.400690 0.000000 0.000534
0.000000 0.000534 0.000534
0.000534 0.000534 0.000534
0.005621 0.000534 0.000534
0.047517 0.000534 0.000534
0.400690 0.000534 0.000534
0.000000 0.005621 0.000534
0.000534 0.005621 0.000534
0.005621 0.005621 0.000534
0.047517 0.005621 0.000534
0.400690 0.005621 0.000534
0.000000 0.047517 0.000534
0.000534 0.047517 0.000534
0.005621 0.047517 0.000534
0.047517 0.047517 0.000534
0.400690 0.047517 0.000534
0.000000 0.400690 0.000534
0.000534 0.400690 0.000534
0.005621 0.400690 0.000534
0.047517 0.400690 0.000534
0.400690 0.400690 0.000534
0.000000 0.000000 0.005621
0.000534 0.000000 0.005621
0.005621 0.000000 0.005621
0.047517 0.000000 0.005621
0.400690 0.000000 0.005621
0.000000 0.000534 0.005621
0.000534 0.000534 0.005621
0.005621 0.000534 0.005621
0.047517 0.000534 0.005621
0.400690 0.000534 0.005621
0.000000 0.005621 0.005621
0.000534 0.005621 0.005621
0.005621 0.005621 0.005621
0.047517 0.005621 0.005621
0.400690 0.005621 0.005621
0.000000 0.047517 0.005621
0.000534 0.047517 0.005621
0.005621 0.047517 0.005621
0.047517 0.047517 0.005621
0.400690 0.047517 0.005621
0.000000 0.400690 0.005621
0.000534 0.400690 0.005621
0.005621 0.400690 0.005621
0.047517 0.400690 0.005621
0.400690 0.400690 0.005621
0.000000 0.000000 0.047517
0.000534 0.000000 0.047517
0.005621 0.000000 0.047517
0.047517 0.000000 0.047517
0.400690 0.000000 0.047517
0.000000 0.000534 0.047517
0.000534 0.000534 0.047517
0.005621 0.000534 0.047517
0.047517 0.000534 0.047517
0.400690 0.000534 0.047517
0.000000 0.005621 0.047517
0.000534 0.005621 0.047517
0.005621 0.005621 0.047517
0.047517 0.005621 0.047517
0.400690 0.005621 0.047517
0.000000 0.047517 0.047517
0.000534 0.047517 0.047517
0.005621 0.047517 0.047517
0.047517 0.047517 0.047517
0.400690 0.047517 0.047517
0.000000 0.400690 0.047517
0.000534 0.400690 0.047517
0.005621 0.400690 0.047517
0.047517 0.400690 0.047517
0.400690 0.400690 0.047517
0.000000 0.000000 0.400690
0.000534 0.000000 0.400690
0.005621 0.000000 0.400690
0.047517 0.000000 0.400690
0.400690 0.000000 0.400690
0.000000 0.000534 0.400690
0.000534 0.000534 0.400690
0.005621 0.000534 0.400690
0.047517 0.000534 0.400690
0.400690 0.000534 0.400690
0.000000 0.005621 0.400690
0.000534 0.005621 0.400690
0.005621 0.005621 0.400690
0.047517 0.005621 0.400690
0.400690 0.005621 0.400690
0.000000 0.047517 0.400690
0.000534 0.047517 0.400690
0.005621 0.047517 0.400690
0.047517 0.047517 0.400690
0.400690 0.047517 0.400690
0.000000 0.400690 0.400690
0.000534 0.400690 0.400690
0.005621 0.400690 0.400690
0.047517 0.400690 0.400690
0.400690 0.400690 0.400690
