python/4 - creating cube files/cube files/square_max1.cube
TITLE "cube/square_max1.cube"
LUT_3D_SIZE 32
DOMAIN_MIN 0.0 0.0 0.0
DOMAIN_MAX 1.0 1.0 1.0
0.000000 0.000000 0.000000
0.000000 0.000000 0.000000
0.000000 0.000000 0.000000
0.000008 0.000000 0.000000
0.000052 0.000000 0.000000
0.000162 0.000000 0.000000
0.000422 0.000000 0.000000
0.000961 0.000000 0.000000
0.002027 0.000000 0.000000
0.004115 0.000000 0.000000
0.008132 0.000000 0.000000
0.015700 0.000000 0.000000
0.029929 0.000000 0.000000
0.056264 0.000000 0.000000
0.106276 0.000000 0.000000
0.195806 0.000000 0.000000
0.365178 0.000000 0.000000
0.674698 0.000000 0.000000
1.218816 0.000000 0.000000
1.000000 0.000000 0.000000
1.000000 0.000000 0.000000
1.000000 0.000000 0.000000
1.000000 0.000000 0.000000
1.000000 0.000000 0.000000
1.000000 0.000000 0.000000
1.000000 0.000000 0.000000
1.000000 0.000000 0.000000
1.000000 0.000000 0.000000
1.000000 0.000000 0.000000
1.000000 0.000000 0.000000
1.000000 0.000000 0.000000
1.000000 0.000000 0.000000
0.000000 0.000000 0.000000
0.000000 0.000000 0.000000
0.000000 0.000000 0.000000
0.000008 0.000000 0.000000
0.000052 0.000000 0.000000
0.000162 0.000000 0.000000
0.000422 0.000000 0.000000
0.000961 0.000000 0.000000
0.002027 0.000000 0.000000
0.004115 0.000000 0.000000
0.008132 0.000000 0.000000
0.015700 0.000000 0.000000
0.029929 0.000000 0.000000
0.056264 0.000000 0.000000
0.106276 0.000000 0.000000
0.195806 0.000000 0.000000
0.365178 0.000000 0.000000
0.674698 0.000000 0.000000
1.218816 0.000000 0.000000
1.000000 0.000000 0.000000
1.000000 0.000000 0.000000
1.000000 0.000000 0.000000
1.000000 0.000000 0.000000
1.000000 0.000000 0.000000
1.000000 0.000000 0.000000
1.000000 0.000000 0.000000
1.000000 0.000000 0.000000
1.000000 0.000000 0.000000
1.000000 0.000000 0.000000
1.000000 0.000000 0.000000
1.000000 0.000000 0.000000
1.000000 0.000000 0.000000
0.000000 0.000000 0.000000
0.000000 0.000000 0.000000
0.000000 0.000000 0.000000
0.000008 0.000000 0.000000
0.000052 0.000000 0.000000
0.000162 0.000000 0.000000
0.000422 0.000000 0.000000
0.000961 0.000000 0.000000
0.002027 0.000000 0.000000
0.004115 0.000000 0.000000
0.008132 0.000000 0.000000
0.015700 0.000000 0.000000
0.029929 0.000000 0.000000
0.056264 0.000000 0.000000
0.106276 0.000000 0.000000
0.195806 0.000000 0.000000
0.365178 0.000000 0.000000
0.674698 0.000000 0.000000
1.218816 0.000000 0.000000
1.000000 0.000000 0.000000
1.000000 0.000000 0.000000
1.000000 0.000000 0.000000
1.000000 0.000000 0.000000
1.000000 0.000000 0.000000
1.000000 0.000000 0.000000
1.000000 0.000000 0.000000
1.000000 0.000000 0.000000
1.000000 0.000000 0.000000
1.000000 0.000000 0.000000
1.000000 0.000000 0.000000
1.000000 0.000000 0.000000
1.000000 0.000000 0.000000
0.000000 0.000008 0.000000
0.000000 0.000008 0.000000
0.000000 0.000008 0.000000
0.000008 0.000008 0.000000
0.000052 0.000008 0.000000
0.000162 0.000008 0.000000
0.000422 0.000008 0.000000
0.000961 0.000008 0.000000
0.002027 0.000008 0.000000
0.004115 0.000008 0.000000
0.008132 0.000008 0.000000
0.015700 0.000008 0.000000
0.029929 0.000008 0.000000
0.056264 0.000008 0.000000
0.106276 0.000008 0.000000
0.195806 0.000008 0.000000
0.365178 0.000008 0.000000
0.674698 0.000008 0.000000
1.218816 0.000008 0.000000
1.000000 0.000008 0.000000
1.000000 0.000008 0.000000
1.000000 0.000008 0.000000
1.000000 0.000008 0.000000
1.000000 0.000008 0.000000
1.000000 0.000008 0.000000
1.000000 0.000008 0.000000
1.000000 0.000008 0.000000
1.000000 0.000008 0.000000
1.000000 0.000008 0.000000
1.000000 0.000008 0.000000
1.000000 0.000008 0.000000
1.000000 0.000008 0.000000
0.000000 0.000052 0.000000
0.000000 0.000052 0.000000
0.000000 0.000052 0.000000
0.000008 0.000052 0.000000
0.000052 0.000052 0.000000
0.000162 0.000052 0.000000
0.000422 0.000052 0.000000
0.000961 0.000052 0.000000
0.002027 0.000052 0.000000
0.004115 0.000052 0.000000
0.008132 0.000052 0.000000
0.015700 0.000052 0.000000
0.029929 0.000052 0.000000
0.056264 0.000052 0.000000
0.106276 0.000052 0.000000
0.195806 0.000052 0.000000
0.365178 0.000052 0.000000
0.674698 0.000052 0.000000
1.218816 0.000052 0.000000
1.000000 0.000052 0.000000
1.000000 0.000052 0.000000
1.000000 0.000052 0.000000
1.000000 0.000052 0.000000
1.000000 0.000052 0.000000
1.000000 0.000052 0.000000
1.000000 0.000052 0.000000
1.000000 0.000052 0.000000
1.000000 0.000052 0.000000
1.000000 0.000052 0.000000
1.000000 0.000052 0.000000
1.000000 0.000052 0.000000
1.000000 0.000052 0.000000
0.000000 0.000162 0.000000
0.000000 0.000162 0.000000
0.000000 0.000162 0.000000
0.000008 0.000162 0.000000
0.000052 0.000162 0.000000
0.000162 0.000162 0.000000
0.000422 0.000162 0.000000
0.000961 0.000162 0.000000
0.002027 0.000162 0.000000
0.004115 0.000162 0.000000
0.008132 0.000162 0.000000
0.015700 0.000162 0.000000
0.029929 0.000162 0.000000
0.056264 0.000162 0.000000
0.106276 0.000162 0.000000
0.195806 0.000162 0.000000
0.365178 0.000162 0.000000
0.674698 0.000162 0.000000
1.218816 0.000162 0.000000
1.000000 0.000162 0.000000
1.000000 0.000162 0.000000
1.000000 0.000162 0.000000
1.000000 0.000162 0.000000
1.000000 0.000162 0.000000
1.000000 0.000162 0.000000
1.000000 0.000162 0.000000
1.000000 0.000162 0.000000
1.000000 0.000162 0.000000
1.000000 0.000162 0.000000
1.000000 0.000162 0.000000
1.000000 0.000162 0.000000
1.000000 0.000162 0.000000
0.000000 0.000422 0.000000
0.000000 0.000422 0.000000
0.000000 0.000422 0.000000
0.000008 0.000422 0.000000
0.000052 0.000422 0.000000
0.000162 0.000422 0.000000
0.000422 0.000422 0.000000
0.000961 0.000422 0.000000
0.002027 0.000422 0.000000
0.004115 0.000422 0.000000
0.008132 0.000422 0.000000
0.015700 0.000422 0.000000
0.029929 0.000422 0.000000
0.056264 0.000422 0.000000
0.106276 0.000422 0.000000
0.195806 0.000422 0.000000
0.365178 0.000422 0.000000
0.674698 0.000422 0.000000
1.218816 0.000422 0.000000
1.000000 0.000422 0.000000
1.000000 0.000422 0.000000
1.000000 0.000422 0.000000
1.000000 0.000422 0.000000
1.000000 0.000422 0.000000
1.000000 0.000422 0.000000
1.000000 0.000422 0.000000
1.000000 0.000422 0.000000
1.000000 0.000422 0.000000
1.000000 0.000422 0.000000
1.000000 0.000422 0.000000
1.000000 0.000422 0.000000
1.000000 0.000422 0.000000
0.000000 0.000961 0.000000
0.000000 0.000961 0.000000
0.000000 0.000961 0.000000
0.000008 0.000961 0.000000
0.000052 0.000961 0.000000
0.000162 0.000961 0.000000
0.000422 0.000961 0.000000
0.000961 0.000961 0.000000
0.002027 0.000961 0.000000
0.004115 0.000961 0.000000
0.008132 0.000961 0.000000
0.015700 0.000961 0.000000
0.029929 0.000961 0.000000
0.056264 0.000961 0.000000
0.106276 0.000961 0.000000
0.195806 0.000961 0.000000
0.365178 0.000961 0.000000
0.674698 0.000961 0.000000
1.218816 0.000961 0.000000
1.000000 0.000961 0.000000
1.000000 0.000961 0.000000
1.000000 0.000961 0.000000
1.000000 0.000961 0.000000
1.000000 0.000961 0.000000
1.000000 0.000961 0.000000
1.000000 0.000961 0.000000
1.000000 0.000961 0.000000
1.000000 0.000961 0.000000
1.000000 0.000961 0.000000
1.000000 0.000961 0.000000
1.000000 0.000961 0.000000
1.000000 0.000961 0.000000
0.000000 0.002027 0.000000
0.000000 0.002027 0.000000
0.000000 0.002027 0.000000
0.000008 0.002027 0.000000
0.000052 0.002027 0.000000
0.000162 0.002027 0.000000
0.000422 0.002027 0.000000
0.000961 0.002027 0.000000
0.002027 0.002027 0.000000
0.004115 0.002027 0.000000
0.008132 0.002027 0.000000
0.015700 0.002027 0.000000
0.029929 0.002027 0.000000
0.056264 0.002027 0.000000
0.106276 0.002027 0.000000
0.195806 0.002027 0.000000
0.365178 0.002027 0.000000
0.674698 0.002027 0.000000
1.218816 0.002027 0.000000
1.000000 0.002027 0.000000
1.000000 0.002027 0.000000
1.000000 0.002027 0.000000
1.000000 0.002027 0.000000
1.000000 0.002027 0.000000
1.000000 0.002027 0.000000
1.000000 0.002027 0.000000
1.000000 0.002027 0.000000
1.000000 0.002027 0.000000
1.000000 0.002027 0.000000
1.000000 0.002027 0.000000
1.000000 0.002027 0.000000
1.000000 0.002027 0.000000
0.000000 0.004115 0.000000
0.000000 0.004115 0.000000
0.000000 0.004115 0.000000
0.000008 0.004115 0.000000
0.000052 0.004115 0.000000
0.000162 0.004115 0.000000
0.000422 0.004115 0.000000
0.000961 0.004115 0.000000
0.002027 0.004115 0.000000
0.004115 0.004115 0.000000
0.008132 0.004115 0.000000
0.015700 0.004115 0.000000
0.029929 0.004115 0.000000
0.056264 0.004115 0.000000
0.106276 0.004115 0.000000
0.195806 0.004115 0.000000
0.365178 0.004115 0.000000
0.674698 0.004115 0.000000
1.218816 0.004115 0.000000
1.000000 0.004115 0.000000
1.000000 0.004115 0.000000
1.000000 0.004115 0.000000
1.000000 0.004115 0.000000
1.000000 0.004115 0.000000
1.000000 0.004115 0.000000
1.000000 0.004115 0.000000
1.000000 0.004115 0.000000
1.000000 0.004115 0.000000
1.000000 0.004115 0.000000
1.000000 0.004115 0.000000
1.000000 0.004115 0.000000
1.000000 0.004115 0.000000
0.000000 0.008132 0.000000
0.000000 0.008132 0.000000
0.000000 0.008132 0.000000
0.000008 0.008132 0.000000
0.000052 0.008132 0.000000
0.000162 0.008132 0.000000
0.000422 0.008132 0.000000
0.000961 0.008132 0.000000
0.002027 0.008132 0.000000
0.004115 0.008132 0.000000
0.008132 0.008132 0.000000
0.015700 0.008132 0.000000
0.029929 0.008132 0.000000
0.056264 0.008132 0.000000
0.106276 0.008132 0.000000
0.195806 0.008132 0.000000
0.365178 0.008132 0.000000
0.674698 0.008132 0.000000
1.218816 0.008132 0.000000
1.000000 0.008132 0.000000
1.000000 0.008132 0.000000
1.000000 0.008132 0.000000
1.000000 0.008132 0.000000
1.000000 0.008132 0.000000
1.000000 0.008132 0.000000
1.000000 0.008132 0.000000
1.000000 0.008132 0.000000
1.000000 0.008132 0.000000
1.000000 0.008132 0.000000
1.000000 0.008132 0.000000
1.000000 0.008132 0.000000
1.000000 0.008132 0.000000
0.000000 0.015700 0.000000
0.000000 0.015700 0.000000
0.000000 0.015700 0.000000
0.000008 0.015700 0.000000
0.000052 0.015700 0.000000
0.000162 0.015700 0.000000
0.000422 0.015700 0.000000
0.000961 0.015700 0.000000
0.002027 0.015700 0.000000
0.004115 0.015700 0.000000
0.008132 0.015700 0.000000
0.015700 0.015700 0.000000
0.029929 0.015700 0.000000
0.056264 0.015700 0.000000
0.106276 0.015700 0.000000
0.195806 0.015700 0.000000
0.365178 0.015700 0.000000
0.674698 0.015700 0.000000
1.218816 0.015700 0.000000
1.000000 0.015700 0.000000
1.000000 0.015700 0.000000
1.000000 0.015700 0.000000
1.000000 0.015700 0.000000
1.000000 0.015700 0.000000
1.000000 0.015700 0.000000
1.000000 0.015700 0.000000
1.000000 0.015700 0.000000
1.000000 0.015700 0.000000
1.000000 0.015700 0.000000
1.000000 0.015700 0.000000
1.000000 0.015700 0.000000
1.000000 0.015700 0.000000
0.000000 0.029929 0.000000
0.000000 0.029929 0.000000
0.000000 0.029929 0.000000
0.000008 0.029929 0.000000
0.000052 0.029929 0.000000
0.000162 0.029929 0.000000
0.000422 0.029929 0.000000
0.000961 0.029929 0.000000
0.002027 0.029929 0.000000
0.004115 0.029929 0.000000
0.008132 0.029929 0.000000
0.015700 0.029929 0.000000
0.029929 0.029929 0.000000
0.056264 0.029929 0.000000
0.106276 0.029929 0.000000
0.195806 0.029929 0.000000
0.365178 0.029929 0.000000
0.674698 0.029929 0.000000
1.218816 0.029929 0.000000
1.000000 0.029929 0.000000
1.000000 0.029929 0.000000
1.000000 0.029929 0.000000
1.000000 0.029929 0.000000
1.000000 0.029929 0.000000
1.000000 0.029929 0.000000
1.000000 0.029929 0.000000
1.000000 0.029929 0.000000
1.000000 0.029929 0.000000
1.000000 0.029929 0.000000
1.000000 0.029929 0.000000
1.000000 0.029929 0.000000
1.000000 0.029929 0.000000
0.000000 0.056264 0.000000
0.000000 0.056264 0.000000
0.000000 0.056264 0.000000
0.000008 0.056264 0.000000
0.000052 0.056264 0.000000
0.000162 0.056264 0.000000
0.000422 0.056264 0.000000
0.000961 0.056264 0.000000
0.002027 0.056264 0.000000
0.004115 0.056264 0.000000
0.008132 0.056264 0.000000
0.015700 0.056264 0.000000
0.029929 0.056264 0.000000
0.056264 0.056264 0.000000
0.106276 0.056264 0.000000
0.195806 0.056264 0.000000
0.365178 0.056264 0.000000
0.674698 0.056264 0.000000
1.218816 0.056264 0.000000
1.000000 0.056264 0.000000
1.000000 0.056264 0.000000
1.000000 0.056264 0.000000
1.000000 0.056264 0.000000
1.000000 0.056264 0.000000
1.000000 0.056264 0.000000
1.000000 0.056264 0.000000
1.000000 0.056264 0.000000
1.000000 0.056264 0.000000
1.000000 0.056264 0.000000
1.000000 0.056264 0.000000
1.000000 0.056264 0.000000
1.000000 0.056264 0.000000
0.000000 0.106276 0.000000
0.000000 0.106276 0.000000
0.000000 0.106276 0.000000
0.000008 0.106276 0.000000
0.000052 0.106276 0.000000
0.000162 0.106276 0.000000
0.000422 0.106276 0.000000
0.000961 0.106276 0.000000
0.002027 0.106276 0.000000
0.004115 0.106276 0.000000
0.008132 0.106276 0.000000
0.015700 0.106276 0.000000
0.029929 0.106276 0.000000
0.056264 0.106276 0.000000
0.106276 0.106276 0.000000
0.195806 0.106276 0.000000
0.365178 0.106276 0.000000
0.674698 0.106276 0.000000
1.218816 0.106276 0.000000
1.000000 0.106276 0.000000
1.000000 0.106276 0.000000
1.000000 0.106276 0.000000
1.000000 0.106276 0.000000
1.000000 0.106276 0.000000
1.000000 0.106276 0.000000
1.000000 0.106276 0.000000
1.000000 0.106276 0.000000
1.000000 0.106276 0.000000
1.000000 0.106276 0.000000
1.000000 0.106276 0.000000
1.000000 0.106276 0.000000
1.000000 0.106276 0.000000
0.000000 0.195806 0.000000
0.000000 0.195806 0.000000
0.000000 0.195806 0.000000
0.000008 0.195806 0.000000
0.000052 0.195806 0.000000
0.000162 0.195806 0.000000
0.000422 0.195806 0.000000
0.000961 0.195806 0.000000
0.002027 0.195806 0.000000
0.004115 0.195806 0.000000
0.008132 0.195806 0.000000
0.015700 0.195806 0.000000
0.029929 0.195806 0.000000
0.056264 0.195806 0.000000
0.106276 0.195806 0.000000
0.195806 0.195806 0.000000
0.365178 0.195806 0.000000
0.674698 0.195806 0.000000
1.218816 0.195806 0.000000
1.000000 0.195806 0.000000
1.000000 0.195806 0.000000
1.000000 0.195806 0.000000
1.000000 0.195806 0.000000
1.000000 0.195806 0.000000
1.000000 0.195806 0.000000
1.000000 0.195806 0.000000
1.000000 0.195806 0.000000
1.000000 0.195806 0.000000
1.000000 0.195806 0.000000
1.000000 0.195806 0.000000
1.000000 0.195806 0.000000
1.000000 0.195806 0.000000
0.000000 0.365178 0.000000
0.000000 0.365178 0.000000
0.000000 0.365178 0.000000
0.000008 0.365178 0.000000
0.000052 0.365178 0.000000
0.000162 0.365178 0.000000
0.000422 0.365178 0.000000
0.000961 0.365178 0.000000
0.002027 0.365178 0.000000
0.004115 0.365178 0.000000
0.008132 0.365178 0.000000
0.015700 0.365178 0.000000
0.029929 0.365178 0.000000
0.056264 0.365178 0.000000
0.106276 0.365178 0.000000
0.195806 0.365178 0.000000
0.365178 0.365178 0.000000
0.674698 0.365178 0.000000
1.218816 0.365178 0.000000
1.000000 0.365178 0.000000
1.000000 0.365178 0.000000
1.000000 0.365178 0.000000
1.000000 0.365178 0.000000
1.000000 0.365178 0.000000
1.000000 0.365178 0.000000
1.000000 0.365178 0.000000
1.000000 0.365178 0.000000
1.000000 0.365178 0.000000
1.000000 0.365178 0.000000
1.000000 0.365178 0.000000
1.000000 0.365178 0.000000
1.000000 0.365178 0.000000
0.000000 0.674698 0.000000
0.000000 0.674698 0.000000
0.000000 0.674698 0.000000
0.000008 0.674698 0.000000
0.000052 0.674698 0.000000
0.000162 0.674698 0.000000
0.000422 0.674698 0.000000
0.000961 0.674698 0.000000
0.002027 0.674698 0.000000
0.004115 0.674698 0.000000
0.008132 0.674698 0.000000
0.015700 0.674698 0.000000
0.029929 0.674698 0.000000
0.056264 0.674698 0.000000
0.106276 0.674698 0.000000
0.195806 0.674698 0.000000
0.365178 0.674698 0.000000
0.674698 0.674698 0.000000
1.218816 0.674698 0.000000
1.000000 0.674698 0.000000
1.000000 0.674698 0.000000
1.000000 0.674698 0.000000
1.000000 0.674698 0.000000
1.000000 0.674698 0.000000
1.000000 0.674698 0.000000
1.000000 0.674698 0.000000
1.000000 0.674698 0.000000
1.000000 0.674698 0.000000
1.000000 0.674698 0.000000
1.000000 0.674698 0.000000
1.000000 0.674698 0.000000
1.000000 0.674698 0.000000
0.000000 1.218816 0.000000
0.000000 1.218816 0.000000
0.000000 1.218816 0.000000
0.000008 1.218816 0.000000
0.000052 1.218816 0.000000
0.000162 1.218816 0.000000
0.000422 1.218816 0.000000
0.000961 1.218816 0.000000
0.002027 1.218816 0.000000
0.004115 1.218816 0.000000
0.008132 1.218816 0.000000
0.015700 1.218816 0.000000
0.029929 1.218816 0.000000
0.056264 1.218816 0.000000
0.106276 1.218816 0.000000
0.195806 1.218816 0.000000
0.365178 1.218816 0.000000
0.674698 1.218816 0.000000
1.218816 1.218816 0.000000
1.000000 1.218816 0.000000
1.000000 1.218816 0.000000
1.000000 1.218816 0.000000
1.000000 1.218816 0.000000
1.000000 1.218816 0.000000
1.000000 1.218816 0.000000
1.000000 1.218816 0.000000
1.000000 1.218816 0.000000
1.000000 1.218816 0.000000
1.000000 1.218816 0.000000
1.000000 1.218816 0.000000
1.000000 1.218816 0.000000
1.000000 1.218816 0.000000
0.000000 1.000000 0.000000
0.000000 1.000000 0.000000
0.000000 1.000000 0.000000
0.000008 1.000000 0.000000
0.000052 1.000000 0.000000
0.000162 1.000000 0.000000
0.000422 1.000000 0.000000
0.000961 1.000000 0.000000
0.002027 1.000000 0.000000
0.004115 1.000000 0.000000
0.008132 1.000000 0.000000
0.015700 1.000000 0.000000
0.029929 1.000000 0.000000
0.056264 1.000000 0.000000
0.106276 1.000000 0.000000
0.195806 1.000000 0.000000
0.365178 1.000000 0.000000
0.674698 1.000000 0.000000
1.218816 1.000000 0.000000
1.000000 1.000000 0.000000
1.000000 1.000000 0.000000
1.000000 1.000000 0.000000
1.000000 1.000000 0.000000
1.000000 1.000000 0.000000
1.000000 1.000000 0.000000
1.000000 1.000000 0.000000
1.000000 1.000000 0.000000
1.000000 1.000000 0.000000
1.000000 1.000000 0.000000
1.000000 1.000000 0.000000
1.000000 1.000000 0.000000
1.000000 1.000000 0.000000
0.000000 1.000000 0.000000
0.000000 1.000000 0.000000
0.000000 1.000000 0.000000
0.000008 1.000000 0.000000
0.000052 1.000000 0.000000
0.000162 1.000000 0.000000
0.000422 1.000000 0.000000
0.000961 1.000000 0.000000
0.002027 1.000000 0.000000
0.004115 1.000000 0.000000
0.008132 1.000000 0.000000
0.015700 1.000000 0.000000
0.029929 1.000000 0.000000
0.056264 1.000000 0.000000
0.106276 1.000000 0.000000
0.195806 1.000000 0.000000
0.365178 1.000000 0.000000
0.674698 1.000000 0.000000
1.218816 1.000000 0.000000
1.000000 1.000000 0.000000
1.000000 1.000000 0.000000
1.000000 1.000000 0.000000
1.000000 1.000000 0.000000
1.000000 1.000000 0.000000
1.000000 1.000000 0.000000
1.000000 1.000000 0.000000
1.000000 1.000000 0.000000
1.000000 1.000000 0.000000
1.000000 1.000000 0.000000
1.000000 1.000000 0.000000
1.000000 1.000000 0.000000
1.000000 1.000000 0.000000
0.000000 1.000000 0.000000
0.000000 1.000000 0.000000
0.000000 1.000000 0.000000
0.000008 1.000000 0.000000
0.000052 1.000000 0.000000
0.000162 1.000000 0.000000
0.000422 1.000000 0.000000
0.000961 1.000000 0.000000
0.002027 1.000000 0.000000
0.004115 1.000000 0.000000
0.008132 1.000000 0.000000
0.015700 1.000000 0.000000
0.029929 1.000000 0.000000
0.056264 1.000000 0.000000
0.106276 1.000000 0.000000
0.195806 1.000000 0.000000
0.365178 1.000000 0.000000
0.674698 1.000000 0.000000
1.218816 1.000000 0.000000
1.000000 1.000000 0.000000
1.000000 1.000000 0.000000
1.000000 1.000000 0.000000
1.000000 1.000000 0.000000
1.000000 1.000000 0.000000
1.000000 1.000000 0.000000
1.000000 1.000000 0.000000
1.000000 1.000000 0.000000
1.000000 1.000000 0.000000
1.000000 1.000000 0.000000
1.000000 1.000000 0.000000
1.000000 1.000000 0.000000
1.000000 1.000000 0.000000
0.000000 1.000000 0.000000
0.000000 1.000000 0.000000
0.000000 1.000000 0.000000
0.000008 1.000000 0.000000
0.000052 1.000000 0.000000
0.000162 1.000000 0.000000
0.000422 1.000000 0.000000
0.000961 1.000000 0.000000
0.002027 1.000000 0.000000
0.004115 1.000000 0.000000
0.008132 1.000000 0.000000
0.015700 1.000000 0.000000
0.029929 1.000000 0.000000
0.056264 1.000000 0.000000
0.106276 1.000000 0.000000
0.195806 1.000000 0.000000
0.365178 1.000000 0.000000
0.674698 1.000000 0.000000
1.218816 1.000000 0.000000
1.000000 1.000000 0.000000
1.000000 1.000000 0.000000
1.000000 1.000000 0.000000
1.000000 1.000000 0.000000
1.000000 1.000000 0.000000
1.000000 1.000000 0.000000
1.000000 1.000000 0.000000
1.000000 1.000000 0.000000
1.000000 1.000000 0.000000
1.000000 1.000000 0.000000
1.000000 1.000000 0.000000
1.000000 1.000000 0.000000
1.000000 1.000000 0.000000
0.000000 1.000000 0.000000
0.000000 1.000000 0.000000
0.000000 1.000000 0.000000
0.000008 1.000000 0.000000
0.000052 1.000000 0.000000
0.000162 1.000000 0.000000
0.000422 1.000000 0.000000
0.000961 1.000000 0.000000
0.002027 1.000000 0.000000
0.004115 1.000000 0.000000
0.008132 1.000000 0.000000
0.015700 1.000000 0.000000
0.029929 1.000000 0.000000
0.056264 1.000000 0.000000
0.106276 1.000000 0.000000
0.195806 1.000000 0.000000
0.365178 1.000000 0.000000
0.674698 1.000000 0.000000
1.218816 1.000000 0.000000
1.000000 1.000000 0.000000
1.000000 1.000000 0.000000
1.000000 1.000000 0.000000
1.000000 1.000000 0.000000
1.000000 1.000000 0.000000
1.000000 1.000000 0.000000
1.000000 1.000000 0.000000
1.000000 1.000000 0.000000
1.000000 1.000000 0.000000
1.000000 1.000000 0.000000
1.000000 1.000000 0.000000
1.000000 1.000000 0.000000
1.000000 1.000000 0.000000
0.000000 1.000000 0.000000
0.000000 1.000000 0.000000
0.000000 1.000000 0.000000
0.000008 1.000000 0.000000
0.000052 1.000000 0.000000
0.000162 1.000000 0.000000
0.000422 1.000000 0.000000
0.000961 1.000000 0.000000
0.002027 1.000000 0.000000
0.004115 1.000000 0.000000
0.008132 1.000000 0.000000
0.015700 1.000000 0.000000
0.029929 1.000000 0.000000
0.056264 1.000000 0.000000
0.106276 1.000000 0.000000
0.195806 1.000000 0.000000
0.365178 1.000000 0.000000
0.674698 1.000000 0.000000
1.218816 1.000000 0.000000
1.000000 1.000000 0.000000
1.000000 1.000000 0.000000
1.000000 1.000000 0.000000
1.000000 1.000000 0.000000
1.000000 1.000000 0.000000
1.000000 1.000000 0.000000
1.000000 1.000000 0.000000
1.000000 1.000000 0.000000
1.000000 1.000000 0.000000
1.000000 1.000000 0.000000
1.000000 1.000000 0.000000
1.000000 1.000000 0.000000
1.000000 1.000000 0.000000
0.000000 1.000000 0.000000
0.000000 1.000000 0.000000
0.000000 1.000000 0.000000
0.000008 1.000000 0.000000
0.000052 1.000000 0.000000
0.000162 1.000000 0.000000
0.000422 1.000000 0.000000
0.000961 1.000000 0.000000
0.002027 1.000000 0.000000
0.004115 1.000000 0.000000
0.008132 1.000000 0.000000
0.015700 1.000000 0.000000
0.029929 1.000000 0.000000
0.056264 1.000000 0.000000
0.106276 1.000000 0.000000
0.195806 1.000000 0.000000
0.365178 1.000000 0.000000
0.674698 1.000000 0.000000
1.218816 1.000000 0.000000
1.000000 1.000000 0.000000
1.000000 1.000000 0.000000
1.000000 1.000000 0.000000
1.000000 1.000000 0.000000
1.000000 1.000000 0.000000
1.000000 1.000000 0.000000
1.000000 1.000000 0.000000
1.000000 1.000000 0.000000
1.000000 1.000000 0.000000
1.000000 1.000000 0.000000
1.000000 1.000000 0.000000
1.000000 1.000000 0.000000
1.000000 1.000000 0.000000
0.000000 1.000000 0.000000
0.000000 1.000000 0.000000
0.000000 1.000000 0.000000
0.000008 1.000000 0.000000
0.000052 1.000000 0.000000
0.000162 1.000000 0.000000
0.000422 1.000000 0.000000
0.000961 1.000000 0.000000
0.002027 1.000000 0.000000
0.004115 1.000000 0.000000
0.008132 1.000000 0.000000
0.015700 1.000000 0.000000
0.029929 1.000000 0.000000
0.056264 1.000000 0.000000
0.106276 1.000000 0.000000
0.195806 1.000000 0.000000
0.365178 1.000000 0.000000
0.674698 1.000000 0.000000
1.218816 1.000000 0.000000
1.000000 1.000000 0.000000
1.000000 1.000000 0.000000
1.000000 1.000000 0.000000
1.000000 1.000000 0.000000
1.000000 1.000000 0.000000
1.000000 1.000000 0.000000
1.000000 1.000000 0.000000
1.000000 1.000000 0.000000
1.000000 1.000000 0.000000
1.000000 1.000000 0.000000
1.000000 1.000000 0.000000
1.000000 1.000000 0.000000
1.000000 1.000000 0.000000
0.000000 1.000000 0.000000
0.000000 1.000000 0.000000
0.000000 1.000000 0.000000
0.000008 1.000000 0.000000
0.000052 1.000000 0.000000
0.000162 1.000000 0.000000
0.000422 1.000000 0.000000
0.000961 1.000000 0.000000
0.002027 1.000000 0.000000
0.004115 1.000000 0.000000
0.008132 1.000000 0.000000
0.015700 1.000000 0.000000
0.029929 1.000000 0.000000
0.056264 1.000000 0.000000
0.106276 1.000000 0.000000
0.195806 1.000000 0.000000
0.365178 1.000000 0.000000
0.674698 1.000000 0.000000
1.218816 1.000000 0.000000
1.000000 1.000000 0.000000
1.000000 1.000000 0.000000
