python/4 - creating cube files/cube files/square_max1.cube
TITLE "cube/square_max1.cube"
LUT_3D_SIZE 5
DOMAIN_MIN 0.000000 0.000000 0.000000
DOMAIN_MAX 0.903226 0.903226 0.903226
0.000000 0.000000 0.000000
0.000961 0.000000 0.000000
0.106276 0.000000 0.000000
1.000000 0.000000 0.000000
1.000000 0.000000 0.000000
0.000000 0.000961 0.000000
0.000961 0.000961 0.000000
0.106276 0.000961 0.000000
1.000000 0.000961 0.000000
1.000000 0.000961 0.000000
0.000000 0.106276 0.000000
0.000961 0.106276 0.000000
0.106276 0.106276 0.000000
1.000000 0.106276 0.000000
1.000000 0.106276 0.000000
0.000000 1.000000 0.000000
0.000961 1.000000 0.000000
0.106276 1.000000 0.000000
1.000000 1.000000 0.000000
1.000000 1.000000 0.000000
0.000000 1.000000 0.000000
0.000961 1.000000 0.000000
0.106276 1.000000 0.000000
1.000000 1.000000 0.000000
1.000000 1.000000 0.000000
0.000000 0.000000 0.000961
0.000961 0.000000 0.000961
0.106276 0.000000 0.000961
1.000000 0.000000 0.000961
1.000000 0.000000 0.000961
0.000000 0.000961 0.000961
0.000961 0.000961 0.000961
0.106276 0.000961 0.000961
1.000000 0.000961 0.000961
1.000000 0.000961 0.000961
0.000000 0.106276 0.000961
0.000961 0.106276 0.000961
0.106276 0.106276 0.000961
1.000000 0.106276 0.000961
1.000000 0.106276 0.000961
0.000000 1.000000 0.000961
0.000961 1.000000 0.000961
0.106276 1.000000 0.000961
1.000000 1.000000 0.000961
1.000000 1.000000 0.000961
0.000000 1.000000 0.000961
0.000961 1.000000 0.000961
0.106276 1.000000 0.000961
1.000000 1.000000 0.000961
1.000000 1.000000 0.000961
0.000000 0.000000 0.106276
0.000961 0.000000 0.106276
0.106276 0.000000 0.106276
1.000000 0.000000 0.106276
1.000000 0.000000 0.106276
0.000000 0.000961 0.106276
0.000961 0.000961 0.106276
0.106276 0.000961 0.106276
1.000000 0.000961 0.106276
1.000000 0.000961 0.106276
0.000000 0.106276 0.106276
0.000961 0.106276 0.106276
0.106276 0.106276 0.106276
1.000000 0.106276 0.106276
1.000000 0.106276 0.106276
0.000000 1.000000 0.106276
0.000961 1.000000 0.106276
0.106276 1.000000 0.106276
1.000000 1.000000 0.106276
1.000000 1.000000 0.106276
0.000000 1.000000 0.106276
0.000961 1.000000 0.106276
0.106276 1.000000 0.106276
1.000000 1.000000 0.106276
1.000000 1.000000 0.106276
0.000000 0.000000 1.000000
0.000961 0.000000 1.000000
0.106276 0.000000 1.000000
1.000000 0.000000 1.000000
1.000000 0.000000 1.000000
0.000000 0.000961 1.000000
0.000961 0.000961 1.000000
0.106276 0.000961 1.000000
1.000000 0.000961 1.000000
1.000000 0.000961 1.000000
0.000000 0.106276 1.000000
0.000961 0.106276 1.000000
0.106276 0.106276 1.000000
1.000000 0.106276 1.000000
1.000000 0.106276 1.000000
0.000000 1.000000 1.000000
0.000961 1.000000 1.000000
0.106276 1.000000 1.000000
1.000000 1.000000 1.000000
1.000000 1.000000 1.000000
0.000000 1.000000 1.000000
0.000961 1.000000 1.000000
0.106276 1.000000 1.000000
1.000000 1.000000 1.000000
1.000000 1.000000 1.000000
0.000000 0.000000 1.000000
0.000961 0.000000 1.000000
0.106276 0.000000 1.000000
1.000000 0.000000 1.000000
1.000000 0.000000 1.000000
0.000000 0.000961 1.000000
0.000961 0.000961 1.000000
0.106276 0.000961 1.000000
1.000000 0.000961 1.000000
1.000000 0.000961 1.000000
0.000000 0.106276 1.000000
0.000961 0.106276 1.000000
0.106276 0.106276 1.000000
1.000000 0.106276 1.000000
1.000000 0.106276 1.000000
0.000000 1.000000 1.000000
0.000961 1.000000 1.000000
0.106276 1.000000 1.000000
1.000000 1.000000 1.000000
1.000000 1.000000 1.000000
0.000000 1.000000 1.000000
0.000961 1.000000 1.000000
0.106276 1.000000 1.000000
1.000000 1.000000 1.000000
1.000000 1.000000 1.000000
