python/4 - creating cube files/cube files/square_max1.cube
TITLE "cube/square_max1.cube"
LUT_3D_SIZE 8
DOMAIN_MIN 0.000000 0.000000 0.000000
DOMAIN_MAX 0.903226 0.903226 0.903226
0.000000 0.000000 0.000000
0.000052 0.000000 0.000000
0.002027 0.000000 0.000000
0.029929 0.000000 0.000000
0.365178 0.000000 0.000000
1.000000 0.000000 0.000000
1.000000 0.000000 0.000000
1.000000 0.000000 0.000000
0.000000 0.000052 0.000000
0.000052 0.000052 0.000000
0.002027 0.000052 0.000000
0.029929 0.000052 0.000000
0.365178 0.000052 0.000000
1.000000 0.000052 0.000000
1.000000 0.000052 0.000000
1.000000 0.000052 0.000000
0.000000 0.002027 0.000000
0.000052 0.002027 0.000000
0.002027 0.002027 0.000000
0.029929 0.002027 0.000000
0.365178 0.002027 0.000000
1.000000 0.002027 0.000000
1.000000 0.002027 0.000000
1.000000 0.002027 0.000000
0.000000 0.029929 0.000000
0.000052 0.029929 0.000000
0.002027 0.029929 0.000000
0.029929 0.029929 0.000000
0.365178 0.029929 0.000000
1.000000 0.029929 0.000000
1.000000 0.029929 0.000000
1.000000 0.029929 0.000000
0.000000 0.365178 0.000000
0.000052 0.365178 0.000000
0.002027 0.365178 0.000000
0.029929 0.365178 0.000000
0.365178 0.365178 0.000000
1.000000 0.365178 0.000000
1.000000 0.365178 0.000000
1.000000 0.365178 0.000000
0.000000 1.000000 0.000000
0.000052 1.000000 0.000000
0.002027 1.000000 0.000000
0.029929 1.000000 0.000000
0.365178 1.000000 0.000000
1.000000 1.000000 0.000000
1.000000 1.000000 0.000000
1.000000 1.000000 0.000000
0.000000 1.000000 0.000000
0.000052 1.000000 0.000000
0.002027 1.000000 0.000000
0.029929 1.000000 0.000000
0.365178 1.000000 0.000000
1.000000 1.000000 0.000000
1.000000 1.000000 0.000000
1.000000 1.000000 0.000000
0.000000 1.000000 0.000000
0.000052 1.000000 0.000000
0.002027 1.000000 0.000000
0.029929 1.000000 0.000000
0.365178 1.000000 0.000000
1.000000 1.000000 0.000000
1.000000 1.000000 0.000000
1.000000 1.000000 0.000000
0.000000 0.000000 0.000052
0.000052 0.000000 0.000052
0.002027 0.000000 0.000052
0.029929 0.000000 0.000052
0.365178 0.000000 0.000052
1.000000 0.000000 0.000052
1.000000 0.000000 0.000052
1.000000 0.000000 0.000052
0.000000 0.000052 0.000052
0.000052 0.000052 0.000052
0.002027 0.000052 0.000052
0.029929 0.000052 0.000052
0.365178 0.000052 0.000052
1.000000 0.000052 0.000052
1.000000 0.000052 0.000052
1.000000 0.000052 0.000052
0.000000 0.002027 0.000052
0.000052 0.002027 0.000052
0.002027 0.002027 0.000052
0.029929 0.002027 0.000052
0.365178 0.002027 0.000052
1.000000 0.002027 0.000052
1.000000 0.002027 0.000052
1.000000 0.002027 0.000052
0.000000 0.029929 0.000052
0.000052 0.029929 0.000052
0.002027 0.029929 0.000052
0.029929 0.029929 0.000052
0.365178 0.029929 0.000052
1.000000 0.029929 0.000052
1.000000 0.029929 0.000052
1.000000 0.029929 0.000052
0.000000 0.365178 0.000052
0.000052 0.365178 0.000052
0.002027 0.365178 0.000052
0.029929 0.365178 0.000052
0.365178 0.365178 0.000052
1.000000 0.365178 0.000052
1.000000 0.365178 0.000052
1.000000 0.365178 0.000052
0.000000 1.000000 0.000052
0.000052 1.000000 0.000052
0.002027 1.000000 0.000052
0.029929 1.000000 0.000052
0.365178 1.000000 0.000052
1.000000 1.000000 0.000052
1.000000 1.000000 0.000052
1.000000 1.000000 0.000052
0.000000 1.000000 0.000052
0.000052 1.000000 0.000052
0.002027 1.000000 0.000052
0.029929 1.000000 0.000052
0.365178 1.000000 0.000052
1.000000 1.000000 0.000052
1.000000 1.000000 0.000052
1.000000 1.000000 0.000052
0.000000 1.000000 0.000052
0.000052 1.000000 0.000052
0.002027 1.000000 0.000052
0.029929 1.000000 0.000052
0.365178 1.000000 0.000052
1.000000 1.000000 0.000052
1.000000 1.000000 0.000052
1.000000 1.000000 0.000052
0.000000 0.000000 0.002027
0.000052 0.000000 0.002027
0.002027 0.000000 0.002027
0.029929 0.000000 0.002027
0.365178 0.000000 0.002027
1.000000 0.000000 0.002027
1.000000 0.000000 0.002027
1.000000 0.000000 0.002027
0.000000 0.000052 0.002027
0.000052 0.000052 0.002027
0.002027 0.000052 0.002027
0.029929 0.000052 0.002027
0.365178 0.000052 0.002027
1.000000 0.000052 0.002027
1.000000 0.000052 0.002027
1.000000 0.000052 0.002027
0.000000 0.002027 0.002027
0.000052 0.002027 0.002027
0.002027 0.002027 0.002027
0.029929 0.002027 0.002027
0.365178 0.002027 0.002027
1.000000 0.002027 0.002027
1.000000 0.002027 0.002027
1.000000 0.002027 0.002027
0.000000 0.029929 0.002027
0.000052 0.029929 0.002027
0.002027 0.029929 0.002027
0.029929 0.029929 0.002027
0.365178 0.029929 0.002027
1.000000 0.029929 0.002027
1.000000 0.029929 0.002027
1.000000 0.029929 0.002027
0.000000 0.365178 0.002027
0.000052 0.365178 0.002027
0.002027 0.365178 0.002027
0.029929 0.365178 0.002027
0.365178 0.365178 0.002027
1.000000 0.365178 0.002027
1.000000 0.365178 0.002027
1.000000 0.365178 0.002027
0.000000 1.000000 0.002027
0.000052 1.000000 0.002027
0.002027 1.000000 0.002027
0.029929 1.000000 0.002027
0.365178 1.000000 0.002027
1.000000 1.000000 0.002027
1.000000 1.000000 0.002027
1.000000 1.000000 0.002027
0.000000 1.000000 0.002027
0.000052 1.000000 0.002027
0.002027 1.000000 0.002027
0.029929 1.000000 0.002027
0.365178 1.000000 0.002027
1.000000 1.000000 0.002027
1.000000 1.000000 0.002027
1.000000 1.000000 0.002027
0.000000 1.000000 0.002027
0.000052 1.000000 0.002027
0.002027 1.000000 0.002027
0.029929 1.000000 0.002027
0.365178 1.000000 0.002027
1.000000 1.000000 0.002027
1.000000 1.000000 0.002027
1.000000 1.000000 0.002027
0.000000 0.000000 0.029929
0.000052 0.000000 0.029929
0.002027 0.000000 0.029929
0.029929 0.000000 0.029929
0.365178 0.000000 0.029929
1.000000 0.000000 0.029929
1.000000 0.000000 0.029929
1.000000 0.000000 0.029929
0.000000 0.000052 0.029929
0.000052 0.000052 0.029929
0.002027 0.000052 0.029929
0.029929 0.000052 0.029929
0.365178 0.000052 0.029929
1.000000 0.000052 0.029929
1.000000 0.000052 0.029929
1.000000 0.000052 0.029929
0.000000 0.002027 0.029929
0.000052 0.002027 0.029929
0.002027 0.002027 0.029929
0.029929 0.002027 0.029929
0.365178 0.002027 0.029929
1.000000 0.002027 0.029929
1.000000 0.002027 0.029929
1.000000 0.002027 0.029929
0.000000 0.029929 0.029929
0.000052 0.029929 0.029929
0.002027 0.029929 0.029929
0.029929 0.029929 0.029929
0.365178 0.029929 0.029929
1.000000 0.029929 0.029929
1.000000 0.029929 0.029929
1.000000 0.029929 0.029929
0.000000 0.365178 0.029929
0.000052 0.365178 0.029929
0.002027 0.365178 0.029929
0.029929 0.365178 0.029929
0.365178 0.365178 0.029929
1.000000 0.365178 0.029929
1.000000 0.365178 0.029929
1.000000 0.365178 0.029929
0.000000 1.000000 0.029929
0.000052 1.000000 0.029929
0.002027 1.000000 0.029929
0.029929 1.000000 0.029929
0.365178 1.000000 0.029929
1.000000 1.000000 0.029929
1.000000 1.000000 0.029929
1.000000 1.000000 0.029929
0.000000 1.000000 0.029929
0.000052 1.000000 0.029929
0.002027 1.000000 0.029929
0.029929 1.000000 0.029929
0.365178 1.000000 0.029929
1.000000 1.000000 0.029929
1.000000 1.000000 0.029929
1.000000 1.000000 0.029929
0.000000 1.000000 0.029929
0.000052 1.000000 0.029929
0.002027 1.000000 0.029929
0.029929 1.000000 0.029929
0.365178 1.000000 0.029929
1.000000 1.000000 0.029929
1.000000 1.000000 0.029929
1.000000 1.000000 0.029929
0.000000 0.000000 0.365178
0.000052 0.000000 0.365178
0.002027 0.000000 0.365178
0.029929 0.000000 0.365178
0.365178 0.000000 0.365178
1.000000 0.000000 0.365178
1.000000 0.000000 0.365178
1.000000 0.000000 0.365178
0.000000 0.000052 0.365178
0.000052 0.000052 0.365178
0.002027 0.000052 0.365178
0.029929 0.000052 0.365178
0.365178 0.000052 0.365178
1.000000 0.000052 0.365178
1.000000 0.000052 0.365178
1.000000 0.000052 0.365178
0.000000 0.002027 0.365178
0.000052 0.002027 0.365178
0.002027 0.002027 0.365178
0.029929 0.002027 0.365178
0.365178 0.002027 0.365178
1.000000 0.002027 0.365178
1.000000 0.002027 0.365178
1.000000 0.002027 0.365178
0.000000 0.029929 0.365178
0.000052 0.029929 0.365178
0.002027 0.029929 0.365178
0.029929 0.029929 0.365178
0.365178 0.029929 0.365178
1.000000 0.029929 0.365178
1.000000 0.029929 0.365178
1.000000 0.029929 0.365178
0.000000 0.365178 0.365178
0.000052 0.365178 0.365178
0.002027 0.365178 0.365178
0.029929 0.365178 0.365178
0.365178 0.365178 0.365178
1.000000 0.365178 0.365178
1.000000 0.365178 0.365178
1.000000 0.365178 0.365178
0.000000 1.000000 0.365178
0.000052 1.000000 0.365178
0.002027 1.000000 0.365178
0.029929 1.000000 0.365178
0.365178 1.000000 0.365178
1.000000 1.000000 0.365178
1.000000 1.000000 0.365178
1.000000 1.000000 0.365178
0.000000 1.000000 0.365178
0.000052 1.000000 0.365178
0.002027 1.000000 0.365178
0.029929 1.000000 0.365178
0.365178 1.000000 0.365178
1.000000 1.000000 0.365178
1.000000 1.000000 0.365178
1.000000 1.000000 0.365178
0.000000 1.000000 0.365178
0.000052 1.000000 0.365178
0.002027 1.000000 0.365178
0.029929 1.000000 0.365178
0.365178 1.000000 0.365178
1.000000 1.000000 0.365178
1.000000 1.000000 0.365178
1.000000 1.000000 0.365178
0.000000 0.000000 1.000000
0.000052 0.000000 1.000000
0.002027 0.000000 1.000000
0.029929 0.000000 1.000000
0.365178 0.000000 1.000000
1.000000 0.000000 1.000000
1.000000 0.000000 1.000000
1.000000 0.000000 1.000000
0.000000 0.000052 1.000000
0.000052 0.000052 1.000000
0.002027 0.000052 1.000000
0.029929 0.000052 1.000000
0.365178 0.000052 1.000000
1.000000 0.000052 1.000000
1.000000 0.000052 1.000000
1.000000 0.000052 1.000000
0.000000 0.002027 1.000000
0.000052 0.002027 1.000000
0.002027 0.002027 1.000000
0.029929 0.002027 1.000000
0.365178 0.002027 1.000000
1.000000 0.002027 1.000000
1.000000 0.002027 1.000000
1.000000 0.002027 1.000000
0.000000 0.029929 1.000000
0.000052 0.029929 1.000000
0.002027 0.029929 1.000000
0.029929 0.029929 1.000000
0.365178 0.029929 1.000000
1.000000 0.029929 1.000000
1.000000 0.029929 1.000000
1.000000 0.029929 1.000000
0.000000 0.365178 1.000000
0.000052 0.365178 1.000000
0.002027 0.365178 1.000000
0.029929 0.365178 1.000000
0.365178 0.365178 1.000000
1.000000 0.365178 1.000000
1.000000 0.365178 1.000000
1.000000 0.365178 1.000000
0.000000 1.000000 1.000000
0.000052 1.000000 1.000000
0.002027 1.000000 1.000000
0.029929 1.000000 1.000000
0.365178 1.000000 1.000000
1.000000 1.000000 1.000000
1.000000 1.000000 1.000000
1.000000 1.000000 1.000000
0.000000 1.000000 1.000000
0.000052 1.000000 1.000000
0.002027 1.000000 1.000000
0.029929 1.000000 1.000000
0.365178 1.000000 1.000000
1.000000 1.000000 1.000000
1.000000 1.000000 1.000000
1.000000 1.000000 1.000000
0.000000 1.000000 1.000000
0.000052 1.000000 1.000000
0.002027 1.000000 1.000000
0.029929 1.000000 1.000000
0.365178 1.000000 1.000000
1.000000 1.000000 1.000000
1.000000 1.000000 1.000000
1.000000 1.000000 1.000000
0.000000 0.000000 1.000000
0.000052 0.000000 1.000000
0.002027 0.000000 1.000000
0.029929 0.000000 1.000000
0.365178 0.000000 1.000000
1.000000 0.000000 1.000000
1.000000 0.000000 1.000000
1.000000 0.000000 1.000000
0.000000 0.000052 1.000000
0.000052 0.000052 1.000000
0.002027 0.000052 1.000000
0.029929 0.000052 1.000000
0.365178 0.000052 1.000000
1.000000 0.000052 1.000000
1.000000 0.000052 1.000000
1.000000 0.000052 1.000000
0.000000 0.002027 1.000000
0.000052 0.002027 1.000000
0.002027 0.002027 1.000000
0.029929 0.002027 1.000000
0.365178 0.002027 1.000000
1.000000 0.002027 1.000000
1.000000 0.002027 1.000000
1.000000 0.002027 1.000000
0.000000 0.029929 1.000000
0.000052 0.029929 1.000000
0.002027 0.029929 1.000000
0.029929 0.029929 1.000000
0.365178 0.029929 1.000000
1.000000 0.029929 1.000000
1.000000 0.029929 1.000000
1.000000 0.029929 1.000000
0.000000 0.365178 1.000000
0.000052 0.365178 1.000000
0.002027 0.365178 1.000000
0.029929 0.365178 1.000000
0.365178 0.365178 1.000000
1.000000 0.365178 1.000000
1.000000 0.365178 1.000000
1.000000 0.365178 1.000000
0.000000 1.000000 1.000000
0.000052 1.000000 1.000000
0.002027 1.000000 1.000000
0.029929 1.000000 1.000000
0.365178 1.000000 1.000000
1.000000 1.000000 1.000000
1.000000 1.000000 1.000000
1.000000 1.000000 1.000000
0.000000 1.000000 1.000000
0.000052 1.000000 1.000000
0.002027 1.000000 1.000000
0.029929 1.000000 1.000000
0.365178 1.000000 1.000000
1.000000 1.000000 1.000000
1.000000 1.000000 1.000000
1.000000 1.000000 1.000000
0.000000 1.000000 1.000000
0.000052 1.000000 1.000000
0.002027 1.000000 1.000000
0.029929 1.000000 1.000000
0.365178 1.000000 1.000000
1.000000 1.000000 1.000000
1.000000 1.000000 1.000000
1.000000 1.000000 1.000000
0.000000 0.000000 1.000000
0.000052 0.000000 1.000000
0.002027 0.000000 1.000000
0.029929 0.000000 1.000000
0.365178 0.000000 1.000000
1.000000 0.000000 1.000000
1.000000 0.000000 1.000000
1.000000 0.000000 1.000000
0.000000 0.000052 1.000000
0.000052 0.000052 1.000000
0.002027 0.000052 1.000000
0.029929 0.000052 1.000000
0.365178 0.000052 1.000000
1.000000 0.000052 1.000000
1.000000 0.000052 1.000000
1.000000 0.000052 1.000000
0.000000 0.002027 1.000000
0.000052 0.002027 1.000000
0.002027 0.002027 1.000000
0.029929 0.002027 1.000000
0.365178 0.002027 1.000000
1.000000 0.002027 1.000000
1.000000 0.002027 1.000000
1.000000 0.002027 1.000000
0.000000 0.029929 1.000000
0.000052 0.029929 1.000000
0.002027 0.029929 1.000000
0.029929 0.029929 1.000000
0.365178 0.029929 1.000000
1.000000 0.029929 1.000000
1.000000 0.029929 1.000000
1.000000 0.029929 1.000000
0.000000 0.365178 1.000000
0.000052 0.365178 1.000000
0.002027 0.365178 1.000000
0.029929 0.365178 1.000000
0.365178 0.365178 1.000000
1.000000 0.365178 1.000000
1.000000 0.365178 1.000000
1.000000 0.365178 1.000000
0.000000 1.000000 1.000000
0.000052 1.000000 1.000000
0.002027 1.000000 1.000000
0.029929 1.000000 1.000000
0.365178 1.000000 1.000000
1.000000 1.000000 1.000000
1.000000 1.000000 1.000000
1.000000 1.000000 1.000000
0.000000 1.000000 1.000000
0.000052 1.000000 1.000000
0.002027 1.000000 1.000000
0.029929 1.000000 1.000000
0.365178 1.000000 1.000000
1.000000 1.000000 1.000000
1.000000 1.000000 1.000000
1.000000 1.000000 1.000000
0.000000 1.000000 1.000000
0.000052 1.000000 1.000000
0.002027 1.000000 1.000000
0.029929 1.000000 1.000000
0.365178 1.000000 1.000000
1.000000 1.000000 1.000000
1.000000 1.000000 1.000000
1.000000 1.000000 1.000000
