python/4 - create cube files/cube files/square_max58.cube
TITLE "cube/square_max58.cube"
LUT_3D_SIZE 5
DOMAIN_MIN 0.000000 0.000000 0.000000
DOMAIN_MAX 0.903226 0.903226 0.903226
0.000000 0.000000 0.000000
0.000000 0.000000 0.000000
0.000032 0.000000 0.000000
0.002258 0.000000 0.000000
0.160552 0.000000 0.000000
0.000000 0.000000 0.000000
0.000000 0.000000 0.000000
0.000032 0.000000 0.000000
0.002258 0.000000 0.000000
0.160552 0.000000 0.000000
0.000000 0.000032 0.000000
0.000000 0.000032 0.000000
0.000032 0.000032 0.000000
0.002258 0.000032 0.000000
0.160552 0.000032 0.000000
0.000000 0.002258 0.000000
0.000000 0.002258 0.000000
0.000032 0.002258 0.000000
0.002258 0.002258 0.000000
0.160552 0.002258 0.000000
0.000000 0.160552 0.000000
0.000000 0.160552 0.000000
0.000032 0.160552 0.000000
0.002258 0.160552 0.000000
0.160552 0.160552 0.000000
0.000000 0.000000 0.000000
0.000000 0.000000 0.000000
0.000032 0.000000 0.000000
0.002258 0.000000 0.000000
0.160552 0.000000 0.000000
0.000000 0.000000 0.000000
0.000000 0.000000 0.000000
0.000032 0.000000 0.000000
0.002258 0.000000 0.000000
0.160552 0.000000 0.000000
0.000000 0.000032 0.000000
0.000000 0.000032 0.000000
0.000032 0.000032 0.000000
0.002258 0.000032 0.000000
0.160552 0.000032 0.000000
0.000000 0.002258 0.000000
0.000000 0.002258 0.000000
0.000032 0.002258 0.000000
0.002258 0.002258 0.000000
0.160552 0.002258 0.000000
0.000000 0.160552 0.000000
0.000000 0.160552 0.000000
0.000032 0.160552 0.000000
0.002258 0.160552 0.000000
0.160552 0.160552 0.000000
0.000000 0.000000 0.000032
0.000000 0.000000 0.000032
0.000032 0.000000 0.000032
0.002258 0.000000 0.000032
0.160552 0.000000 0.000032
0.000000 0.000000 0.000032
0.000000 0.000000 0.000032
0.000032 0.000000 0.000032
0.002258 0.000000 0.000032
0.160552 0.000000 0.000032
0.000000 0.000032 0.000032
0.000000 0.000032 0.000032
0.000032 0.000032 0.000032
0.002258 0.000032 0.000032
0.160552 0.000032 0.000032
0.000000 0.002258 0.000032
0.000000 0.002258 0.000032
0.000032 0.002258 0.000032
0.002258 0.002258 0.000032
0.160552 0.002258 0.000032
0.000000 0.160552 0.000032
0.000000 0.160552 0.000032
0.000032 0.160552 0.000032
0.002258 0.160552 0.000032
0.160552 0.160552 0.000032
0.000000 0.000000 0.002258
0.000000 0.000000 0.002258
0.000032 0.000000 0.002258
0.002258 0.000000 0.002258
0.160552 0.000000 0.002258
0.000000 0.000000 0.002258
0.000000 0.000000 0.002258
0.000032 0.000000 0.002258
0.002258 0.000000 0.002258
0.160552 0.000000 0.002258
0.000000 0.000032 0.002258
0.000000 0.000032 0.002258
0.000032 0.000032 0.002258
0.002258 0.000032 0.002258
0.160552 0.000032 0.002258
0.000000 0.002258 0.002258
0.000000 0.002258 0.002258
0.000032 0.002258 0.002258
0.002258 0.002258 0.002258
0.160552 0.002258 0.002258
0.000000 0.160552 0.002258
0.000000 0.160552 0.002258
0.000032 0.160552 0.002258
0.002258 0.160552 0.002258
0.160552 0.160552 0.002258
0.000000 0.000000 0.160552
0.000000 0.000000 0.160552
0.000032 0.000000 0.160552
0.002258 0.000000 0.160552
0.160552 0.000000 0.160552
0.000000 0.000000 0.160552
0.000000 0.000000 0.160552
0.000032 0.000000 0.160552
0.002258 0.000000 0.160552
0.160552 0.000000 0.160552
0.000000 0.000032 0.160552
0.000000 0.000032 0.160552
0.000032 0.000032 0.160552
0.002258 0.000032 0.160552
0.160552 0.000032 0.160552
0.000000 0.002258 0.160552
0.000000 0.002258 0.160552
0.000032 0.002258 0.160552
0.002258 0.002258 0.160552
0.160552 0.002258 0.160552
0.000000 0.160552 0.160552
0.000000 0.160552 0.160552
0.000032 0.160552 0.160552
0.002258 0.160552 0.160552
0.160552 0.160552 0.160552
