python/4 - create cube files/cube files/square_max58.cube
TITLE "cube/square_max58.cube"
LUT_3D_SIZE 32
DOMAIN_MIN 0.0 0.0 0.0
DOMAIN_MAX 1.0 1.0 1.0
0.000000 0.000000 0.000000
0.000000 0.000000 0.000000
0.000000 0.000000 0.000000
0.000000 0.000000 0.000000
0.000000 0.000000 0.000000
0.000000 0.000000 0.000000
0.000000 0.000000 0.000000
0.000000 0.000000 0.000000
0.000001 0.000000 0.000000
0.000001 0.000000 0.000000
0.000002 0.000000 0.000000
0.000005 0.000000 0.000000
0.000009 0.000000 0.000000
0.000017 0.000000 0.000000
0.000032 0.000000 0.000000
0.000058 0.000000 0.000000
0.000109 0.000000 0.000000
0.000201 0.000000 0.000000
0.000362 0.000000 0.000000
0.000664 0.000000 0.000000
0.001227 0.000000 0.000000
0.002258 0.000000 0.000000
0.004154 0.000000 0.000000
0.007680 0.000000 0.000000
0.014005 0.000000 0.000000
0.025971 0.000000 0.000000
0.047344 0.000000 0.000000
0.087739 0.000000 0.000000
0.160552 0.000000 0.000000
0.294587 0.000000 0.000000
0.543271 0.000000 0.000000
0.988310 0.000000 0.000000
0.000000 0.000000 0.000000
0.000000 0.000000 0.000000
0.000000 0.000000 0.000000
0.000000 0.000000 0.000000
0.000000 0.000000 0.000000
0.000000 0.000000 0.000000
0.000000 0.000000 0.000000
0.000000 0.000000 0.000000
0.000001 0.000000 0.000000
0.000001 0.000000 0.000000
0.000002 0.000000 0.000000
0.000005 0.000000 0.000000
0.000009 0.000000 0.000000
0.000017 0.000000 0.000000
0.000032 0.000000 0.000000
0.000058 0.000000 0.000000
0.000109 0.000000 0.000000
0.000201 0.000000 0.000000
0.000362 0.000000 0.000000
0.000664 0.000000 0.000000
0.001227 0.000000 0.000000
0.002258 0.000000 0.000000
0.004154 0.000000 0.000000
0.007680 0.000000 0.000000
0.014005 0.000000 0.000000
0.025971 0.000000 0.000000
0.047344 0.000000 0.000000
0.087739 0.000000 0.000000
0.160552 0.000000 0.000000
0.294587 0.000000 0.000000
0.543271 0.000000 0.000000
0.988310 0.000000 0.000000
0.000000 0.000000 0.000000
0.000000 0.000000 0.000000
0.000000 0.000000 0.000000
0.000000 0.000000 0.000000
0.000000 0.000000 0.000000
0.000000 0.000000 0.000000
0.000000 0.000000 0.000000
0.000000 0.000000 0.000000
0.000001 0.000000 0.000000
0.000001 0.000000 0.000000
0.000002 0.000000 0.000000
0.000005 0.000000 0.000000
0.000009 0.000000 0.000000
0.000017 0.000000 0.000000
0.000032 0.000000 0.000000
0.000058 0.000000 0.000000
0.000109 0.000000 0.000000
0.000201 0.000000 0.000000
0.000362 0.000000 0.000000
0.000664 0.000000 0.000000
0.001227 0.000000 0.000000
0.002258 0.000000 0.000000
0.004154 0.000000 0.000000
0.007680 0.000000 0.000000
0.014005 0.000000 0.000000
0.025971 0.000000 0.000000
0.047344 0.000000 0.000000
0.087739 0.000000 0.000000
0.160552 0.000000 0.000000
0.294587 0.000000 0.000000
0.543271 0.000000 0.000000
0.988310 0.000000 0.000000
0.000000 0.000000 0.000000
0.000000 0.000000 0.000000
0.000000 0.000000 0.000000
0.000000 0.000000 0.000000
0.000000 0.000000 0.000000
0.000000 0.000000 0.000000
0.000000 0.000000 0.000000
0.000000 0.000000 0.000000
0.000001 0.000000 0.000000
0.000001 0.000000 0.000000
0.000002 0.000000 0.000000
0.000005 0.000000 0.000000
0.000009 0.000000 0.000000
0.000017 0.000000 0.000000
0.000032 0.000000 0.000000
0.000058 0.000000 0.000000
0.000109 0.000000 0.000000
0.000201 0.000000 0.000000
0.000362 0.000000 0.000000
0.000664 0.000000 0.000000
0.001227 0.000000 0.000000
0.002258 0.000000 0.000000
0.004154 0.000000 0.000000
0.007680 0.000000 0.000000
0.014005 0.000000 0.000000
0.025971 0.000000 0.000000
0.047344 0.000000 0.000000
0.087739 0.000000 0.000000
0.160552 0.000000 0.000000
0.294587 0.000000 0.000000
0.543271 0.000000 0.000000
0.988310 0.000000 0.000000
0.000000 0.000000 0.000000
0.000000 0.000000 0.000000
0.000000 0.000000 0.000000
0.000000 0.000000 0.000000
0.000000 0.000000 0.000000
0.000000 0.000000 0.000000
0.000000 0.000000 0.000000
0.000000 0.000000 0.000000
0.000001 0.000000 0.000000
0.000001 0.000000 0.000000
0.000002 0.000000 0.000000
0.000005 0.000000 0.000000
0.000009 0.000000 0.000000
0.000017 0.000000 0.000000
0.000032 0.000000 0.000000
0.000058 0.000000 0.000000
0.000109 0.000000 0.000000
0.000201 0.000000 0.000000
0.000362 0.000000 0.000000
0.000664 0.000000 0.000000
0.001227 0.000000 0.000000
0.002258 0.000000 0.000000
0.004154 0.000000 0.000000
0.007680 0.000000 0.000000
0.014005 0.000000 0.000000
0.025971 0.000000 0.000000
0.047344 0.000000 0.000000
0.087739 0.000000 0.000000
0.160552 0.000000 0.000000
0.294587 0.000000 0.000000
0.543271 0.000000 0.000000
0.988310 0.000000 0.000000
0.000000 0.000000 0.000000
0.000000 0.000000 0.000000
0.000000 0.000000 0.000000
0.000000 0.000000 0.000000
0.000000 0.000000 0.000000
0.000000 0.000000 0.000000
0.000000 0.000000 0.000000
0.000000 0.000000 0.000000
0.000001 0.000000 0.000000
0.000001 0.000000 0.000000
0.000002 0.000000 0.000000
0.000005 0.000000 0.000000
0.000009 0.000000 0.000000
0.000017 0.000000 0.000000
0.000032 0.000000 0.000000
0.000058 0.000000 0.000000
0.000109 0.000000 0.000000
0.000201 0.000000 0.000000
0.000362 0.000000 0.000000
0.000664 0.000000 0.000000
0.001227 0.000000 0.000000
0.002258 0.000000 0.000000
0.004154 0.000000 0.000000
0.007680 0.000000 0.000000
0.014005 0.000000 0.000000
0.025971 0.000000 0.000000
0.047344 0.000000 0.000000
0.087739 0.000000 0.000000
0.160552 0.000000 0.000000
0.294587 0.000000 0.000000
0.543271 0.000000 0.000000
0.988310 0.000000 0.000000
0.000000 0.000000 0.000000
0.000000 0.000000 0.000000
0.000000 0.000000 0.000000
0.000000 0.000000 0.000000
0.000000 0.000000 0.000000
0.000000 0.000000 0.000000
0.000000 0.000000 0.000000
0.000000 0.000000 0.000000
0.000001 0.000000 0.000000
0.000001 0.000000 0.000000
0.000002 0.000000 0.000000
0.000005 0.000000 0.000000
0.000009 0.000000 0.000000
0.000017 0.000000 0.000000
0.000032 0.000000 0.000000
0.000058 0.000000 0.000000
0.000109 0.000000 0.000000
0.000201 0.000000 0.000000
0.000362 0.000000 0.000000
0.000664 0.000000 0.000000
0.001227 0.000000 0.000000
0.002258 0.000000 0.000000
0.004154 0.000000 0.000000
0.007680 0.000000 0.000000
0.014005 0.000000 0.000000
0.025971 0.000000 0.000000
0.047344 0.000000 0.000000
0.087739 0.000000 0.000000
0.160552 0.000000 0.000000
0.294587 0.000000 0.000000
0.543271 0.000000 0.000000
0.988310 0.000000 0.000000
0.000000 0.000000 0.000000
0.000000 0.000000 0.000000
0.000000 0.000000 0.000000
0.000000 0.000000 0.000000
0.000000 0.000000 0.000000
0.000000 0.000000 0.000000
0.000000 0.000000 0.000000
0.000000 0.000000 0.000000
0.000001 0.000000 0.000000
0.000001 0.000000 0.000000
0.000002 0.000000 0.000000
0.000005 0.000000 0.000000
0.000009 0.000000 0.000000
0.000017 0.000000 0.000000
0.000032 0.000000 0.000000
0.000058 0.000000 0.000000
0.000109 0.000000 0.000000
0.000201 0.000000 0.000000
0.000362 0.000000 0.000000
0.000664 0.000000 0.000000
0.001227 0.000000 0.000000
0.002258 0.000000 0.000000
0.004154 0.000000 0.000000
0.007680 0.000000 0.000000
0.014005 0.000000 0.000000
0.025971 0.000000 0.000000
0.047344 0.000000 0.000000
0.087739 0.000000 0.000000
0.160552 0.000000 0.000000
0.294587 0.000000 0.000000
0.543271 0.000000 0.000000
0.988310 0.000000 0.000000
0.000000 0.000001 0.000000
0.000000 0.000001 0.000000
0.000000 0.000001 0.000000
0.000000 0.000001 0.000000
0.000000 0.000001 0.000000
0.000000 0.000001 0.000000
0.000000 0.000001 0.000000
0.000000 0.000001 0.000000
0.000001 0.000001 0.000000
0.000001 0.000001 0.000000
0.000002 0.000001 0.000000
0.000005 0.000001 0.000000
0.000009 0.000001 0.000000
0.000017 0.000001 0.000000
0.000032 0.000001 0.000000
0.000058 0.000001 0.000000
0.000109 0.000001 0.000000
0.000201 0.000001 0.000000
0.000362 0.000001 0.000000
0.000664 0.000001 0.000000
0.001227 0.000001 0.000000
0.002258 0.000001 0.000000
0.004154 0.000001 0.000000
0.007680 0.000001 0.000000
0.014005 0.000001 0.000000
0.025971 0.000001 0.000000
0.047344 0.000001 0.000000
0.087739 0.000001 0.000000
0.160552 0.000001 0.000000
0.294587 0.000001 0.000000
0.543271 0.000001 0.000000
0.988310 0.000001 0.000000
0.000000 0.000001 0.000000
0.000000 0.000001 0.000000
0.000000 0.000001 0.000000
0.000000 0.000001 0.000000
0.000000 0.000001 0.000000
0.000000 0.000001 0.000000
0.000000 0.000001 0.000000
0.000000 0.000001 0.000000
0.000001 0.000001 0.000000
0.000001 0.000001 0.000000
0.000002 0.000001 0.000000
0.000005 0.000001 0.000000
0.000009 0.000001 0.000000
0.000017 0.000001 0.000000
0.000032 0.000001 0.000000
0.000058 0.000001 0.000000
0.000109 0.000001 0.000000
0.000201 0.000001 0.000000
0.000362 0.000001 0.000000
0.000664 0.000001 0.000000
0.001227 0.000001 0.000000
0.002258 0.000001 0.000000
0.004154 0.000001 0.000000
0.007680 0.000001 0.000000
0.014005 0.000001 0.000000
0.025971 0.000001 0.000000
0.047344 0.000001 0.000000
0.087739 0.000001 0.000000
0.160552 0.000001 0.000000
0.294587 0.000001 0.000000
0.543271 0.000001 0.000000
0.988310 0.000001 0.000000
0.000000 0.000002 0.000000
0.000000 0.000002 0.000000
0.000000 0.000002 0.000000
0.000000 0.000002 0.000000
0.000000 0.000002 0.000000
0.000000 0.000002 0.000000
0.000000 0.000002 0.000000
0.000000 0.000002 0.000000
0.000001 0.000002 0.000000
0.000001 0.000002 0.000000
0.000002 0.000002 0.000000
0.000005 0.000002 0.000000
0.000009 0.000002 0.000000
0.000017 0.000002 0.000000
0.000032 0.000002 0.000000
0.000058 0.000002 0.000000
0.000109 0.000002 0.000000
0.000201 0.000002 0.000000
0.000362 0.000002 0.000000
0.000664 0.000002 0.000000
0.001227 0.000002 0.000000
0.002258 0.000002 0.000000
0.004154 0.000002 0.000000
0.007680 0.000002 0.000000
0.014005 0.000002 0.000000
0.025971 0.000002 0.000000
0.047344 0.000002 0.000000
0.087739 0.000002 0.000000
0.160552 0.000002 0.000000
0.294587 0.000002 0.000000
0.543271 0.000002 0.000000
0.988310 0.000002 0.000000
0.000000 0.000005 0.000000
0.000000 0.000005 0.000000
0.000000 0.000005 0.000000
0.000000 0.000005 0.000000
0.000000 0.000005 0.000000
0.000000 0.000005 0.000000
0.000000 0.000005 0.000000
0.000000 0.000005 0.000000
0.000001 0.000005 0.000000
0.000001 0.000005 0.000000
0.000002 0.000005 0.000000
0.000005 0.000005 0.000000
0.000009 0.000005 0.000000
0.000017 0.000005 0.000000
0.000032 0.000005 0.000000
0.000058 0.000005 0.000000
0.000109 0.000005 0.000000
0.000201 0.000005 0.000000
0.000362 0.000005 0.000000
0.000664 0.000005 0.000000
0.001227 0.000005 0.000000
0.002258 0.000005 0.000000
0.004154 0.000005 0.000000
0.007680 0.000005 0.000000
0.014005 0.000005 0.000000
0.025971 0.000005 0.000000
0.047344 0.000005 0.000000
0.087739 0.000005 0.000000
0.160552 0.000005 0.000000
0.294587 0.000005 0.000000
0.543271 0.000005 0.000000
0.988310 0.000005 0.000000
0.000000 0.000009 0.000000
0.000000 0.000009 0.000000
0.000000 0.000009 0.000000
0.000000 0.000009 0.000000
0.000000 0.000009 0.000000
0.000000 0.000009 0.000000
0.000000 0.000009 0.000000
0.000000 0.000009 0.000000
0.000001 0.000009 0.000000
0.000001 0.000009 0.000000
0.000002 0.000009 0.000000
0.000005 0.000009 0.000000
0.000009 0.000009 0.000000
0.000017 0.000009 0.000000
0.000032 0.000009 0.000000
0.000058 0.000009 0.000000
0.000109 0.000009 0.000000
0.000201 0.000009 0.000000
0.000362 0.000009 0.000000
0.000664 0.000009 0.000000
0.001227 0.000009 0.000000
0.002258 0.000009 0.000000
0.004154 0.000009 0.000000
0.007680 0.000009 0.000000
0.014005 0.000009 0.000000
0.025971 0.000009 0.000000
0.047344 0.000009 0.000000
0.087739 0.000009 0.000000
0.160552 0.000009 0.000000
0.294587 0.000009 0.000000
0.543271 0.000009 0.000000
0.988310 0.000009 0.000000
0.000000 0.000017 0.000000
0.000000 0.000017 0.000000
0.000000 0.000017 0.000000
0.000000 0.000017 0.000000
0.000000 0.000017 0.000000
0.000000 0.000017 0.000000
0.000000 0.000017 0.000000
0.000000 0.000017 0.000000
0.000001 0.000017 0.000000
0.000001 0.000017 0.000000
0.000002 0.000017 0.000000
0.000005 0.000017 0.000000
0.000009 0.000017 0.000000
0.000017 0.000017 0.000000
0.000032 0.000017 0.000000
0.000058 0.000017 0.000000
0.000109 0.000017 0.000000
0.000201 0.000017 0.000000
0.000362 0.000017 0.000000
0.000664 0.000017 0.000000
0.001227 0.000017 0.000000
0.002258 0.000017 0.000000
0.004154 0.000017 0.000000
0.007680 0.000017 0.000000
0.014005 0.000017 0.000000
0.025971 0.000017 0.000000
0.047344 0.000017 0.000000
0.087739 0.000017 0.000000
0.160552 0.000017 0.000000
0.294587 0.000017 0.000000
0.543271 0.000017 0.000000
0.988310 0.000017 0.000000
0.000000 0.000032 0.000000
0.000000 0.000032 0.000000
0.000000 0.000032 0.000000
0.000000 0.000032 0.000000
0.000000 0.000032 0.000000
0.000000 0.000032 0.000000
0.000000 0.000032 0.000000
0.000000 0.000032 0.000000
0.000001 0.000032 0.000000
0.000001 0.000032 0.000000
0.000002 0.000032 0.000000
0.000005 0.000032 0.000000
0.000009 0.000032 0.000000
0.000017 0.000032 0.000000
0.000032 0.000032 0.000000
0.000058 0.000032 0.000000
0.000109 0.000032 0.000000
0.000201 0.000032 0.000000
0.000362 0.000032 0.000000
0.000664 0.000032 0.000000
0.001227 0.000032 0.000000
0.002258 0.000032 0.000000
0.004154 0.000032 0.000000
0.007680 0.000032 0.000000
0.014005 0.000032 0.000000
0.025971 0.000032 0.000000
0.047344 0.000032 0.000000
0.087739 0.000032 0.000000
0.160552 0.000032 0.000000
0.294587 0.000032 0.000000
0.543271 0.000032 0.000000
0.988310 0.000032 0.000000
0.000000 0.000058 0.000000
0.000000 0.000058 0.000000
0.000000 0.000058 0.000000
0.000000 0.000058 0.000000
0.000000 0.000058 0.000000
0.000000 0.000058 0.000000
0.000000 0.000058 0.000000
0.000000 0.000058 0.000000
0.000001 0.000058 0.000000
0.000001 0.000058 0.000000
0.000002 0.000058 0.000000
0.000005 0.000058 0.000000
0.000009 0.000058 0.000000
0.000017 0.000058 0.000000
0.000032 0.000058 0.000000
0.000058 0.000058 0.000000
0.000109 0.000058 0.000000
0.000201 0.000058 0.000000
0.000362 0.000058 0.000000
0.000664 0.000058 0.000000
0.001227 0.000058 0.000000
0.002258 0.000058 0.000000
0.004154 0.000058 0.000000
0.007680 0.000058 0.000000
0.014005 0.000058 0.000000
0.025971 0.000058 0.000000
0.047344 0.000058 0.000000
0.087739 0.000058 0.000000
0.160552 0.000058 0.000000
0.294587 0.000058 0.000000
0.543271 0.000058 0.000000
0.988310 0.000058 0.000000
0.000000 0.000109 0.000000
0.000000 0.000109 0.000000
0.000000 0.000109 0.000000
0.000000 0.000109 0.000000
0.000000 0.000109 0.000000
0.000000 0.000109 0.000000
0.000000 0.000109 0.000000
0.000000 0.000109 0.000000
0.000001 0.000109 0.000000
0.000001 0.000109 0.000000
0.000002 0.000109 0.000000
0.000005 0.000109 0.000000
0.000009 0.000109 0.000000
0.000017 0.000109 0.000000
0.000032 0.000109 0.000000
0.000058 0.000109 0.000000
0.000109 0.000109 0.000000
0.000201 0.000109 0.000000
0.000362 0.000109 0.000000
0.000664 0.000109 0.000000
0.001227 0.000109 0.000000
0.002258 0.000109 0.000000
0.004154 0.000109 0.000000
0.007680 0.000109 0.000000
0.014005 0.000109 0.000000
0.025971 0.000109 0.000000
0.047344 0.000109 0.000000
0.087739 0.000109 0.000000
0.160552 0.000109 0.000000
0.294587 0.000109 0.000000
0.543271 0.000109 0.000000
0.988310 0.000109 0.000000
0.000000 0.000201 0.000000
0.000000 0.000201 0.000000
0.000000 0.000201 0.000000
0.000000 0.000201 0.000000
0.000000 0.000201 0.000000
0.000000 0.000201 0.000000
0.000000 0.000201 0.000000
0.000000 0.000201 0.000000
0.000001 0.000201 0.000000
0.000001 0.000201 0.000000
0.000002 0.000201 0.000000
0.000005 0.000201 0.000000
0.000009 0.000201 0.000000
0.000017 0.000201 0.000000
0.000032 0.000201 0.000000
0.000058 0.000201 0.000000
0.000109 0.000201 0.000000
0.000201 0.000201 0.000000
0.000362 0.000201 0.000000
0.000664 0.000201 0.000000
0.001227 0.000201 0.000000
0.002258 0.000201 0.000000
0.004154 0.000201 0.000000
0.007680 0.000201 0.000000
0.014005 0.000201 0.000000
0.025971 0.000201 0.000000
0.047344 0.000201 0.000000
0.087739 0.000201 0.000000
0.160552 0.000201 0.000000
0.294587 0.000201 0.000000
0.543271 0.000201 0.000000
0.988310 0.000201 0.000000
0.000000 0.000362 0.000000
0.000000 0.000362 0.000000
0.000000 0.000362 0.000000
0.000000 0.000362 0.000000
0.000000 0.000362 0.000000
0.000000 0.000362 0.000000
0.000000 0.000362 0.000000
0.000000 0.000362 0.000000
0.000001 0.000362 0.000000
0.000001 0.000362 0.000000
0.000002 0.000362 0.000000
0.000005 0.000362 0.000000
0.000009 0.000362 0.000000
0.000017 0.000362 0.000000
0.000032 0.000362 0.000000
0.000058 0.000362 0.000000
0.000109 0.000362 0.000000
0.000201 0.000362 0.000000
0.000362 0.000362 0.000000
0.000664 0.000362 0.000000
0.001227 0.000362 0.000000
0.002258 0.000362 0.000000
0.004154 0.000362 0.000000
0.007680 0.000362 0.000000
0.014005 0.000362 0.000000
0.025971 0.000362 0.000000
0.047344 0.000362 0.000000
0.087739 0.000362 0.000000
0.160552 0.000362 0.000000
0.294587 0.000362 0.000000
0.543271 0.000362 0.000000
0.988310 0.000362 0.000000
0.000000 0.000664 0.000000
0.000000 0.000664 0.000000
0.000000 0.000664 0.000000
0.000000 0.000664 0.000000
0.000000 0.000664 0.000000
0.000000 0.000664 0.000000
0.000000 0.000664 0.000000
0.000000 0.000664 0.000000
0.000001 0.000664 0.000000
0.000001 0.000664 0.000000
0.000002 0.000664 0.000000
0.000005 0.000664 0.000000
0.000009 0.000664 0.000000
0.000017 0.000664 0.000000
0.000032 0.000664 0.000000
0.000058 0.000664 0.000000
0.000109 0.000664 0.000000
0.000201 0.000664 0.000000
0.000362 0.000664 0.000000
0.000664 0.000664 0.000000
0.001227 0.000664 0.000000
0.002258 0.000664 0.000000
0.004154 0.000664 0.000000
0.007680 0.000664 0.000000
0.014005 0.000664 0.000000
0.025971 0.000664 0.000000
0.047344 0.000664 0.000000
0.087739 0.000664 0.000000
0.160552 0.000664 0.000000
0.294587 0.000664 0.000000
0.543271 0.000664 0.000000
0.988310 0.000664 0.000000
0.000000 0.001227 0.000000
0.000000 0.001227 0.000000
0.000000 0.001227 0.000000
0.000000 0.001227 0.000000
0.000000 0.001227 0.000000
0.000000 0.001227 0.000000
0.000000 0.001227 0.000000
0.000000 0.001227 0.000000
0.000001 0.001227 0.000000
0.000001 0.001227 0.000000
0.000002 0.001227 0.000000
0.000005 0.001227 0.000000
0.000009 0.001227 0.000000
0.000017 0.001227 0.000000
0.000032 0.001227 0.000000
0.000058 0.001227 0.000000
0.000109 0.001227 0.000000
0.000201 0.001227 0.000000
0.000362 0.001227 0.000000
0.000664 0.001227 0.000000
0.001227 0.001227 0.000000
0.002258 0.001227 0.000000
0.004154 0.001227 0.000000
0.007680 0.001227 0.000000
0.014005 0.001227 0.000000
0.025971 0.001227 0.000000
0.047344 0.001227 0.000000
0.087739 0.001227 0.000000
0.160552 0.001227 0.000000
0.294587 0.001227 0.000000
0.543271 0.001227 0.000000
0.988310 0.001227 0.000000
0.000000 0.002258 0.000000
0.000000 0.002258 0.000000
0.000000 0.002258 0.000000
0.000000 0.002258 0.000000
0.000000 0.002258 0.000000
0.000000 0.002258 0.000000
0.000000 0.002258 0.000000
0.000000 0.002258 0.000000
0.000001 0.002258 0.000000
0.000001 0.002258 0.000000
0.000002 0.002258 0.000000
0.000005 0.002258 0.000000
0.000009 0.002258 0.000000
0.000017 0.002258 0.000000
0.000032 0.002258 0.000000
0.000058 0.002258 0.000000
0.000109 0.002258 0.000000
0.000201 0.002258 0.000000
0.000362 0.002258 0.000000
0.000664 0.002258 0.000000
0.001227 0.002258 0.000000
0.002258 0.002258 0.000000
0.004154 0.002258 0.000000
0.007680 0.002258 0.000000
0.014005 0.002258 0.000000
0.025971 0.002258 0.000000
0.047344 0.002258 0.000000
0.087739 0.002258 0.000000
0.160552 0.002258 0.000000
0.294587 0.002258 0.000000
0.543271 0.002258 0.000000
0.988310 0.002258 0.000000
0.000000 0.004154 0.000000
0.000000 0.004154 0.000000
0.000000 0.004154 0.000000
0.000000 0.004154 0.000000
0.000000 0.004154 0.000000
0.000000 0.004154 0.000000
0.000000 0.004154 0.000000
0.000000 0.004154 0.000000
0.000001 0.004154 0.000000
0.000001 0.004154 0.000000
0.000002 0.004154 0.000000
0.000005 0.004154 0.000000
0.000009 0.004154 0.000000
0.000017 0.004154 0.000000
0.000032 0.004154 0.000000
0.000058 0.004154 0.000000
0.000109 0.004154 0.000000
0.000201 0.004154 0.000000
0.000362 0.004154 0.000000
0.000664 0.004154 0.000000
0.001227 0.004154 0.000000
0.002258 0.004154 0.000000
0.004154 0.004154 0.000000
0.007680 0.004154 0.000000
0.014005 0.004154 0.000000
0.025971 0.004154 0.000000
0.047344 0.004154 0.000000
0.087739 0.004154 0.000000
0.160552 0.004154 0.000000
0.294587 0.004154 0.000000
0.543271 0.004154 0.000000
0.988310 0.004154 0.000000
0.000000 0.007680 0.000000
0.000000 0.007680 0.000000
0.000000 0.007680 0.000000
0.000000 0.007680 0.000000
0.000000 0.007680 0.000000
0.000000 0.007680 0.000000
0.000000 0.007680 0.000000
0.000000 0.007680 0.000000
0.000001 0.007680 0.000000
0.000001 0.007680 0.000000
0.000002 0.007680 0.000000
0.000005 0.007680 0.000000
0.000009 0.007680 0.000000
0.000017 0.007680 0.000000
0.000032 0.007680 0.000000
0.000058 0.007680 0.000000
0.000109 0.007680 0.000000
0.000201 0.007680 0.000000
0.000362 0.007680 0.000000
0.000664 0.007680 0.000000
0.001227 0.007680 0.000000
0.002258 0.007680 0.000000
0.004154 0.007680 0.000000
0.007680 0.007680 0.000000
0.014005 0.007680 0.000000
0.025971 0.007680 0.000000
0.047344 0.007680 0.000000
0.087739 0.007680 0.000000
0.160552 0.007680 0.000000
0.294587 0.007680 0.000000
0.543271 0.007680 0.000000
0.988310 0.007680 0.000000
0.000000 0.014005 0.000000
0.000000 0.014005 0.000000
0.000000 0.014005 0.000000
0.000000 0.014005 0.000000
0.000000 0.014005 0.000000
0.000000 0.014005 0.000000
0.000000 0.014005 0.000000
0.000000 0.014005 0.000000
0.000001 0.014005 0.000000
0.000001 0.014005 0.000000
0.000002 0.014005 0.000000
0.000005 0.014005 0.000000
0.000009 0.014005 0.000000
0.000017 0.014005 0.000000
0.000032 0.014005 0.000000
0.000058 0.014005 0.000000
0.000109 0.014005 0.000000
0.000201 0.014005 0.000000
0.000362 0.014005 0.000000
0.000664 0.014005 0.000000
0.001227 0.014005 0.000000
0.002258 0.014005 0.000000
0.004154 0.014005 0.000000
0.007680 0.014005 0.000000
0.014005 0.014005 0.000000
0.025971 0.014005 0.000000
0.047344 0.014005 0.000000
0.087739 0.014005 0.000000
0.160552 0.014005 0.000000
0.294587 0.014005 0.000000
0.543271 0.014005 0.000000
0.988310 0.014005 0.000000
0.000000 0.025971 0.000000
0.000000 0.025971 0.000000
0.000000 0.025971 0.000000
0.000000 0.025971 0.000000
0.000000 0.025971 0.000000
0.000000 0.025971 0.000000
0.000000 0.025971 0.000000
0.000000 0.025971 0.000000
0.000001 0.025971 0.000000
0.000001 0.025971 0.000000
0.000002 0.025971 0.000000
0.000005 0.025971 0.000000
0.000009 0.025971 0.000000
0.000017 0.025971 0.000000
0.000032 0.025971 0.000000
0.000058 0.025971 0.000000
0.000109 0.025971 0.000000
0.000201 0.025971 0.000000
0.000362 0.025971 0.000000
0.000664 0.025971 0.000000
0.001227 0.025971 0.000000
0.002258 0.025971 0.000000
0.004154 0.025971 0.000000
0.007680 0.025971 0.000000
0.014005 0.025971 0.000000
0.025971 0.025971 0.000000
0.047344 0.025971 0.000000
0.087739 0.025971 0.000000
0.160552 0.025971 0.000000
0.294587 0.025971 0.000000
0.543271 0.025971 0.000000
0.988310 0.025971 0.000000
0.000000 0.047344 0.000000
0.000000 0.047344 0.000000
0.000000 0.047344 0.000000
0.000000 0.047344 0.000000
0.000000 0.047344 0.000000
0.000000 0.047344 0.000000
0.000000 0.047344 0.000000
0.000000 0.047344 0.000000
0.000001 0.047344 0.000000
0.000001 0.047344 0.000000
0.000002 0.047344 0.000000
0.000005 0.047344 0.000000
0.000009 0.047344 0.000000
0.000017 0.047344 0.000000
0.000032 0.047344 0.000000
0.000058 0.047344 0.000000
0.000109 0.047344 0.000000
0.000201 0.047344 0.000000
0.000362 0.047344 0.000000
0.000664 0.047344 0.000000
0.001227 0.047344 0.000000
0.002258 0.047344 0.000000
0.004154 0.047344 0.000000
0.007680 0.047344 0.000000
0.014005 0.047344 0.000000
0.025971 0.047344 0.000000
0.047344 0.047344 0.000000
0.087739 0.047344 0.000000
0.160552 0.047344 0.000000
0.294587 0.047344 0.000000
0.543271 0.047344 0.000000
0.988310 0.047344 0.000000
0.000000 0.087739 0.000000
0.000000 0.087739 0.000000
0.000000 0.087739 0.000000
0.000000 0.087739 0.000000
0.000000 0.087739 0.000000
0.000000 0.087739 0.000000
0.000000 0.087739 0.000000
0.000000 0.087739 0.000000
0.000001 0.087739 0.000000
0.000001 0.087739 0.000000
0.000002 0.087739 0.000000
0.000005 0.087739 0.000000
0.000009 0.087739 0.000000
0.000017 0.087739 0.000000
0.000032 0.087739 0.000000
0.000058 0.087739 0.000000
0.000109 0.087739 0.000000
0.000201 0.087739 0.000000
0.000362 0.087739 0.000000
0.000664 0.087739 0.000000
0.001227 0.087739 0.000000
