python/4 - create cube files/cube files/square_max58.cube
TITLE "cube/square_max58.cube"
LUT_3D_SIZE 8
DOMAIN_MIN 0.000000 0.000000 0.000000
DOMAIN_MAX 0.903226 0.903226 0.903226
0.000000 0.000000 0.000000
0.000000 0.000000 0.000000
0.000001 0.000000 0.000000
0.000009 0.000000 0.000000
0.000109 0.000000 0.000000
0.001227 0.000000 0.000000
0.014005 0.000000 0.000000
0.160552 0.000000 0.000000
0.000000 0.000000 0.000000
0.000000 0.000000 0.000000
0.000001 0.000000 0.000000
0.000009 0.000000 0.000000
0.000109 0.000000 0.000000
0.001227 0.000000 0.000000
0.014005 0.000000 0.000000
0.160552 0.000000 0.000000
0.000000 0.000001 0.000000
0.000000 0.000001 0.000000
0.000001 0.000001 0.000000
0.000009 0.000001 0.000000
0.000109 0.000001 0.000000
0.001227 0.000001 0.000000
0.014005 0.000001 0.000000
0.160552 0.000001 0.000000
0.000000 0.000009 0.000000
0.000000 0.000009 0.000000
0.000001 0.000009 0.000000
0.000009 0.000009 0.000000
0.000109 0.000009 0.000000
0.001227 0.000009 0.000000
0.014005 0.000009 0.000000
0.160552 0.000009 0.000000
0.000000 0.000109 0.000000
0.000000 0.000109 0.000000
0.000001 0.000109 0.000000
0.000009 0.000109 0.000000
0.000109 0.000109 0.000000
0.001227 0.000109 0.000000
0.014005 0.000109 0.000000
0.160552 0.000109 0.000000
0.000000 0.001227 0.000000
0.000000 0.001227 0.000000
0.000001 0.001227 0.000000
0.000009 0.001227 0.000000
0.000109 0.001227 0.000000
0.001227 0.001227 0.000000
0.014005 0.001227 0.000000
0.160552 0.001227 0.000000
0.000000 0.014005 0.000000
0.000000 0.014005 0.000000
0.000001 0.014005 0.000000
0.000009 0.014005 0.000000
0.000109 0.014005 0.000000
0.001227 0.014005 0.000000
0.014005 0.014005 0.000000
0.160552 0.014005 0.000000
0.000000 0.160552 0.000000
0.000000 0.160552 0.000000
0.000001 0.160552 0.000000
0.000009 0.160552 0.000000
0.000109 0.160552 0.000000
0.001227 0.160552 0.000000
0.014005 0.160552 0.000000
0.160552 0.160552 0.000000
0.000000 0.000000 0.000000
0.000000 0.000000 0.000000
0.000001 0.000000 0.000000
0.000009 0.000000 0.000000
0.000109 0.000000 0.000000
0.001227 0.000000 0.000000
0.014005 0.000000 0.000000
0.160552 0.000000 0.000000
0.000000 0.000000 0.000000
0.000000 0.000000 0.000000
0.000001 0.000000 0.000000
0.000009 0.000000 0.000000
0.000109 0.000000 0.000000
0.001227 0.000000 0.000000
0.014005 0.000000 0.000000
0.160552 0.000000 0.000000
0.000000 0.000001 0.000000
0.000000 0.000001 0.000000
0.000001 0.000001 0.000000
0.000009 0.000001 0.000000
0.000109 0.000001 0.000000
0.001227 0.000001 0.000000
0.014005 0.000001 0.000000
0.160552 0.000001 0.000000
0.000000 0.000009 0.000000
0.000000 0.000009 0.000000
0.000001 0.000009 0.000000
0.000009 0.000009 0.000000
0.000109 0.000009 0.000000
0.001227 0.000009 0.000000
0.014005 0.000009 0.000000
0.160552 0.000009 0.000000
0.000000 0.000109 0.000000
0.000000 0.000109 0.000000
0.000001 0.000109 0.000000
0.000009 0.000109 0.000000
0.000109 0.000109 0.000000
0.001227 0.000109 0.000000
0.014005 0.000109 0.000000
0.160552 0.000109 0.000000
0.000000 0.001227 0.000000
0.000000 0.001227 0.000000
0.000001 0.001227 0.000000
0.000009 0.001227 0.000000
0.000109 0.001227 0.000000
0.001227 0.001227 0.000000
0.014005 0.001227 0.000000
0.160552 0.001227 0.000000
0.000000 0.014005 0.000000
0.000000 0.014005 0.000000
0.000001 0.014005 0.000000
0.000009 0.014005 0.000000
0.000109 0.014005 0.000000
0.001227 0.014005 0.000000
0.014005 0.014005 0.000000
0.160552 0.014005 0.000000
0.000000 0.160552 0.000000
0.000000 0.160552 0.000000
0.000001 0.160552 0.000000
0.000009 0.160552 0.000000
0.000109 0.160552 0.000000
0.001227 0.160552 0.000000
0.014005 0.160552 0.000000
0.160552 0.160552 0.000000
0.000000 0.000000 0.000001
0.000000 0.000000 0.000001
0.000001 0.000000 0.000001
0.000009 0.000000 0.000001
0.000109 0.000000 0.000001
0.001227 0.000000 0.000001
0.014005 0.000000 0.000001
0.160552 0.000000 0.000001
0.000000 0.000000 0.000001
0.000000 0.000000 0.000001
0.000001 0.000000 0.000001
0.000009 0.000000 0.000001
0.000109 0.000000 0.000001
0.001227 0.000000 0.000001
0.014005 0.000000 0.000001
0.160552 0.000000 0.000001
0.000000 0.000001 0.000001
0.000000 0.000001 0.000001
0.000001 0.000001 0.000001
0.000009 0.000001 0.000001
0.000109 0.000001 0.000001
0.001227 0.000001 0.000001
0.014005 0.000001 0.000001
0.160552 0.000001 0.000001
0.000000 0.000009 0.000001
0.000000 0.000009 0.000001
0.000001 0.000009 0.000001
0.000009 0.000009 0.000001
0.000109 0.000009 0.000001
0.001227 0.000009 0.000001
0.014005 0.000009 0.000001
0.160552 0.000009 0.000001
0.000000 0.000109 0.000001
0.000000 0.000109 0.000001
0.000001 0.000109 0.000001
0.000009 0.000109 0.000001
0.000109 0.000109 0.000001
0.001227 0.000109 0.000001
0.014005 0.000109 0.000001
0.160552 0.000109 0.000001
0.000000 0.001227 0.000001
0.000000 0.001227 0.000001
0.000001 0.001227 0.000001
0.000009 0.001227 0.000001
0.000109 0.001227 0.000001
0.001227 0.001227 0.000001
0.014005 0.001227 0.000001
0.160552 0.001227 0.000001
0.000000 0.014005 0.000001
0.000000 0.014005 0.000001
0.000001 0.014005 0.000001
0.000009 0.014005 0.000001
0.000109 0.014005 0.000001
0.001227 0.014005 0.000001
0.014005 0.014005 0.000001
0.160552 0.014005 0.000001
0.000000 0.160552 0.000001
0.000000 0.160552 0.000001
0.000001 0.160552 0.000001
0.000009 0.160552 0.000001
0.000109 0.160552 0.000001
0.001227 0.160552 0.000001
0.014005 0.160552 0.000001
0.160552 0.160552 0.000001
0.000000 0.000000 0.000009
0.000000 0.000000 0.000009
0.000001 0.000000 0.000009
0.000009 0.000000 0.000009
0.000109 0.000000 0.000009
0.001227 0.000000 0.000009
0.014005 0.000000 0.000009
0.160552 0.000000 0.000009
0.000000 0.000000 0.000009
0.000000 0.000000 0.000009
0.000001 0.000000 0.000009
0.000009 0.000000 0.000009
0.000109 0.000000 0.000009
0.001227 0.000000 0.000009
0.014005 0.000000 0.000009
0.160552 0.000000 0.000009
0.000000 0.000001 0.000009
0.000000 0.000001 0.000009
0.000001 0.000001 0.000009
0.000009 0.000001 0.000009
0.000109 0.000001 0.000009
0.001227 0.000001 0.000009
0.014005 0.000001 0.000009
0.160552 0.000001 0.000009
0.000000 0.000009 0.000009
0.000000 0.000009 0.000009
0.000001 0.000009 0.000009
0.000009 0.000009 0.000009
0.000109 0.000009 0.000009
0.001227 0.000009 0.000009
0.014005 0.000009 0.000009
0.160552 0.000009 0.000009
0.000000 0.000109 0.000009
0.000000 0.000109 0.000009
0.000001 0.000109 0.000009
0.000009 0.000109 0.000009
0.000109 0.000109 0.000009
0.001227 0.000109 0.000009
0.014005 0.000109 0.000009
0.160552 0.000109 0.000009
0.000000 0.001227 0.000009
0.000000 0.001227 0.000009
0.000001 0.001227 0.000009
0.000009 0.001227 0.000009
0.000109 0.001227 0.000009
0.001227 0.001227 0.000009
0.014005 0.001227 0.000009
0.160552 0.001227 0.000009
0.000000 0.014005 0.000009
0.000000 0.014005 0.000009
0.000001 0.014005 0.000009
0.000009 0.014005 0.000009
0.000109 0.014005 0.000009
0.001227 0.014005 0.000009
0.014005 0.014005 0.000009
0.160552 0.014005 0.000009
0.000000 0.160552 0.000009
0.000000 0.160552 0.000009
0.000001 0.160552 0.000009
0.000009 0.160552 0.000009
0.000109 0.160552 0.000009
0.001227 0.160552 0.000009
0.014005 0.160552 0.000009
0.160552 0.160552 0.000009
0.000000 0.000000 0.000109
0.000000 0.000000 0.000109
0.000001 0.000000 0.000109
0.000009 0.000000 0.000109
0.000109 0.000000 0.000109
0.001227 0.000000 0.000109
0.014005 0.000000 0.000109
0.160552 0.000000 0.000109
0.000000 0.000000 0.000109
0.000000 0.000000 0.000109
0.000001 0.000000 0.000109
0.000009 0.000000 0.000109
0.000109 0.000000 0.000109
0.001227 0.000000 0.000109
0.014005 0.000000 0.000109
0.160552 0.000000 0.000109
0.000000 0.000001 0.000109
0.000000 0.000001 0.000109
0.000001 0.000001 0.000109
0.000009 0.000001 0.000109
0.000109 0.000001 0.000109
0.001227 0.000001 0.000109
0.014005 0.000001 0.000109
0.160552 0.000001 0.000109
0.000000 0.000009 0.000109
0.000000 0.000009 0.000109
0.000001 0.000009 0.000109
0.000009 0.000009 0.000109
0.000109 0.000009 0.000109
0.001227 0.000009 0.000109
0.014005 0.000009 0.000109
0.160552 0.000009 0.000109
0.000000 0.000109 0.000109
0.000000 0.000109 0.000109
0.000001 0.000109 0.000109
0.000009 0.000109 0.000109
0.000109 0.000109 0.000109
0.001227 0.000109 0.000109
0.014005 0.000109 0.000109
0.160552 0.000109 0.000109
0.000000 0.001227 0.000109
0.000000 0.001227 0.000109
0.000001 0.001227 0.000109
0.000009 0.001227 0.000109
0.000109 0.001227 0.000109
0.001227 0.001227 0.000109
0.014005 0.001227 0.000109
0.160552 0.001227 0.000109
0.000000 0.014005 0.000109
0.000000 0.014005 0.000109
0.000001 0.014005 0.000109
0.000009 0.014005 0.000109
0.000109 0.014005 0.000109
0.001227 0.014005 0.000109
0.014005 0.014005 0.000109
0.160552 0.014005 0.000109
0.000000 0.160552 0.000109
0.000000 0.160552 0.000109
0.000001 0.160552 0.000109
0.000009 0.160552 0.000109
0.000109 0.160552 0.000109
0.001227 0.160552 0.000109
0.014005 0.160552 0.000109
0.160552 0.160552 0.000109
0.000000 0.000000 0.001227
0.000000 0.000000 0.001227
0.000001 0.000000 0.001227
0.000009 0.000000 0.001227
0.000109 0.000000 0.001227
0.001227 0.000000 0.001227
0.014005 0.000000 0.001227
0.160552 0.000000 0.001227
0.000000 0.000000 0.001227
0.000000 0.000000 0.001227
0.000001 0.000000 0.001227
0.000009 0.000000 0.001227
0.000109 0.000000 0.001227
0.001227 0.000000 0.001227
0.014005 0.000000 0.001227
0.160552 0.000000 0.001227
0.000000 0.000001 0.001227
0.000000 0.000001 0.001227
0.000001 0.000001 0.001227
0.000009 0.000001 0.001227
0.000109 0.000001 0.001227
0.001227 0.000001 0.001227
0.014005 0.000001 0.001227
0.160552 0.000001 0.001227
0.000000 0.000009 0.001227
0.000000 0.000009 0.001227
0.000001 0.000009 0.001227
0.000009 0.000009 0.001227
0.000109 0.000009 0.001227
0.001227 0.000009 0.001227
0.014005 0.000009 0.001227
0.160552 0.000009 0.001227
0.000000 0.000109 0.001227
0.000000 0.000109 0.001227
0.000001 0.000109 0.001227
0.000009 0.000109 0.001227
0.000109 0.000109 0.001227
0.001227 0.000109 0.001227
0.014005 0.000109 0.001227
0.160552 0.000109 0.001227
0.000000 0.001227 0.001227
0.000000 0.001227 0.001227
0.000001 0.001227 0.001227
0.000009 0.001227 0.001227
0.000109 0.001227 0.001227
0.001227 0.001227 0.001227
0.014005 0.001227 0.001227
0.160552 0.001227 0.001227
0.000000 0.014005 0.001227
0.000000 0.014005 0.001227
0.000001 0.014005 0.001227
0.000009 0.014005 0.001227
0.000109 0.014005 0.001227
0.001227 0.014005 0.001227
0.014005 0.014005 0.001227
0.160552 0.014005 0.001227
0.000000 0.160552 0.001227
0.000000 0.160552 0.001227
0.000001 0.160552 0.001227
0.000009 0.160552 0.001227
0.000109 0.160552 0.001227
0.001227 0.160552 0.001227
0.014005 0.160552 0.001227
0.160552 0.160552 0.001227
0.000000 0.000000 0.014005
0.000000 0.000000 0.014005
0.000001 0.000000 0.014005
0.000009 0.000000 0.014005
0.000109 0.000000 0.014005
0.001227 0.000000 0.014005
0.014005 0.000000 0.014005
0.160552 0.000000 0.014005
0.000000 0.000000 0.014005
0.000000 0.000000 0.014005
0.000001 0.000000 0.014005
0.000009 0.000000 0.014005
0.000109 0.000000 0.014005
0.001227 0.000000 0.014005
0.014005 0.000000 0.014005
0.160552 0.000000 0.014005
0.000000 0.000001 0.014005
0.000000 0.000001 0.014005
0.000001 0.000001 0.014005
0.000009 0.000001 0.014005
0.000109 0.000001 0.014005
0.001227 0.000001 0.014005
0.014005 0.000001 0.014005
0.160552 0.000001 0.014005
0.000000 0.000009 0.014005
0.000000 0.000009 0.014005
0.000001 0.000009 0.014005
0.000009 0.000009 0.014005
0.000109 0.000009 0.014005
0.001227 0.000009 0.014005
0.014005 0.000009 0.014005
0.160552 0.000009 0.014005
0.000000 0.000109 0.014005
0.000000 0.000109 0.014005
0.000001 0.000109 0.014005
0.000009 0.000109 0.014005
0.000109 0.000109 0.014005
0.001227 0.000109 0.014005
0.014005 0.000109 0.014005
0.160552 0.000109 0.014005
0.000000 0.001227 0.014005
0.000000 0.001227 0.014005
0.000001 0.001227 0.014005
0.000009 0.001227 0.014005
0.000109 0.001227 0.014005
0.001227 0.001227 0.014005
0.014005 0.001227 0.014005
0.160552 0.001227 0.014005
0.000000 0.014005 0.014005
0.000000 0.014005 0.014005
0.000001 0.014005 0.014005
0.000009 0.014005 0.014005
0.000109 0.014005 0.014005
0.001227 0.014005 0.014005
0.014005 0.014005 0.014005
0.160552 0.014005 0.014005
0.000000 0.160552 0.014005
0.000000 0.160552 0.014005
0.000001 0.160552 0.014005
0.000009 0.160552 0.014005
0.000109 0.160552 0.014005
0.001227 0.160552 0.014005
0.014005 0.160552 0.014005
0.160552 0.160552 0.014005
0.000000 0.000000 0.160552
0.000000 0.000000 0.160552
0.000001 0.000000 0.160552
0.000009 0.000000 0.160552
0.000109 0.000000 0.160552
0.001227 0.000000 0.160552
0.014005 0.000000 0.160552
0.160552 0.000000 0.160552
0.000000 0.000000 0.160552
0.000000 0.000000 0.160552
0.000001 0.000000 0.160552
0.000009 0.000000 0.160552
0.000109 0.000000 0.160552
0.001227 0.000000 0.160552
0.014005 0.000000 0.160552
0.160552 0.000000 0.160552
0.000000 0.000001 0.160552
0.000000 0.000001 0.160552
0.000001 0.000001 0.160552
0.000009 0.000001 0.160552
0.000109 0.000001 0.160552
0.001227 0.000001 0.160552
0.014005 0.000001 0.160552
0.160552 0.000001 0.160552
0.000000 0.000009 0.160552
0.000000 0.000009 0.160552
0.000001 0.000009 0.160552
0.000009 0.000009 0.160552
0.000109 0.000009 0.160552
0.001227 0.000009 0.160552
0.014005 0.000009 0.160552
0.160552 0.000009 0.160552
0.000000 0.000109 0.160552
0.000000 0.000109 0.160552
0.000001 0.000109 0.160552
0.000009 0.000109 0.160552
0.000109 0.000109 0.160552
0.001227 0.000109 0.160552
0.014005 0.000109 0.160552
0.160552 0.000109 0.160552
0.000000 0.001227 0.160552
0.000000 0.001227 0.160552
0.000001 0.001227 0.160552
0.000009 0.001227 0.160552
0.000109 0.001227 0.160552
0.001227 0.001227 0.160552
0.014005 0.001227 0.160552
0.160552 0.001227 0.160552
0.000000 0.014005 0.160552
0.000000 0.014005 0.160552
0.000001 0.014005 0.160552
0.000009 0.014005 0.160552
0.000109 0.014005 0.160552
0.001227 0.014005 0.160552
0.014005 0.014005 0.160552
0.160552 0.014005 0.160552
0.000000 0.160552 0.160552
0.000000 0.160552 0.160552
0.000001 0.160552 0.160552
0.000009 0.160552 0.160552
0.000109 0.160552 0.160552
0.001227 0.160552 0.160552
0.014005 0.160552 0.160552
0.160552 0.160552 0.160552
