unity projects/render_random/Assets/identity.cube
TITLE "identity.cube"
LUT_3D_SIZE 32
DOMAIN_MIN 0.0 0.0 0.0
DOMAIN_MAX 1.0 1.0 1.0
0.000000 0.000000 0.000000
0.000000 0.000000 0.000000
0.000261 0.000000 0.000000
0.003104 0.000000 0.000000
0.007157 0.000000 0.000000
0.012700 0.000000 0.000000
0.020270 0.000000 0.000000
0.030490 0.000000 0.000000
0.044430 0.000000 0.000000
0.063340 0.000000 0.000000
0.088830 0.000000 0.000000
0.123600 0.000000 0.000000
0.170200 0.000000 0.000000
0.233800 0.000000 0.000000
0.320900 0.000000 0.000000
0.436800 0.000000 0.000000
0.596600 0.000000 0.000000
0.810600 0.000000 0.000000
1.105000 0.000000 0.000000
1.492000 0.000000 0.000000
2.034000 0.000000 0.000000
2.759000 0.000000 0.000000
3.738000 0.000000 0.000000
5.083000 0.000000 0.000000
6.881000 0.000000 0.000000
9.342000 0.000000 0.000000
12.610000 0.000000 0.000000
17.200000 0.000000 0.000000
23.250000 0.000000 0.000000
31.500000 0.000000 0.000000
42.750000 0.000000 0.000000
57.810000 0.000000 0.000000
0.000000 0.000000 0.000000
0.000000 0.000000 0.000000
0.000261 0.000000 0.000000
0.003104 0.000000 0.000000
0.007157 0.000000 0.000000
0.012700 0.000000 0.000000
0.020270 0.000000 0.000000
0.030490 0.000000 0.000000
0.044430 0.000000 0.000000
0.063340 0.000000 0.000000
0.088830 0.000000 0.000000
0.123600 0.000000 0.000000
0.170200 0.000000 0.000000
0.233800 0.000000 0.000000
0.320900 0.000000 0.000000
0.436800 0.000000 0.000000
0.596600 0.000000 0.000000
0.810600 0.000000 0.000000
1.105000 0.000000 0.000000
1.492000 0.000000 0.000000
2.034000 0.000000 0.000000
2.759000 0.000000 0.000000
3.738000 0.000000 0.000000
5.083000 0.000000 0.000000
6.881000 0.000000 0.000000
9.342000 0.000000 0.000000
12.610000 0.000000 0.000000
17.200000 0.000000 0.000000
23.250000 0.000000 0.000000
31.500000 0.000000 0.000000
42.750000 0.000000 0.000000
57.810000 0.000000 0.000000
0.000000 0.000261 0.000000
0.000000 0.000261 0.000000
0.000261 0.000261 0.000000
0.003104 0.000261 0.000000
0.007157 0.000261 0.000000
0.012700 0.000261 0.000000
0.020270 0.000261 0.000000
0.030490 0.000261 0.000000
0.044430 0.000261 0.000000
0.063340 0.000261 0.000000
0.088830 0.000261 0.000000
0.123600 0.000261 0.000000
0.170200 0.000261 0.000000
0.233800 0.000261 0.000000
0.320900 0.000261 0.000000
0.436800 0.000261 0.000000
0.596600 0.000261 0.000000
0.810600 0.000261 0.000000
1.105000 0.000261 0.000000
1.492000 0.000261 0.000000
2.034000 0.000261 0.000000
2.759000 0.000261 0.000000
3.738000 0.000261 0.000000
5.083000 0.000261 0.000000
6.881000 0.000261 0.000000
9.342000 0.000261 0.000000
12.610000 0.000261 0.000000
17.200000 0.000261 0.000000
23.250000 0.000261 0.000000
31.500000 0.000261 0.000000
42.750000 0.000261 0.000000
57.810000 0.000261 0.000000
0.000000 0.003104 0.000000
0.000000 0.003104 0.000000
0.000261 0.003104 0.000000
0.003104 0.003104 0.000000
0.007157 0.003104 0.000000
0.012700 0.003104 0.000000
0.020270 0.003104 0.000000
0.030490 0.003104 0.000000
0.044430 0.003104 0.000000
0.063340 0.003104 0.000000
0.088830 0.003104 0.000000
0.123600 0.003104 0.000000
0.170200 0.003104 0.000000
0.233800 0.003104 0.000000
0.320900 0.003104 0.000000
0.436800 0.003104 0.000000
0.596600 0.003104 0.000000
0.810600 0.003104 0.000000
1.105000 0.003104 0.000000
1.492000 0.003104 0.000000
2.034000 0.003104 0.000000
2.759000 0.003104 0.000000
3.738000 0.003104 0.000000
5.083000 0.003104 0.000000
6.881000 0.003104 0.000000
9.342000 0.003104 0.000000
12.610000 0.003104 0.000000
17.200000 0.003104 0.000000
23.250000 0.003104 0.000000
31.500000 0.003104 0.000000
42.750000 0.003104 0.000000
57.810000 0.003104 0.000000
0.000000 0.007157 0.000000
0.000000 0.007157 0.000000
0.000261 0.007157 0.000000
0.003104 0.007157 0.000000
0.007157 0.007157 0.000000
0.012700 0.007157 0.000000
0.020270 0.007157 0.000000
0.030490 0.007157 0.000000
0.044430 0.007157 0.000000
0.063340 0.007157 0.000000
0.088830 0.007157 0.000000
0.123600 0.007157 0.000000
0.170200 0.007157 0.000000
0.233800 0.007157 0.000000
0.320900 0.007157 0.000000
0.436800 0.007157 0.000000
0.596600 0.007157 0.000000
0.810600 0.007157 0.000000
1.105000 0.007157 0.000000
1.492000 0.007157 0.000000
2.034000 0.007157 0.000000
2.759000 0.007157 0.000000
3.738000 0.007157 0.000000
5.083000 0.007157 0.000000
6.881000 0.007157 0.000000
9.342000 0.007157 0.000000
12.610000 0.007157 0.000000
17.200000 0.007157 0.000000
23.250000 0.007157 0.000000
31.500000 0.007157 0.000000
42.750000 0.007157 0.000000
57.810000 0.007157 0.000000
0.000000 0.012700 0.000000
0.000000 0.012700 0.000000
0.000261 0.012700 0.000000
0.003104 0.012700 0.000000
0.007157 0.012700 0.000000
0.012700 0.012700 0.000000
0.020270 0.012700 0.000000
0.030490 0.012700 0.000000
0.044430 0.012700 0.000000
0.063340 0.012700 0.000000
0.088830 0.012700 0.000000
0.123600 0.012700 0.000000
0.170200 0.012700 0.000000
0.233800 0.012700 0.000000
0.320900 0.012700 0.000000
0.436800 0.012700 0.000000
0.596600 0.012700 0.000000
0.810600 0.012700 0.000000
1.105000 0.012700 0.000000
1.492000 0.012700 0.000000
2.034000 0.012700 0.000000
2.759000 0.012700 0.000000
3.738000 0.012700 0.000000
5.083000 0.012700 0.000000
6.881000 0.012700 0.000000
9.342000 0.012700 0.000000
12.610000 0.012700 0.000000
17.200000 0.012700 0.000000
23.250000 0.012700 0.000000
31.500000 0.012700 0.000000
42.750000 0.012700 0.000000
57.810000 0.012700 0.000000
0.000000 0.020270 0.000000
0.000000 0.020270 0.000000
0.000261 0.020270 0.000000
0.003104 0.020270 0.000000
0.007157 0.020270 0.000000
0.012700 0.020270 0.000000
0.020270 0.020270 0.000000
0.030490 0.020270 0.000000
0.044430 0.020270 0.000000
0.063340 0.020270 0.000000
0.088830 0.020270 0.000000
0.123600 0.020270 0.000000
0.170200 0.020270 0.000000
0.233800 0.020270 0.000000
0.320900 0.020270 0.000000
0.436800 0.020270 0.000000
0.596600 0.020270 0.000000
0.810600 0.020270 0.000000
1.105000 0.020270 0.000000
1.492000 0.020270 0.000000
2.034000 0.020270 0.000000
2.759000 0.020270 0.000000
3.738000 0.020270 0.000000
5.083000 0.020270 0.000000
6.881000 0.020270 0.000000
9.342000 0.020270 0.000000
12.610000 0.020270 0.000000
17.200000 0.020270 0.000000
23.250000 0.020270 0.000000
31.500000 0.020270 0.000000
42.750000 0.020270 0.000000
57.810000 0.020270 0.000000
0.000000 0.030490 0.000000
0.000000 0.030490 0.000000
0.000261 0.030490 0.000000
0.003104 0.030490 0.000000
0.007157 0.030490 0.000000
0.012700 0.030490 0.000000
0.020270 0.030490 0.000000
0.030490 0.030490 0.000000
0.044430 0.030490 0.000000
0.063340 0.030490 0.000000
0.088830 0.030490 0.000000
0.123600 0.030490 0.000000
0.170200 0.030490 0.000000
0.233800 0.030490 0.000000
0.320900 0.030490 0.000000
0.436800 0.030490 0.000000
0.596600 0.030490 0.000000
0.810600 0.030490 0.000000
1.105000 0.030490 0.000000
1.492000 0.030490 0.000000
2.034000 0.030490 0.000000
2.759000 0.030490 0.000000
3.738000 0.030490 0.000000
5.083000 0.030490 0.000000
6.881000 0.030490 0.000000
9.342000 0.030490 0.000000
12.610000 0.030490 0.000000
17.200000 0.030490 0.000000
23.250000 0.030490 0.000000
31.500000 0.030490 0.000000
42.750000 0.030490 0.000000
57.810000 0.030490 0.000000
0.000000 0.044430 0.000000
0.000000 0.044430 0.000000
0.000261 0.044430 0.000000
0.003104 0.044430 0.000000
0.007157 0.044430 0.000000
0.012700 0.044430 0.000000
0.020270 0.044430 0.000000
0.030490 0.044430 0.000000
0.044430 0.044430 0.000000
0.063340 0.044430 0.000000
0.088830 0.044430 0.000000
0.123600 0.044430 0.000000
0.170200 0.044430 0.000000
0.233800 0.044430 0.000000
0.320900 0.044430 0.000000
0.436800 0.044430 0.000000
0.596600 0.044430 0.000000
0.810600 0.044430 0.000000
1.105000 0.044430 0.000000
1.492000 0.044430 0.000000
2.034000 0.044430 0.000000
2.759000 0.044430 0.000000
3.738000 0.044430 0.000000
5.083000 0.044430 0.000000
6.881000 0.044430 0.000000
9.342000 0.044430 0.000000
12.610000 0.044430 0.000000
17.200000 0.044430 0.000000
23.250000 0.044430 0.000000
31.500000 0.044430 0.000000
42.750000 0.044430 0.000000
57.810000 0.044430 0.000000
0.000000 0.063340 0.000000
0.000000 0.063340 0.000000
0.000261 0.063340 0.000000
0.003104 0.063340 0.000000
0.007157 0.063340 0.000000
0.012700 0.063340 0.000000
0.020270 0.063340 0.000000
0.030490 0.063340 0.000000
0.044430 0.063340 0.000000
0.063340 0.063340 0.000000
0.088830 0.063340 0.000000
0.123600 0.063340 0.000000
0.170200 0.063340 0.000000
0.233800 0.063340 0.000000
0.320900 0.063340 0.000000
0.436800 0.063340 0.000000
0.596600 0.063340 0.000000
0.810600 0.063340 0.000000
1.105000 0.063340 0.000000
1.492000 0.063340 0.000000
2.034000 0.063340 0.000000
2.759000 0.063340 0.000000
3.738000 0.063340 0.000000
5.083000 0.063340 0.000000
6.881000 0.063340 0.000000
9.342000 0.063340 0.000000
12.610000 0.063340 0.000000
17.200000 0.063340 0.000000
23.250000 0.063340 0.000000
31.500000 0.063340 0.000000
42.750000 0.063340 0.000000
57.810000 0.063340 0.000000
0.000000 0.088830 0.000000
0.000000 0.088830 0.000000
0.000261 0.088830 0.000000
0.003104 0.088830 0.000000
0.007157 0.088830 0.000000
0.012700 0.088830 0.000000
0.020270 0.088830 0.000000
0.030490 0.088830 0.000000
0.044430 0.088830 0.000000
0.063340 0.088830 0.000000
0.088830 0.088830 0.000000
0.123600 0.088830 0.000000
0.170200 0.088830 0.000000
0.233800 0.088830 0.000000
0.320900 0.088830 0.000000
0.436800 0.088830 0.000000
0.596600 0.088830 0.000000
0.810600 0.088830 0.000000
1.105000 0.088830 0.000000
1.492000 0.088830 0.000000
2.034000 0.088830 0.000000
2.759000 0.088830 0.000000
3.738000 0.088830 0.000000
5.083000 0.088830 0.000000
6.881000 0.088830 0.000000
9.342000 0.088830 0.000000
12.610000 0.088830 0.000000
17.200000 0.088830 0.000000
23.250000 0.088830 0.000000
31.500000 0.088830 0.000000
42.750000 0.088830 0.000000
57.810000 0.088830 0.000000
0.000000 0.123600 0.000000
0.000000 0.123600 0.000000
0.000261 0.123600 0.000000
0.003104 0.123600 0.000000
0.007157 0.123600 0.000000
0.012700 0.123600 0.000000
0.020270 0.123600 0.000000
0.030490 0.123600 0.000000
0.044430 0.123600 0.000000
0.063340 0.123600 0.000000
0.088830 0.123600 0.000000
0.123600 0.123600 0.000000
0.170200 0.123600 0.000000
0.233800 0.123600 0.000000
0.320900 0.123600 0.000000
0.436800 0.123600 0.000000
0.596600 0.123600 0.000000
0.810600 0.123600 0.000000
1.105000 0.123600 0.000000
1.492000 0.123600 0.000000
2.034000 0.123600 0.000000
2.759000 0.123600 0.000000
3.738000 0.123600 0.000000
5.083000 0.123600 0.000000
6.881000 0.123600 0.000000
9.342000 0.123600 0.000000
12.610000 0.123600 0.000000
17.200000 0.123600 0.000000
23.250000 0.123600 0.000000
31.500000 0.123600 0.000000
42.750000 0.123600 0.000000
57.810000 0.123600 0.000000
0.000000 0.170200 0.000000
0.000000 0.170200 0.000000
0.000261 0.170200 0.000000
0.003104 0.170200 0.000000
0.007157 0.170200 0.000000
0.012700 0.170200 0.000000
0.020270 0.170200 0.000000
0.030490 0.170200 0.000000
0.044430 0.170200 0.000000
0.063340 0.170200 0.000000
0.088830 0.170200 0.000000
0.123600 0.170200 0.000000
0.170200 0.170200 0.000000
0.233800 0.170200 0.000000
0.320900 0.170200 0.000000
0.436800 0.170200 0.000000
0.596600 0.170200 0.000000
0.810600 0.170200 0.000000
1.105000 0.170200 0.000000
1.492000 0.170200 0.000000
2.034000 0.170200 0.000000
2.759000 0.170200 0.000000
3.738000 0.170200 0.000000
5.083000 0.170200 0.000000
6.881000 0.170200 0.000000
9.342000 0.170200 0.000000
12.610000 0.170200 0.000000
17.200000 0.170200 0.000000
23.250000 0.170200 0.000000
31.500000 0.170200 0.000000
42.750000 0.170200 0.000000
57.810000 0.170200 0.000000
0.000000 0.233800 0.000000
0.000000 0.233800 0.000000
0.000261 0.233800 0.000000
0.003104 0.233800 0.000000
0.007157 0.233800 0.000000
0.012700 0.233800 0.000000
0.020270 0.233800 0.000000
0.030490 0.233800 0.000000
0.044430 0.233800 0.000000
0.063340 0.233800 0.000000
0.088830 0.233800 0.000000
0.123600 0.233800 0.000000
0.170200 0.233800 0.000000
0.233800 0.233800 0.000000
0.320900 0.233800 0.000000
0.436800 0.233800 0.000000
0.596600 0.233800 0.000000
0.810600 0.233800 0.000000
1.105000 0.233800 0.000000
1.492000 0.233800 0.000000
2.034000 0.233800 0.000000
2.759000 0.233800 0.000000
3.738000 0.233800 0.000000
5.083000 0.233800 0.000000
6.881000 0.233800 0.000000
9.342000 0.233800 0.000000
12.610000 0.233800 0.000000
17.200000 0.233800 0.000000
23.250000 0.233800 0.000000
31.500000 0.233800 0.000000
42.750000 0.233800 0.000000
57.810000 0.233800 0.000000
0.000000 0.320900 0.000000
0.000000 0.320900 0.000000
0.000261 0.320900 0.000000
0.003104 0.320900 0.000000
0.007157 0.320900 0.000000
0.012700 0.320900 0.000000
0.020270 0.320900 0.000000
0.030490 0.320900 0.000000
0.044430 0.320900 0.000000
0.063340 0.320900 0.000000
0.088830 0.320900 0.000000
0.123600 0.320900 0.000000
0.170200 0.320900 0.000000
0.233800 0.320900 0.000000
0.320900 0.320900 0.000000
0.436800 0.320900 0.000000
0.596600 0.320900 0.000000
0.810600 0.320900 0.000000
1.105000 0.320900 0.000000
1.492000 0.320900 0.000000
2.034000 0.320900 0.000000
2.759000 0.320900 0.000000
3.738000 0.320900 0.000000
5.083000 0.320900 0.000000
6.881000 0.320900 0.000000
9.342000 0.320900 0.000000
12.610000 0.320900 0.000000
17.200000 0.320900 0.000000
23.250000 0.320900 0.000000
31.500000 0.320900 0.000000
42.750000 0.320900 0.000000
57.810000 0.320900 0.000000
0.000000 0.436800 0.000000
0.000000 0.436800 0.000000
0.000261 0.436800 0.000000
0.003104 0.436800 0.000000
0.007157 0.436800 0.000000
0.012700 0.436800 0.000000
0.020270 0.436800 0.000000
0.030490 0.436800 0.000000
0.044430 0.436800 0.000000
0.063340 0.436800 0.000000
0.088830 0.436800 0.000000
0.123600 0.436800 0.000000
0.170200 0.436800 0.000000
0.233800 0.436800 0.000000
0.320900 0.436800 0.000000
0.436800 0.436800 0.000000
0.596600 0.436800 0.000000
0.810600 0.436800 0.000000
1.105000 0.436800 0.000000
1.492000 0.436800 0.000000
2.034000 0.436800 0.000000
2.759000 0.436800 0.000000
3.738000 0.436800 0.000000
5.083000 0.436800 0.000000
6.881000 0.436800 0.000000
9.342000 0.436800 0.000000
12.610000 0.436800 0.000000
17.200000 0.436800 0.000000
23.250000 0.436800 0.000000
31.500000 0.436800 0.000000
42.750000 0.436800 0.000000
57.810000 0.436800 0.000000
0.000000 0.596600 0.000000
0.000000 0.596600 0.000000
0.000261 0.596600 0.000000
0.003104 0.596600 0.000000
0.007157 0.596600 0.000000
0.012700 0.596600 0.000000
0.020270 0.596600 0.000000
0.030490 0.596600 0.000000
0.044430 0.596600 0.000000
0.063340 0.596600 0.000000
0.088830 0.596600 0.000000
0.123600 0.596600 0.000000
0.170200 0.596600 0.000000
0.233800 0.596600 0.000000
0.320900 0.596600 0.000000
0.436800 0.596600 0.000000
0.596600 0.596600 0.000000
0.810600 0.596600 0.000000
1.105000 0.596600 0.000000
1.492000 0.596600 0.000000
2.034000 0.596600 0.000000
2.759000 0.596600 0.000000
3.738000 0.596600 0.000000
5.083000 0.596600 0.000000
6.881000 0.596600 0.000000
9.342000 0.596600 0.000000
12.610000 0.596600 0.000000
17.200000 0.596600 0.000000
23.250000 0.596600 0.000000
31.500000 0.596600 0.000000
42.750000 0.596600 0.000000
57.810000 0.596600 0.000000
0.000000 0.810600 0.000000
0.000000 0.810600 0.000000
0.000261 0.810600 0.000000
0.003104 0.810600 0.000000
0.007157 0.810600 0.000000
0.012700 0.810600 0.000000
0.020270 0.810600 0.000000
0.030490 0.810600 0.000000
0.044430 0.810600 0.000000
0.063340 0.810600 0.000000
0.088830 0.810600 0.000000
0.123600 0.810600 0.000000
0.170200 0.810600 0.000000
0.233800 0.810600 0.000000
0.320900 0.810600 0.000000
0.436800 0.810600 0.000000
0.596600 0.810600 0.000000
0.810600 0.810600 0.000000
1.105000 0.810600 0.000000
1.492000 0.810600 0.000000
2.034000 0.810600 0.000000
2.759000 0.810600 0.000000
3.738000 0.810600 0.000000
5.083000 0.810600 0.000000
6.881000 0.810600 0.000000
9.342000 0.810600 0.000000
12.610000 0.810600 0.000000
17.200000 0.810600 0.000000
23.250000 0.810600 0.000000
31.500000 0.810600 0.000000
42.750000 0.810600 0.000000
57.810000 0.810600 0.000000
0.000000 1.105000 0.000000
0.000000 1.105000 0.000000
0.000261 1.105000 0.000000
0.003104 1.105000 0.000000
0.007157 1.105000 0.000000
0.012700 1.105000 0.000000
0.020270 1.105000 0.000000
0.030490 1.105000 0.000000
0.044430 1.105000 0.000000
0.063340 1.105000 0.000000
0.088830 1.105000 0.000000
0.123600 1.105000 0.000000
0.170200 1.105000 0.000000
0.233800 1.105000 0.000000
0.320900 1.105000 0.000000
0.436800 1.105000 0.000000
0.596600 1.105000 0.000000
0.810600 1.105000 0.000000
1.105000 1.105000 0.000000
1.492000 1.105000 0.000000
2.034000 1.105000 0.000000
2.759000 1.105000 0.000000
3.738000 1.105000 0.000000
5.083000 1.105000 0.000000
6.881000 1.105000 0.000000
9.342000 1.105000 0.000000
12.610000 1.105000 0.000000
17.200000 1.105000 0.000000
23.250000 1.105000 0.000000
31.500000 1.105000 0.000000
42.750000 1.105000 0.000000
57.810000 1.105000 0.000000
0.000000 1.492000 0.000000
0.000000 1.492000 0.000000
0.000261 1.492000 0.000000
0.003104 1.492000 0.000000
0.007157 1.492000 0.000000
0.012700 1.492000 0.000000
0.020270 1.492000 0.000000
0.030490 1.492000 0.000000
0.044430 1.492000 0.000000
0.063340 1.492000 0.000000
0.088830 1.492000 0.000000
0.123600 1.492000 0.000000
0.170200 1.492000 0.000000
0.233800 1.492000 0.000000
0.320900 1.492000 0.000000
0.436800 1.492000 0.000000
0.596600 1.492000 0.000000
0.810600 1.492000 0.000000
1.105000 1.492000 0.000000
1.492000 1.492000 0.000000
2.034000 1.492000 0.000000
2.759000 1.492000 0.000000
3.738000 1.492000 0.000000
5.083000 1.492000 0.000000
6.881000 1.492000 0.000000
9.342000 1.492000 0.000000
12.610000 1.492000 0.000000
17.200000 1.492000 0.000000
23.250000 1.492000 0.000000
31.500000 1.492000 0.000000
42.750000 1.492000 0.000000
57.810000 1.492000 0.000000
0.000000 2.034000 0.000000
0.000000 2.034000 0.000000
0.000261 2.034000 0.000000
0.003104 2.034000 0.000000
0.007157 2.034000 0.000000
0.012700 2.034000 0.000000
0.020270 2.034000 0.000000
0.030490 2.034000 0.000000
0.044430 2.034000 0.000000
0.063340 2.034000 0.000000
0.088830 2.034000 0.000000
0.123600 2.034000 0.000000
0.170200 2.034000 0.000000
0.233800 2.034000 0.000000
0.320900 2.034000 0.000000
0.436800 2.034000 0.000000
0.596600 2.034000 0.000000
0.810600 2.034000 0.000000
1.105000 2.034000 0.000000
1.492000 2.034000 0.000000
2.034000 2.034000 0.000000
2.759000 2.034000 0.000000
3.738000 2.034000 0.000000
5.083000 2.034000 0.000000
6.881000 2.034000 0.000000
9.342000 2.034000 0.000000
12.610000 2.034000 0.000000
17.200000 2.034000 0.000000
23.250000 2.034000 0.000000
31.500000 2.034000 0.000000
42.750000 2.034000 0.000000
57.810000 2.034000 0.000000
0.000000 2.759000 0.000000
0.000000 2.759000 0.000000
0.000261 2.759000 0.000000
0.003104 2.759000 0.000000
0.007157 2.759000 0.000000
0.012700 2.759000 0.000000
0.020270 2.759000 0.000000
0.030490 2.759000 0.000000
0.044430 2.759000 0.000000
0.063340 2.759000 0.000000
0.088830 2.759000 0.000000
0.123600 2.759000 0.000000
0.170200 2.759000 0.000000
0.233800 2.759000 0.000000
0.320900 2.759000 0.000000
0.436800 2.759000 0.000000
0.596600 2.759000 0.000000
0.810600 2.759000 0.000000
1.105000 2.759000 0.000000
1.492000 2.759000 0.000000
2.034000 2.759000 0.000000
2.759000 2.759000 0.000000
3.738000 2.759000 0.000000
5.083000 2.759000 0.000000
6.881000 2.759000 0.000000
9.342000 2.759000 0.000000
12.610000 2.759000 0.000000
17.200000 2.759000 0.000000
23.250000 2.759000 0.000000
31.500000 2.759000 0.000000
42.750000 2.759000 0.000000
57.810000 2.759000 0.000000
0.000000 3.738000 0.000000
0.000000 3.738000 0.000000
0.000261 3.738000 0.000000
0.003104 3.738000 0.000000
0.007157 3.738000 0.000000
0.012700 3.738000 0.000000
0.020270 3.738000 0.000000
0.030490 3.738000 0.000000
0.044430 3.738000 0.000000
0.063340 3.738000 0.000000
0.088830 3.738000 0.000000
0.123600 3.738000 0.000000
0.170200 3.738000 0.000000
0.233800 3.738000 0.000000
0.320900 3.738000 0.000000
0.436800 3.738000 0.000000
0.596600 3.738000 0.000000
0.810600 3.738000 0.000000
1.105000 3.738000 0.000000
1.492000 3.738000 0.000000
2.034000 3.738000 0.000000
2.759000 3.738000 0.000000
3.738000 3.738000 0.000000
5.083000 3.738000 0.000000
6.881000 3.738000 0.000000
9.342000 3.738000 0.000000
12.610000 3.738000 0.000000
17.200000 3.738000 0.000000
23.250000 3.738000 0.000000
31.500000 3.738000 0.000000
42.750000 3.738000 0.000000
57.810000 3.738000 0.000000
0.000000 5.083000 0.000000
0.000000 5.083000 0.000000
0.000261 5.083000 0.000000
0.003104 5.083000 0.000000
0.007157 5.083000 0.000000
0.012700 5.083000 0.000000
0.020270 5.083000 0.000000
0.030490 5.083000 0.000000
0.044430 5.083000 0.000000
0.063340 5.083000 0.000000
0.088830 5.083000 0.000000
0.123600 5.083000 0.000000
0.170200 5.083000 0.000000
0.233800 5.083000 0.000000
0.320900 5.083000 0.000000
0.436800 5.083000 0.000000
0.596600 5.083000 0.000000
0.810600 5.083000 0.000000
1.105000 5.083000 0.000000
1.492000 5.083000 0.000000
2.034000 5.083000 0.000000
2.759000 5.083000 0.000000
3.738000 5.083000 0.000000
5.083000 5.083000 0.000000
6.881000 5.083000 0.000000
9.342000 5.083000 0.000000
12.610000 5.083000 0.000000
17.200000 5.083000 0.000000
23.250000 5.083000 0.000000
31.500000 5.083000 0.000000
42.750000 5.083000 0.000000
57.810000 5.083000 0.000000
0.000000 6.881000 0.000000
0.000000 6.881000 0.000000
0.000261 6.881000 0.000000
0.003104 6.881000 0.000000
0.007157 6.881000 0.000000
0.012700 6.881000 0.000000
0.020270 6.881000 0.000000
0.030490 6.881000 0.000000
0.044430 6.881000 0.000000
0.063340 6.881000 0.000000
0.088830 6.881000 0.000000
0.123600 6.881000 0.000000
0.170200 6.881000 0.000000
0.233800 6.881000 0.000000
0.320900 6.881000 0.000000
0.436800 6.881000 0.000000
0.596600 6.881000 0.000000
0.810600 6.881000 0.000000
1.105000 6.881000 0.000000
1.492000 6.881000 0.000000
2.034000 6.881000 0.000000
2.759000 6.881000 0.000000
3.738000 6.881000 0.000000
5.083000 6.881000 0.000000
6.881000 6.881000 0.000000
9.342000 6.881000 0.000000
12.610000 6.881000 0.000000
17.200000 6.881000 0.000000
23.250000 6.881000 0.000000
31.500000 6.881000 0.000000
42.750000 6.881000 0.000000
57.810000 6.881000 0.000000
0.000000 9.342000 0.000000
0.000000 9.342000 0.000000
0.000261 9.342000 0.000000
0.003104 9.342000 0.000000
0.007157 9.342000 0.000000
0.012700 9.342000 0.000000
0.020270 9.342000 0.000000
0.030490 9.342000 0.000000
0.044430 9.342000 0.000000
0.063340 9.342000 0.000000
0.088830 9.342000 0.000000
0.123600 9.342000 0.000000
0.170200 9.342000 0.000000
0.233800 9.342000 0.000000
0.320900 9.342000 0.000000
0.436800 9.342000 0.000000
0.596600 9.342000 0.000000
0.810600 9.342000 0.000000
1.105000 9.342000 0.000000
1.492000 9.342000 0.000000
2.034000 9.342000 0.000000
2.759000 9.342000 0.000000
3.738000 9.342000 0.000000
5.083000 9.342000 0.000000
6.881000 9.342000 0.000000
9.342000 9.342000 0.000000
12.610000 9.342000 0.000000
17.200000 9.342000 0.000000
23.250000 9.342000 0.000000
31.500000 9.342000 0.000000
42.750000 9.342000 0.000000
57.810000 9.342000 0.000000
0.000000 12.610000 0.000000
0.000000 12.610000 0.000000
0.000261 12.610000 0.000000
0.003104 12.610000 0.000000
0.007157 12.610000 0.000000
0.012700 12.610000 0.000000
0.020270 12.610000 0.000000
0.030490 12.610000 0.000000
0.044430 12.610000 0.000000
0.063340 12.610000 0.000000
0.088830 12.610000 0.000000
0.123600 12.610000 0.000000
0.170200 12.610000 0.000000
0.233800 12.610000 0.000000
0.320900 12.610000 0.000000
0.436800 12.610000 0.000000
0.596600 12.610000 0.000000
0.810600 12.610000 0.000000
1.105000 12.610000 0.000000
1.492000 12.610000 0.000000
2.034000 12.610000 0.000000
2.759000 12.610000 0.000000
3.738000 12.610000 0.000000
5.083000 12.610000 0.000000
6.881000 12.610000 0.000000
9.342000 12.610000 0.000000
12.610000 12.610000 0.000000
17.200000 12.610000 0.000000
23.250000 12.610000 0.000000
31.500000 12.610000 0.000000
42.750000 12.610000 0.000000
57.810000 12.610000 0.000000
0.000000 17.200000 0.000000
0.000000 17.200000 0.000000
0.000261 17.200000 0.000000
0.003104 17.200000 0.000000
0.007157 17.200000 0.000000
0.012700 17.200000 0.000000
0.020270 17.200000 0.000000
0.030490 17.200000 0.000000
0.044430 17.200000 0.000000
0.063340 17.200000 0.000000
0.088830 17.200000 0.000000
0.123600 17.200000 0.000000
0.170200 17.200000 0.000000
0.233800 17.200000 0.000000
