unity projects/render_random/Assets/identity.cube
TITLE "identity.cube"
LUT_3D_SIZE 8
DOMAIN_MIN 0.000000 0.000000 0.000000
DOMAIN_MAX 0.903226 0.903226 0.903226
0.000000 0.000000 0.000000
0.007157 0.000000 0.000000
0.044430 0.000000 0.000000
0.170200 0.000000 0.000000
0.596600 0.000000 0.000000
2.034000 0.000000 0.000000
6.881000 0.000000 0.000000
23.250000 0.000000 0.000000
0.000000 0.007157 0.000000
0.007157 0.007157 0.000000
0.044430 0.007157 0.000000
0.170200 0.007157 0.000000
0.596600 0.007157 0.000000
2.034000 0.007157 0.000000
6.881000 0.007157 0.000000
23.250000 0.007157 0.000000
0.000000 0.044430 0.000000
0.007157 0.044430 0.000000
0.044430 0.044430 0.000000
0.170200 0.044430 0.000000
0.596600 0.044430 0.000000
2.034000 0.044430 0.000000
6.881000 0.044430 0.000000
23.250000 0.044430 0.000000
0.000000 0.170200 0.000000
0.007157 0.170200 0.000000
0.044430 0.170200 0.000000
0.170200 0.170200 0.000000
0.596600 0.170200 0.000000
2.034000 0.170200 0.000000
6.881000 0.170200 0.000000
23.250000 0.170200 0.000000
0.000000 0.596600 0.000000
0.007157 0.596600 0.000000
0.044430 0.596600 0.000000
0.170200 0.596600 0.000000
0.596600 0.596600 0.000000
2.034000 0.596600 0.000000
6.881000 0.596600 0.000000
23.250000 0.596600 0.000000
0.000000 2.034000 0.000000
0.007157 2.034000 0.000000
0.044430 2.034000 0.000000
0.170200 2.034000 0.000000
0.596600 2.034000 0.000000
2.034000 2.034000 0.000000
6.881000 2.034000 0.000000
23.250000 2.034000 0.000000
0.000000 6.881000 0.000000
0.007157 6.881000 0.000000
0.044430 6.881000 0.000000
0.170200 6.881000 0.000000
0.596600 6.881000 0.000000
2.034000 6.881000 0.000000
6.881000 6.881000 0.000000
23.250000 6.881000 0.000000
0.000000 23.250000 0.000000
0.007157 23.250000 0.000000
0.044430 23.250000 0.000000
0.170200 23.250000 0.000000
0.596600 23.250000 0.000000
2.034000 23.250000 0.000000
6.881000 23.250000 0.000000
23.250000 23.250000 0.000000
0.000000 0.000000 0.007157
0.007157 0.000000 0.007157
0.044430 0.000000 0.007157
0.170200 0.000000 0.007157
0.596600 0.000000 0.007157
2.034000 0.000000 0.007157
6.881000 0.000000 0.007157
23.250000 0.000000 0.007157
0.000000 0.007157 0.007157
0.007157 0.007157 0.007157
0.044430 0.007157 0.007157
0.170200 0.007157 0.007157
0.596600 0.007157 0.007157
2.034000 0.007157 0.007157
6.881000 0.007157 0.007157
23.250000 0.007157 0.007157
0.000000 0.044430 0.007157
0.007157 0.044430 0.007157
0.044430 0.044430 0.007157
0.170200 0.044430 0.007157
0.596600 0.044430 0.007157
2.034000 0.044430 0.007157
6.881000 0.044430 0.007157
23.250000 0.044430 0.007157
0.000000 0.170200 0.007157
0.007157 0.170200 0.007157
0.044430 0.170200 0.007157
0.170200 0.170200 0.007157
0.596600 0.170200 0.007157
2.034000 0.170200 0.007157
6.881000 0.170200 0.007157
23.250000 0.170200 0.007157
0.000000 0.596600 0.007157
0.007157 0.596600 0.007157
0.044430 0.596600 0.007157
0.170200 0.596600 0.007157
0.596600 0.596600 0.007157
2.034000 0.596600 0.007157
6.881000 0.596600 0.007157
23.250000 0.596600 0.007157
0.000000 2.034000 0.007157
0.007157 2.034000 0.007157
0.044430 2.034000 0.007157
0.170200 2.034000 0.007157
0.596600 2.034000 0.007157
2.034000 2.034000 0.007157
6.881000 2.034000 0.007157
23.250000 2.034000 0.007157
0.000000 6.881000 0.007157
0.007157 6.881000 0.007157
0.044430 6.881000 0.007157
0.170200 6.881000 0.007157
0.596600 6.881000 0.007157
2.034000 6.881000 0.007157
6.881000 6.881000 0.007157
23.250000 6.881000 0.007157
0.000000 23.250000 0.007157
0.007157 23.250000 0.007157
0.044430 23.250000 0.007157
0.170200 23.250000 0.007157
0.596600 23.250000 0.007157
2.034000 23.250000 0.007157
6.881000 23.250000 0.007157
23.250000 23.250000 0.007157
0.000000 0.000000 0.044430
0.007157 0.000000 0.044430
0.044430 0.000000 0.044430
0.170200 0.000000 0.044430
0.596600 0.000000 0.044430
2.034000 0.000000 0.044430
6.881000 0.000000 0.044430
23.250000 0.000000 0.044430
0.000000 0.007157 0.044430
0.007157 0.007157 0.044430
0.044430 0.007157 0.044430
0.170200 0.007157 0.044430
0.596600 0.007157 0.044430
2.034000 0.007157 0.044430
6.881000 0.007157 0.044430
23.250000 0.007157 0.044430
0.000000 0.044430 0.044430
0.007157 0.044430 0.044430
0.044430 0.044430 0.044430
0.170200 0.044430 0.044430
0.596600 0.044430 0.044430
2.034000 0.044430 0.044430
6.881000 0.044430 0.044430
23.250000 0.044430 0.044430
0.000000 0.170200 0.044430
0.007157 0.170200 0.044430
0.044430 0.170200 0.044430
0.170200 0.170200 0.044430
0.596600 0.170200 0.044430
2.034000 0.170200 0.044430
6.881000 0.170200 0.044430
23.250000 0.170200 0.044430
0.000000 0.596600 0.044430
0.007157 0.596600 0.044430
0.044430 0.596600 0.044430
0.170200 0.596600 0.044430
0.596600 0.596600 0.044430
2.034000 0.596600 0.044430
6.881000 0.596600 0.044430
23.250000 0.596600 0.044430
0.000000 2.034000 0.044430
0.007157 2.034000 0.044430
0.044430 2.034000 0.044430
0.170200 2.034000 0.044430
0.596600 2.034000 0.044430
2.034000 2.034000 0.044430
6.881000 2.034000 0.044430
23.250000 2.034000 0.044430
0.000000 6.881000 0.044430
0.007157 6.881000 0.044430
0.044430 6.881000 0.044430
0.170200 6.881000 0.044430
0.596600 6.881000 0.044430
2.034000 6.881000 0.044430
6.881000 6.881000 0.044430
23.250000 6.881000 0.044430
0.000000 23.250000 0.044430
0.007157 23.250000 0.044430
0.044430 23.250000 0.044430
0.170200 23.250000 0.044430
0.596600 23.250000 0.044430
2.034000 23.250000 0.044430
6.881000 23.250000 0.044430
23.250000 23.250000 0.044430
0.000000 0.000000 0.170200
0.007157 0.000000 0.170200
0.044430 0.000000 0.170200
0.170200 0.000000 0.170200
0.596600 0.000000 0.170200
2.034000 0.000000 0.170200
6.881000 0.000000 0.170200
23.250000 0.000000 0.170200
0.000000 0.007157 0.170200
0.007157 0.007157 0.170200
0.044430 0.007157 0.170200
0.170200 0.007157 0.170200
0.596600 0.007157 0.170200
2.034000 0.007157 0.170200
6.881000 0.007157 0.170200
23.250000 0.007157 0.170200
0.000000 0.044430 0.170200
0.007157 0.044430 0.170200
0.044430 0.044430 0.170200
0.170200 0.044430 0.170200
0.596600 0.044430 0.170200
2.034000 0.044430 0.170200
6.881000 0.044430 0.170200
23.250000 0.044430 0.170200
0.000000 0.170200 0.170200
0.007157 0.170200 0.170200
0.044430 0.170200 0.170200
0.170200 0.170200 0.170200
0.596600 0.170200 0.170200
2.034000 0.170200 0.170200
6.881000 0.170200 0.170200
23.250000 0.170200 0.170200
0.000000 0.596600 0.170200
0.007157 0.596600 0.170200
0.044430 0.596600 0.170200
0.170200 0.596600 0.170200
0.596600 0.596600 0.170200
2.034000 0.596600 0.170200
6.881000 0.596600 0.170200
23.250000 0.596600 0.170200
0.000000 2.034000 0.170200
0.007157 2.034000 0.170200
0.044430 2.034000 0.170200
0.170200 2.034000 0.170200
0.596600 2.034000 0.170200
2.034000 2.034000 0.170200
6.881000 2.034000 0.170200
23.250000 2.034000 0.170200
0.000000 6.881000 0.170200
0.007157 6.881000 0.170200
0.044430 6.881000 0.170200
0.170200 6.881000 0.170200
0.596600 6.881000 0.170200
2.034000 6.881000 0.170200
6.881000 6.881000 0.170200
23.250000 6.881000 0.170200
0.000000 23.250000 0.170200
0.007157 23.250000 0.170200
0.044430 23.250000 0.170200
0.170200 23.250000 0.170200
0.596600 23.250000 0.170200
2.034000 23.250000 0.170200
6.881000 23.250000 0.170200
23.250000 23.250000 0.170200
0.000000 0.000000 0.596600
0.007157 0.000000 0.596600
0.044430 0.000000 0.596600
0.170200 0.000000 0.596600
0.596600 0.000000 0.596600
2.034000 0.000000 0.596600
6.881000 0.000000 0.596600
23.250000 0.000000 0.596600
0.000000 0.007157 0.596600
0.007157 0.007157 0.596600
0.044430 0.007157 0.596600
0.170200 0.007157 0.596600
0.596600 0.007157 0.596600
2.034000 0.007157 0.596600
6.881000 0.007157 0.596600
23.250000 0.007157 0.596600
0.000000 0.044430 0.596600
0.007157 0.044430 0.596600
0.044430 0.044430 0.596600
0.170200 0.044430 0.596600
0.596600 0.044430 0.596600
2.034000 0.044430 0.596600
6.881000 0.044430 0.596600
23.250000 0.044430 0.596600
0.000000 0.170200 0.596600
0.007157 0.170200 0.596600
0.044430 0.170200 0.596600
0.170200 0.170200 0.596600
0.596600 0.170200 0.596600
2.034000 0.170200 0.596600
6.881000 0.170200 0.596600
23.250000 0.170200 0.596600
0.000000 0.596600 0.596600
0.007157 0.596600 0.596600
0.044430 0.596600 0.596600
0.170200 0.596600 0.596600
0.596600 0.596600 0.596600
2.034000 0.596600 0.596600
6.881000 0.596600 0.596600
23.250000 0.596600 0.596600
0.000000 2.034000 0.596600
0.007157 2.034000 0.596600
0.044430 2.034000 0.596600
0.170200 2.034000 0.596600
0.596600 2.034000 0.596600
2.034000 2.034000 0.596600
6.881000 2.034000 0.596600
23.250000 2.034000 0.596600
0.000000 6.881000 0.596600
0.007157 6.881000 0.596600
0.044430 6.881000 0.596600
0.170200 6.881000 0.596600
0.596600 6.881000 0.596600
2.034000 6.881000 0.596600
6.881000 6.881000 0.596600
23.250000 6.881000 0.596600
0.000000 23.250000 0.596600
0.007157 23.250000 0.596600
0.044430 23.250000 0.596600
0.170200 23.250000 0.596600
0.596600 23.250000 0.596600
2.034000 23.250000 0.596600
6.881000 23.250000 0.596600
23.250000 23.250000 0.596600
0.000000 0.000000 2.034000
0.007157 0.000000 2.034000
0.044430 0.000000 2.034000
0.170200 0.000000 2.034000
0.596600 0.000000 2.034000
2.034000 0.000000 2.034000
6.881000 0.000000 2.034000
23.250000 0.000000 2.034000
0.000000 0.007157 2.034000
0.007157 0.007157 2.034000
0.044430 0.007157 2.034000
0.170200 0.007157 2.034000
0.596600 0.007157 2.034000
2.034000 0.007157 2.034000
6.881000 0.007157 2.034000
23.250000 0.007157 2.034000
0.000000 0.044430 2.034000
0.007157 0.044430 2.034000
0.044430 0.044430 2.034000
0.170200 0.044430 2.034000
0.596600 0.044430 2.034000
2.034000 0.044430 2.034000
6.881000 0.044430 2.034000
23.250000 0.044430 2.034000
0.000000 0.170200 2.034000
0.007157 0.170200 2.034000
0.044430 0.170200 2.034000
0.170200 0.170200 2.034000
0.596600 0.170200 2.034000
2.034000 0.170200 2.034000
6.881000 0.170200 2.034000
23.250000 0.170200 2.034000
0.000000 0.596600 2.034000
0.007157 0.596600 2.034000
0.044430 0.596600 2.034000
0.170200 0.596600 2.034000
0.596600 0.596600 2.034000
2.034000 0.596600 2.034000
6.881000 0.596600 2.034000
23.250000 0.596600 2.034000
0.000000 2.034000 2.034000
0.007157 2.034000 2.034000
0.044430 2.034000 2.034000
0.170200 2.034000 2.034000
0.596600 2.034000 2.034000
2.034000 2.034000 2.034000
6.881000 2.034000 2.034000
23.250000 2.034000 2.034000
0.000000 6.881000 2.034000
0.007157 6.881000 2.034000
0.044430 6.881000 2.034000
0.170200 6.881000 2.034000
0.596600 6.881000 2.034000
2.034000 6.881000 2.034000
6.881000 6.881000 2.034000
23.250000 6.881000 2.034000
0.000000 23.250000 2.034000
0.007157 23.250000 2.034000
0.044430 23.250000 2.034000
0.170200 23.250000 2.034000
0.596600 23.250000 2.034000
2.034000 23.250000 2.034000
6.881000 23.250000 2.034000
23.250000 23.250000 2.034000
0.000000 0.000000 6.881000
0.007157 0.000000 6.881000
0.044430 0.000000 6.881000
0.170200 0.000000 6.881000
0.596600 0.000000 6.881000
2.034000 0.000000 6.881000
6.881000 0.000000 6.881000
23.250000 0.000000 6.881000
0.000000 0.007157 6.881000
0.007157 0.007157 6.881000
0.044430 0.007157 6.881000
0.170200 0.007157 6.881000
0.596600 0.007157 6.881000
2.034000 0.007157 6.881000
6.881000 0.007157 6.881000
23.250000 0.007157 6.881000
0.000000 0.044430 6.881000
0.007157 0.044430 6.881000
0.044430 0.044430 6.881000
0.170200 0.044430 6.881000
0.596600 0.044430 6.881000
2.034000 0.044430 6.881000
6.881000 0.044430 6.881000
23.250000 0.044430 6.881000
0.000000 0.170200 6.881000
0.007157 0.170200 6.881000
0.044430 0.170200 6.881000
0.170200 0.170200 6.881000
0.596600 0.170200 6.881000
2.034000 0.170200 6.881000
6.881000 0.170200 6.881000
23.250000 0.170200 6.881000
0.000000 0.596600 6.881000
0.007157 0.596600 6.881000
0.044430 0.596600 6.881000
0.170200 0.596600 6.881000
0.596600 0.596600 6.881000
2.034000 0.596600 6.881000
6.881000 0.596600 6.881000
23.250000 0.596600 6.881000
0.000000 2.034000 6.881000
0.007157 2.034000 6.881000
0.044430 2.034000 6.881000
0.170200 2.034000 6.881000
0.596600 2.034000 6.881000
2.034000 2.034000 6.881000
6.881000 2.034000 6.881000
23.250000 2.034000 6.881000
0.000000 6.881000 6.881000
0.007157 6.881000 6.881000
0.044430 6.881000 6.881000
0.170200 6.881000 6.881000
0.596600 6.881000 6.881000
2.034000 6.881000 6.881000
6.881000 6.881000 6.881000
23.250000 6.881000 6.881000
0.000000 23.250000 6.881000
0.007157 23.250000 6.881000
0.044430 23.250000 6.881000
0.170200 23.250000 6.881000
0.596600 23.250000 6.881000
2.034000 23.250000 6.881000
6.881000 23.250000 6.881000
23.250000 23.250000 6.881000
0.000000 0.000000 23.250000
0.007157 0.000000 23.250000
0.044430 0.000000 23.250000
0.170200 0.000000 23.250000
0.596600 0.000000 23.250000
2.034000 0.000000 23.250000
6.881000 0.000000 23.250000
23.250000 0.000000 23.250000
0.000000 0.007157 23.250000
0.007157 0.007157 23.250000
0.044430 0.007157 23.250000
0.170200 0.007157 23.250000
0.596600 0.007157 23.250000
2.034000 0.007157 23.250000
6.881000 0.007157 23.250000
23.250000 0.007157 23.250000
0.000000 0.044430 23.250000
0.007157 0.044430 23.250000
0.044430 0.044430 23.250000
0.170200 0.044430 23.250000
0.596600 0.044430 23.250000
2.034000 0.044430 23.250000
6.881000 0.044430 23.250000
23.250000 0.044430 23.250000
0.000000 0.170200 23.250000
0.007157 0.170200 23.250000
0.044430 0.170200 23.250000
0.170200 0.170200 23.250000
0.596600 0.170200 23.250000
2.034000 0.170200 23.250000
6.881000 0.170200 23.250000
23.250000 0.170200 23.250000
0.000000 0.596600 23.250000
0.007157 0.596600 23.250000
0.044430 0.596600 23.250000
0.170200 0.596600 23.250000
0.596600 0.596600 23.250000
2.034000 0.596600 23.250000
6.881000 0.596600 23.250000
23.250000 0.596600 23.250000
0.000000 2.034000 23.250000
0.007157 2.034000 23.250000
0.044430 2.034000 23.250000
0.170200 2.034000 23.250000
0.596600 2.034000 23.250000
2.034000 2.034000 23.250000
6.881000 2.034000 23.250000
23.250000 2.034000 23.250000
0.000000 6.881000 23.250000
0.007157 6.881000 23.250000
0.044430 6.881000 23.250000
0.170200 6.881000 23.250000
0.596600 6.881000 23.250000
2.034000 6.881000 23.250000
6.881000 6.881000 23.250000
23.250000 6.881000 23.250000
0.000000 23.250000 23.250000
0.007157 23.250000 23.250000
0.044430 23.250000 23.250000
0.170200 23.250000 23.250000
0.596600 23.250000 23.250000
2.034000 23.250000 23.250000
6.881000 23.250000 23.250000
23.250000 23.250000 23.250000
