unity projects/render_random/Assets/identity.cube
TITLE "identity.cube"
LUT_3D_SIZE 5
DOMAIN_MIN 0.000000 0.000000 0.000000
DOMAIN_MAX 0.903226 0.903226 0.903226
0.000000 0.000000 0.000000
0.030490 0.000000 0.000000
0.320900 0.000000 0.000000
2.759000 0.000000 0.000000
23.250000 0.000000 0.000000
0.000000 0.030490 0.000000
0.030490 0.030490 0.000000
0.320900 0.030490 0.000000
2.759000 0.030490 0.000000
23.250000 0.030490 0.000000
0.000000 0.320900 0.000000
0.030490 0.320900 0.000000
0.320900 0.320900 0.000000
2.759000 0.320900 0.000000
23.250000 0.320900 0.000000
0.000000 2.759000 0.000000
0.030490 2.759000 0.000000
0.320900 2.759000 0.000000
2.759000 2.759000 0.000000
23.250000 2.759000 0.000000
0.000000 23.250000 0.000000
0.030490 23.250000 0.000000
0.320900 23.250000 0.000000
2.759000 23.250000 0.000000
23.250000 23.250000 0.000000
0.000000 0.000000 0.030490
0.030490 0.000000 0.030490
0.320900 0.000000 0.030490
2.759000 0.000000 0.030490
23.250000 0.000000 0.030490
0.000000 0.030490 0.030490
0.030490 0.030490 0.030490
0.320900 0.030490 0.030490
2.759000 0.030490 0.030490
23.250000 0.030490 0.030490
0.000000 0.320900 0.030490
0.030490 0.320900 0.030490
0.320900 0.320900 0.030490
2.759000 0.320900 0.030490
23.250000 0.320900 0.030490
0.000000 2.759000 0.030490
0.030490 2.759000 0.030490
0.320900 2.759000 0.030490
2.759000 2.759000 0.030490
23.250000 2.759000 0.030490
0.000000 23.250000 0.030490
0.030490 23.250000 0.030490
0.320900 23.250000 0.030490
2.759000 23.250000 0.030490
23.250000 23.250000 0.030490
0.000000 0.000000 0.320900
0.030490 0.000000 0.320900
0.320900 0.000000 0.320900
2.759000 0.000000 0.320900
23.250000 0.000000 0.320900
0.000000 0.030490 0.320900
0.030490 0.030490 0.320900
0.320900 0.030490 0.320900
2.759000 0.030490 0.320900
23.250000 0.030490 0.320900
0.000000 0.320900 0.320900
0.030490 0.320900 0.320900
0.320900 0.320900 0.320900
2.759000 0.320900 0.320900
23.250000 0.320900 0.320900
0.000000 2.759000 0.320900
0.030490 2.759000 0.320900
0.320900 2.759000 0.320900
2.759000 2.759000 0.320900
23.250000 2.759000 0.320900
0.000000 23.250000 0.320900
0.030490 23.250000 0.320900
0.320900 23.250000 0.320900
2.759000 23.250000 0.320900
23.250000 23.250000 0.320900
0.000000 0.000000 2.759000
0.030490 0.000000 2.759000
0.320900 0.000000 2.759000
2.759000 0.000000 2.759000
23.250000 0.000000 2.759000
0.000000 0.030490 2.759000
0.030490 0.030490 2.759000
0.320900 0.030490 2.759000
2.759000 0.030490 2.759000
23.250000 0.030490 2.759000
0.000000 0.320900 2.759000
0.030490 0.320900 2.759000
0.320900 0.320900 2.759000
2.759000 0.320900 2.759000
23.250000 0.320900 2.759000
0.000000 2.759000 2.759000
0.030490 2.759000 2.759000
0.320900 2.759000 2.759000
2.759000 2.759000 2.759000
23.250000 2.759000 2.759000
0.000000 23.250000 2.759000
0.030490 23.250000 2.759000
0.320900 23.250000 2.759000
2.759000 23.250000 2.759000
23.250000 23.250000 2.759000
0.000000 0.000000 23.250000
0.030490 0.000000 23.250000
0.320900 0.000000 23.250000
2.759000 0.000000 23.250000
23.250000 0.000000 23.250000
0.000000 0.030490 23.250000
0.030490 0.030490 23.250000
0.320900 0.030490 23.250000
2.759000 0.030490 23.250000
23.250000 0.030490 23.250000
0.000000 0.320900 23.250000
0.030490 0.320900 23.250000
0.320900 0.320900 23.250000
2.759000 0.320900 23.250000
23.250000 0.320900 23.250000
0.000000 2.759000 23.250000
0.030490 2.759000 23.250000
0.320900 2.759000 23.250000
2.759000 2.759000 23.250000
23.250000 2.759000 23.250000
0.000000 23.250000 23.250000
0.030490 23.250000 23.250000
0.320900 23.250000 23.250000
2.759000 23.250000 23.250000
23.250000 23.250000 23.250000
