unity projects/render_random/Assets/sawtooth.cube
TITLE "sawtooth.cube"
LUT_3D_SIZE 32
DOMAIN_MIN 0.0 0.0 0.0
DOMAIN_MAX 1.0 1.0 1.0
0.100000 0.100000 0.100000
0.900000 0.100000 0.100000
0.100000 0.100000 0.100000
0.900000 0.100000 0.100000
0.100000 0.100000 0.100000
0.900000 0.100000 0.100000
0.100000 0.100000 0.100000
0.900000 0.100000 0.100000
0.100000 0.100000 0.100000
0.900000 0.100000 0.100000
0.100000 0.100000 0.100000
0.900000 0.100000 0.100000
0.100000 0.100000 0.100000
0.900000 0.100000 0.100000
0.100000 0.100000 0.100000
0.900000 0.100000 0.100000
0.100000 0.100000 0.100000
0.900000 0.100000 0.100000
0.100000 0.100000 0.100000
0.900000 0.100000 0.100000
0.100000 0.100000 0.100000
0.900000 0.100000 0.100000
0.100000 0.100000 0.100000
0.900000 0.100000 0.100000
0.100000 0.100000 0.100000
0.900000 0.100000 0.100000
0.100000 0.100000 0.100000
0.900000 0.100000 0.100000
0.100000 0.100000 0.100000
0.900000 0.100000 0.100000
0.100000 0.100000 0.100000
0.900000 0.100000 0.100000
0.100000 0.900000 0.100000
0.900000 0.900000 0.100000
0.100000 0.900000 0.100000
0.900000 0.900000 0.100000
0.100000 0.900000 0.100000
0.900000 0.900000 0.100000
0.100000 0.900000 0.100000
0.900000 0.900000 0.100000
0.100000 0.900000 0.100000
0.900000 0.900000 0.100000
0.100000 0.900000 0.100000
0.900000 0.900000 0.100000
0.100000 0.900000 0.100000
0.900000 0.900000 0.100000
0.100000 0.900000 0.100000
0.900000 0.900000 0.100000
0.100000 0.900000 0.100000
0.900000 0.900000 0.100000
0.100000 0.900000 0.100000
0.900000 0.900000 0.100000
0.100000 0.900000 0.100000
0.900000 0.900000 0.100000
0.100000 0.900000 0.100000
0.900000 0.900000 0.100000
0.100000 0.900000 0.100000
0.900000 0.900000 0.100000
0.100000 0.900000 0.100000
0.900000 0.900000 0.100000
0.100000 0.900000 0.100000
0.900000 0.900000 0.100000
0.100000 0.900000 0.100000
0.900000 0.900000 0.100000
0.100000 0.100000 0.100000
0.900000 0.100000 0.100000
0.100000 0.100000 0.100000
0.900000 0.100000 0.100000
0.100000 0.100000 0.100000
0.900000 0.100000 0.100000
0.100000 0.100000 0.100000
0.900000 0.100000 0.100000
0.100000 0.100000 0.100000
0.900000 0.100000 0.100000
0.100000 0.100000 0.100000
0.900000 0.100000 0.100000
0.100000 0.100000 0.100000
0.900000 0.100000 0.100000
0.100000 0.100000 0.100000
0.900000 0.100000 0.100000
0.100000 0.100000 0.100000
0.900000 0.100000 0.100000
0.100000 0.100000 0.100000
0.900000 0.100000 0.100000
0.100000 0.100000 0.100000
0.900000 0.100000 0.100000
0.100000 0.100000 0.100000
0.900000 0.100000 0.100000
0.100000 0.100000 0.100000
0.900000 0.100000 0.100000
0.100000 0.100000 0.100000
0.900000 0.100000 0.100000
0.100000 0.100000 0.100000
0.900000 0.100000 0.100000
0.100000 0.100000 0.100000
0.900000 0.100000 0.100000
0.100000 0.900000 0.100000
0.900000 0.900000 0.100000
0.100000 0.900000 0.100000
0.900000 0.900000 0.100000
0.100000 0.900000 0.100000
0.900000 0.900000 0.100000
0.100000 0.900000 0.100000
0.900000 0.900000 0.100000
0.100000 0.900000 0.100000
0.900000 0.900000 0.100000
0.100000 0.900000 0.100000
0.900000 0.900000 0.100000
0.100000 0.900000 0.100000
0.900000 0.900000 0.100000
0.100000 0.900000 0.100000
0.900000 0.900000 0.100000
0.100000 0.900000 0.100000
0.900000 0.900000 0.100000
0.100000 0.900000 0.100000
0.900000 0.900000 0.100000
0.100000 0.900000 0.100000
0.900000 0.900000 0.100000
0.100000 0.900000 0.100000
0.900000 0.900000 0.100000
0.100000 0.900000 0.100000
0.900000 0.900000 0.100000
0.100000 0.900000 0.100000
0.900000 0.900000 0.100000
0.100000 0.900000 0.100000
0.900000 0.900000 0.100000
0.100000 0.900000 0.100000
0.900000 0.900000 0.100000
0.100000 0.100000 0.100000
0.900000 0.100000 0.100000
0.100000 0.100000 0.100000
0.900000 0.100000 0.100000
0.100000 0.100000 0.100000
0.900000 0.100000 0.100000
0.100000 0.100000 0.100000
0.900000 0.100000 0.100000
0.100000 0.100000 0.100000
0.900000 0.100000 0.100000
0.100000 0.100000 0.100000
0.900000 0.100000 0.100000
0.100000 0.100000 0.100000
0.900000 0.100000 0.100000
0.100000 0.100000 0.100000
0.900000 0.100000 0.100000
0.100000 0.100000 0.100000
0.900000 0.100000 0.100000
0.100000 0.100000 0.100000
0.900000 0.100000 0.100000
0.100000 0.100000 0.100000
0.900000 0.100000 0.100000
0.100000 0.100000 0.100000
0.900000 0.100000 0.100000
0.100000 0.100000 0.100000
0.900000 0.100000 0.100000
0.100000 0.100000 0.100000
0.900000 0.100000 0.100000
0.100000 0.100000 0.100000
0.900000 0.100000 0.100000
0.100000 0.100000 0.100000
0.900000 0.100000 0.100000
0.100000 0.900000 0.100000
0.900000 0.900000 0.100000
0.100000 0.900000 0.100000
0.900000 0.900000 0.100000
0.100000 0.900000 0.100000
0.900000 0.900000 0.100000
0.100000 0.900000 0.100000
0.900000 0.900000 0.100000
0.100000 0.900000 0.100000
0.900000 0.900000 0.100000
0.100000 0.900000 0.100000
0.900000 0.900000 0.100000
0.100000 0.900000 0.100000
0.900000 0.900000 0.100000
0.100000 0.900000 0.100000
0.900000 0.900000 0.100000
0.100000 0.900000 0.100000
0.900000 0.900000 0.100000
0.100000 0.900000 0.100000
0.900000 0.900000 0.100000
0.100000 0.900000 0.100000
0.900000 0.900000 0.100000
0.100000 0.900000 0.100000
0.900000 0.900000 0.100000
0.100000 0.900000 0.100000
0.900000 0.900000 0.100000
0.100000 0.900000 0.100000
0.900000 0.900000 0.100000
0.100000 0.900000 0.100000
0.900000 0.900000 0.100000
0.100000 0.900000 0.100000
0.900000 0.900000 0.100000
0.100000 0.100000 0.100000
0.900000 0.100000 0.100000
0.100000 0.100000 0.100000
0.900000 0.100000 0.100000
0.100000 0.100000 0.100000
0.900000 0.100000 0.100000
0.100000 0.100000 0.100000
0.900000 0.100000 0.100000
0.100000 0.100000 0.100000
0.900000 0.100000 0.100000
0.100000 0.100000 0.100000
0.900000 0.100000 0.100000
0.100000 0.100000 0.100000
0.900000 0.100000 0.100000
0.100000 0.100000 0.100000
0.900000 0.100000 0.100000
0.100000 0.100000 0.100000
0.900000 0.100000 0.100000
0.100000 0.100000 0.100000
0.900000 0.100000 0.100000
0.100000 0.100000 0.100000
0.900000 0.100000 0.100000
0.100000 0.100000 0.100000
0.900000 0.100000 0.100000
0.100000 0.100000 0.100000
0.900000 0.100000 0.100000
0.100000 0.100000 0.100000
0.900000 0.100000 0.100000
0.100000 0.100000 0.100000
0.900000 0.100000 0.100000
0.100000 0.100000 0.100000
0.900000 0.100000 0.100000
0.100000 0.900000 0.100000
0.900000 0.900000 0.100000
0.100000 0.900000 0.100000
0.900000 0.900000 0.100000
0.100000 0.900000 0.100000
0.900000 0.900000 0.100000
0.100000 0.900000 0.100000
0.900000 0.900000 0.100000
0.100000 0.900000 0.100000
0.900000 0.900000 0.100000
0.100000 0.900000 0.100000
0.900000 0.900000 0.100000
0.100000 0.900000 0.100000
0.900000 0.900000 0.100000
0.100000 0.900000 0.100000
0.900000 0.900000 0.100000
0.100000 0.900000 0.100000
0.900000 0.900000 0.100000
0.100000 0.900000 0.100000
0.900000 0.900000 0.100000
0.100000 0.900000 0.100000
0.900000 0.900000 0.100000
0.100000 0.900000 0.100000
0.900000 0.900000 0.100000
0.100000 0.900000 0.100000
0.900000 0.900000 0.100000
0.100000 0.900000 0.100000
0.900000 0.900000 0.100000
0.100000 0.900000 0.100000
0.900000 0.900000 0.100000
0.100000 0.900000 0.100000
0.900000 0.900000 0.100000
0.100000 0.100000 0.100000
0.900000 0.100000 0.100000
0.100000 0.100000 0.100000
0.900000 0.100000 0.100000
0.100000 0.100000 0.100000
0.900000 0.100000 0.100000
0.100000 0.100000 0.100000
0.900000 0.100000 0.100000
0.100000 0.100000 0.100000
0.900000 0.100000 0.100000
0.100000 0.100000 0.100000
0.900000 0.100000 0.100000
0.100000 0.100000 0.100000
0.900000 0.100000 0.100000
0.100000 0.100000 0.100000
0.900000 0.100000 0.100000
0.100000 0.100000 0.100000
0.900000 0.100000 0.100000
0.100000 0.100000 0.100000
0.900000 0.100000 0.100000
0.100000 0.100000 0.100000
0.900000 0.100000 0.100000
0.100000 0.100000 0.100000
0.900000 0.100000 0.100000
0.100000 0.100000 0.100000
0.900000 0.100000 0.100000
0.100000 0.100000 0.100000
0.900000 0.100000 0.100000
0.100000 0.100000 0.100000
0.900000 0.100000 0.100000
0.100000 0.100000 0.100000
0.900000 0.100000 0.100000
0.100000 0.900000 0.100000
0.900000 0.900000 0.100000
0.100000 0.900000 0.100000
0.900000 0.900000 0.100000
0.100000 0.900000 0.100000
0.900000 0.900000 0.100000
0.100000 0.900000 0.100000
0.900000 0.900000 0.100000
0.100000 0.900000 0.100000
0.900000 0.900000 0.100000
0.100000 0.900000 0.100000
0.900000 0.900000 0.100000
0.100000 0.900000 0.100000
0.900000 0.900000 0.100000
0.100000 0.900000 0.100000
0.900000 0.900000 0.100000
0.100000 0.900000 0.100000
0.900000 0.900000 0.100000
0.100000 0.900000 0.100000
0.900000 0.900000 0.100000
0.100000 0.900000 0.100000
0.900000 0.900000 0.100000
0.100000 0.900000 0.100000
0.900000 0.900000 0.100000
0.100000 0.900000 0.100000
0.900000 0.900000 0.100000
0.100000 0.900000 0.100000
0.900000 0.900000 0.100000
0.100000 0.900000 0.100000
0.900000 0.900000 0.100000
0.100000 0.900000 0.100000
0.900000 0.900000 0.100000
0.100000 0.100000 0.100000
0.900000 0.100000 0.100000
0.100000 0.100000 0.100000
0.900000 0.100000 0.100000
0.100000 0.100000 0.100000
0.900000 0.100000 0.100000
0.100000 0.100000 0.100000
0.900000 0.100000 0.100000
0.100000 0.100000 0.100000
0.900000 0.100000 0.100000
0.100000 0.100000 0.100000
0.900000 0.100000 0.100000
0.100000 0.100000 0.100000
0.900000 0.100000 0.100000
0.100000 0.100000 0.100000
0.900000 0.100000 0.100000
0.100000 0.100000 0.100000
0.900000 0.100000 0.100000
0.100000 0.100000 0.100000
0.900000 0.100000 0.100000
0.100000 0.100000 0.100000
0.900000 0.100000 0.100000
0.100000 0.100000 0.100000
0.900000 0.100000 0.100000
0.100000 0.100000 0.100000
0.900000 0.100000 0.100000
0.100000 0.100000 0.100000
0.900000 0.100000 0.100000
0.100000 0.100000 0.100000
0.900000 0.100000 0.100000
0.100000 0.100000 0.100000
0.900000 0.100000 0.100000
0.100000 0.900000 0.100000
0.900000 0.900000 0.100000
0.100000 0.900000 0.100000
0.900000 0.900000 0.100000
0.100000 0.900000 0.100000
0.900000 0.900000 0.100000
0.100000 0.900000 0.100000
0.900000 0.900000 0.100000
0.100000 0.900000 0.100000
0.900000 0.900000 0.100000
0.100000 0.900000 0.100000
0.900000 0.900000 0.100000
0.100000 0.900000 0.100000
0.900000 0.900000 0.100000
0.100000 0.900000 0.100000
0.900000 0.900000 0.100000
0.100000 0.900000 0.100000
0.900000 0.900000 0.100000
0.100000 0.900000 0.100000
0.900000 0.900000 0.100000
0.100000 0.900000 0.100000
0.900000 0.900000 0.100000
0.100000 0.900000 0.100000
0.900000 0.900000 0.100000
0.100000 0.900000 0.100000
0.900000 0.900000 0.100000
0.100000 0.900000 0.100000
0.900000 0.900000 0.100000
0.100000 0.900000 0.100000
0.900000 0.900000 0.100000
0.100000 0.900000 0.100000
0.900000 0.900000 0.100000
0.100000 0.100000 0.100000
0.900000 0.100000 0.100000
0.100000 0.100000 0.100000
0.900000 0.100000 0.100000
0.100000 0.100000 0.100000
0.900000 0.100000 0.100000
0.100000 0.100000 0.100000
0.900000 0.100000 0.100000
0.100000 0.100000 0.100000
0.900000 0.100000 0.100000
0.100000 0.100000 0.100000
0.900000 0.100000 0.100000
0.100000 0.100000 0.100000
0.900000 0.100000 0.100000
0.100000 0.100000 0.100000
0.900000 0.100000 0.100000
0.100000 0.100000 0.100000
0.900000 0.100000 0.100000
0.100000 0.100000 0.100000
0.900000 0.100000 0.100000
0.100000 0.100000 0.100000
0.900000 0.100000 0.100000
0.100000 0.100000 0.100000
0.900000 0.100000 0.100000
0.100000 0.100000 0.100000
0.900000 0.100000 0.100000
0.100000 0.100000 0.100000
0.900000 0.100000 0.100000
0.100000 0.100000 0.100000
0.900000 0.100000 0.100000
0.100000 0.100000 0.100000
0.900000 0.100000 0.100000
0.100000 0.900000 0.100000
0.900000 0.900000 0.100000
0.100000 0.900000 0.100000
0.900000 0.900000 0.100000
0.100000 0.900000 0.100000
0.900000 0.900000 0.100000
0.100000 0.900000 0.100000
0.900000 0.900000 0.100000
0.100000 0.900000 0.100000
0.900000 0.900000 0.100000
0.100000 0.900000 0.100000
0.900000 0.900000 0.100000
0.100000 0.900000 0.100000
0.900000 0.900000 0.100000
0.100000 0.900000 0.100000
0.900000 0.900000 0.100000
0.100000 0.900000 0.100000
0.900000 0.900000 0.100000
0.100000 0.900000 0.100000
0.900000 0.900000 0.100000
0.100000 0.900000 0.100000
0.900000 0.900000 0.100000
0.100000 0.900000 0.100000
0.900000 0.900000 0.100000
0.100000 0.900000 0.100000
0.900000 0.900000 0.100000
0.100000 0.900000 0.100000
0.900000 0.900000 0.100000
0.100000 0.900000 0.100000
0.900000 0.900000 0.100000
0.100000 0.900000 0.100000
0.900000 0.900000 0.100000
0.100000 0.100000 0.100000
0.900000 0.100000 0.100000
0.100000 0.100000 0.100000
0.900000 0.100000 0.100000
0.100000 0.100000 0.100000
0.900000 0.100000 0.100000
0.100000 0.100000 0.100000
0.900000 0.100000 0.100000
0.100000 0.100000 0.100000
0.900000 0.100000 0.100000
0.100000 0.100000 0.100000
0.900000 0.100000 0.100000
0.100000 0.100000 0.100000
0.900000 0.100000 0.100000
0.100000 0.100000 0.100000
0.900000 0.100000 0.100000
0.100000 0.100000 0.100000
0.900000 0.100000 0.100000
0.100000 0.100000 0.100000
0.900000 0.100000 0.100000
0.100000 0.100000 0.100000
0.900000 0.100000 0.100000
0.100000 0.100000 0.100000
0.900000 0.100000 0.100000
0.100000 0.100000 0.100000
0.900000 0.100000 0.100000
0.100000 0.100000 0.100000
0.900000 0.100000 0.100000
0.100000 0.100000 0.100000
0.900000 0.100000 0.100000
0.100000 0.100000 0.100000
0.900000 0.100000 0.100000
0.100000 0.900000 0.100000
0.900000 0.900000 0.100000
0.100000 0.900000 0.100000
0.900000 0.900000 0.100000
0.100000 0.900000 0.100000
0.900000 0.900000 0.100000
0.100000 0.900000 0.100000
0.900000 0.900000 0.100000
0.100000 0.900000 0.100000
0.900000 0.900000 0.100000
0.100000 0.900000 0.100000
0.900000 0.900000 0.100000
0.100000 0.900000 0.100000
0.900000 0.900000 0.100000
0.100000 0.900000 0.100000
0.900000 0.900000 0.100000
0.100000 0.900000 0.100000
0.900000 0.900000 0.100000
0.100000 0.900000 0.100000
0.900000 0.900000 0.100000
0.100000 0.900000 0.100000
0.900000 0.900000 0.100000
0.100000 0.900000 0.100000
0.900000 0.900000 0.100000
0.100000 0.900000 0.100000
0.900000 0.900000 0.100000
0.100000 0.900000 0.100000
0.900000 0.900000 0.100000
0.100000 0.900000 0.100000
0.900000 0.900000 0.100000
0.100000 0.900000 0.100000
0.900000 0.900000 0.100000
0.100000 0.100000 0.100000
0.900000 0.100000 0.100000
0.100000 0.100000 0.100000
0.900000 0.100000 0.100000
0.100000 0.100000 0.100000
0.900000 0.100000 0.100000
0.100000 0.100000 0.100000
0.900000 0.100000 0.100000
0.100000 0.100000 0.100000
0.900000 0.100000 0.100000
0.100000 0.100000 0.100000
0.900000 0.100000 0.100000
0.100000 0.100000 0.100000
0.900000 0.100000 0.100000
0.100000 0.100000 0.100000
0.900000 0.100000 0.100000
0.100000 0.100000 0.100000
0.900000 0.100000 0.100000
0.100000 0.100000 0.100000
0.900000 0.100000 0.100000
0.100000 0.100000 0.100000
0.900000 0.100000 0.100000
0.100000 0.100000 0.100000
0.900000 0.100000 0.100000
0.100000 0.100000 0.100000
0.900000 0.100000 0.100000
0.100000 0.100000 0.100000
0.900000 0.100000 0.100000
0.100000 0.100000 0.100000
0.900000 0.100000 0.100000
0.100000 0.100000 0.100000
0.900000 0.100000 0.100000
0.100000 0.900000 0.100000
0.900000 0.900000 0.100000
0.100000 0.900000 0.100000
0.900000 0.900000 0.100000
0.100000 0.900000 0.100000
0.900000 0.900000 0.100000
0.100000 0.900000 0.100000
0.900000 0.900000 0.100000
0.100000 0.900000 0.100000
0.900000 0.900000 0.100000
0.100000 0.900000 0.100000
0.900000 0.900000 0.100000
0.100000 0.900000 0.100000
0.900000 0.900000 0.100000
0.100000 0.900000 0.100000
0.900000 0.900000 0.100000
0.100000 0.900000 0.100000
0.900000 0.900000 0.100000
0.100000 0.900000 0.100000
0.900000 0.900000 0.100000
0.100000 0.900000 0.100000
0.900000 0.900000 0.100000
0.100000 0.900000 0.100000
0.900000 0.900000 0.100000
0.100000 0.900000 0.100000
0.900000 0.900000 0.100000
0.100000 0.900000 0.100000
0.900000 0.900000 0.100000
0.100000 0.900000 0.100000
0.900000 0.900000 0.100000
0.100000 0.900000 0.100000
0.900000 0.900000 0.100000
0.100000 0.100000 0.100000
0.900000 0.100000 0.100000
0.100000 0.100000 0.100000
0.900000 0.100000 0.100000
0.100000 0.100000 0.100000
0.900000 0.100000 0.100000
0.100000 0.100000 0.100000
0.900000 0.100000 0.100000
0.100000 0.100000 0.100000
0.900000 0.100000 0.100000
0.100000 0.100000 0.100000
0.900000 0.100000 0.100000
0.100000 0.100000 0.100000
0.900000 0.100000 0.100000
0.100000 0.100000 0.100000
0.900000 0.100000 0.100000
0.100000 0.100000 0.100000
0.900000 0.100000 0.100000
0.100000 0.100000 0.100000
0.900000 0.100000 0.100000
0.100000 0.100000 0.100000
0.900000 0.100000 0.100000
0.100000 0.100000 0.100000
0.900000 0.100000 0.100000
0.100000 0.100000 0.100000
0.900000 0.100000 0.100000
0.100000 0.100000 0.100000
0.900000 0.100000 0.100000
0.100000 0.100000 0.100000
0.900000 0.100000 0.100000
0.100000 0.100000 0.100000
0.900000 0.100000 0.100000
0.100000 0.900000 0.100000
0.900000 0.900000 0.100000
0.100000 0.900000 0.100000
0.900000 0.900000 0.100000
0.100000 0.900000 0.100000
0.900000 0.900000 0.100000
0.100000 0.900000 0.100000
0.900000 0.900000 0.100000
0.100000 0.900000 0.100000
0.900000 0.900000 0.100000
0.100000 0.900000 0.100000
0.900000 0.900000 0.100000
0.100000 0.900000 0.100000
0.900000 0.900000 0.100000
0.100000 0.900000 0.100000
0.900000 0.900000 0.100000
0.100000 0.900000 0.100000
0.900000 0.900000 0.100000
0.100000 0.900000 0.100000
0.900000 0.900000 0.100000
0.100000 0.900000 0.100000
0.900000 0.900000 0.100000
0.100000 0.900000 0.100000
0.900000 0.900000 0.100000
0.100000 0.900000 0.100000
0.900000 0.900000 0.100000
0.100000 0.900000 0.100000
0.900000 0.900000 0.100000
0.100000 0.900000 0.100000
0.900000 0.900000 0.100000
0.100000 0.900000 0.100000
0.900000 0.900000 0.100000
0.100000 0.100000 0.100000
0.900000 0.100000 0.100000
0.100000 0.100000 0.100000
0.900000 0.100000 0.100000
0.100000 0.100000 0.100000
0.900000 0.100000 0.100000
0.100000 0.100000 0.100000
0.900000 0.100000 0.100000
0.100000 0.100000 0.100000
0.900000 0.100000 0.100000
0.100000 0.100000 0.100000
0.900000 0.100000 0.100000
0.100000 0.100000 0.100000
0.900000 0.100000 0.100000
0.100000 0.100000 0.100000
0.900000 0.100000 0.100000
0.100000 0.100000 0.100000
0.900000 0.100000 0.100000
0.100000 0.100000 0.100000
0.900000 0.100000 0.100000
0.100000 0.100000 0.100000
0.900000 0.100000 0.100000
0.100000 0.100000 0.100000
0.900000 0.100000 0.100000
0.100000 0.100000 0.100000
0.900000 0.100000 0.100000
0.100000 0.100000 0.100000
0.900000 0.100000 0.100000
0.100000 0.100000 0.100000
0.900000 0.100000 0.100000
0.100000 0.100000 0.100000
0.900000 0.100000 0.100000
0.100000 0.900000 0.100000
0.900000 0.900000 0.100000
0.100000 0.900000 0.100000
0.900000 0.900000 0.100000
0.100000 0.900000 0.100000
0.900000 0.900000 0.100000
0.100000 0.900000 0.100000
0.900000 0.900000 0.100000
0.100000 0.900000 0.100000
0.900000 0.900000 0.100000
0.100000 0.900000 0.100000
0.900000 0.900000 0.100000
0.100000 0.900000 0.100000
0.900000 0.900000 0.100000
0.100000 0.900000 0.100000
0.900000 0.900000 0.100000
0.100000 0.900000 0.100000
0.900000 0.900000 0.100000
0.100000 0.900000 0.100000
0.900000 0.900000 0.100000
0.100000 0.900000 0.100000
0.900000 0.900000 0.100000
0.100000 0.900000 0.100000
0.900000 0.900000 0.100000
0.100000 0.900000 0.100000
0.900000 0.900000 0.100000
0.100000 0.900000 0.100000
0.900000 0.900000 0.100000
0.100000 0.900000 0.100000
0.900000 0.900000 0.100000
0.100000 0.900000 0.100000
0.900000 0.900000 0.100000
0.100000 0.100000 0.100000
0.900000 0.100000 0.100000
0.100000 0.100000 0.100000
0.900000 0.100000 0.100000
0.100000 0.100000 0.100000
0.900000 0.100000 0.100000
0.100000 0.100000 0.100000
0.900000 0.100000 0.100000
0.100000 0.100000 0.100000
0.900000 0.100000 0.100000
0.100000 0.100000 0.100000
0.900000 0.100000 0.100000
0.100000 0.100000 0.100000
0.900000 0.100000 0.100000
0.100000 0.100000 0.100000
0.900000 0.100000 0.100000
0.100000 0.100000 0.100000
0.900000 0.100000 0.100000
0.100000 0.100000 0.100000
0.900000 0.100000 0.100000
0.100000 0.100000 0.100000
0.900000 0.100000 0.100000
0.100000 0.100000 0.100000
0.900000 0.100000 0.100000
0.100000 0.100000 0.100000
0.900000 0.100000 0.100000
0.100000 0.100000 0.100000
0.900000 0.100000 0.100000
0.100000 0.100000 0.100000
0.900000 0.100000 0.100000
0.100000 0.100000 0.100000
0.900000 0.100000 0.100000
0.100000 0.900000 0.100000
0.900000 0.900000 0.100000
0.100000 0.900000 0.100000
0.900000 0.900000 0.100000
0.100000 0.900000 0.100000
0.900000 0.900000 0.100000
0.100000 0.900000 0.100000
0.900000 0.900000 0.100000
0.100000 0.900000 0.100000
0.900000 0.900000 0.100000
0.100000 0.900000 0.100000
0.900000 0.900000 0.100000
0.100000 0.900000 0.100000
0.900000 0.900000 0.100000
0.100000 0.900000 0.100000
0.900000 0.900000 0.100000
0.100000 0.900000 0.100000
0.900000 0.900000 0.100000
0.100000 0.900000 0.100000
0.900000 0.900000 0.100000
0.100000 0.900000 0.100000
0.900000 0.900000 0.100000
0.100000 0.900000 0.100000
0.900000 0.900000 0.100000
0.100000 0.900000 0.100000
0.900000 0.900000 0.100000
0.100000 0.900000 0.100000
0.900000 0.900000 0.100000
0.100000 0.900000 0.100000
0.900000 0.900000 0.100000
0.100000 0.900000 0.100000
0.900000 0.900000 0.100000
0.100000 0.100000 0.100000
0.900000 0.100000 0.100000
0.100000 0.100000 0.100000
0.900000 0.100000 0.100000
0.100000 0.100000 0.100000
0.900000 0.100000 0.100000
0.100000 0.100000 0.100000
0.900000 0.100000 0.100000
0.100000 0.100000 0.100000
0.900000 0.100000 0.100000
0.100000 0.100000 0.100000
0.900000 0.100000 0.100000
0.100000 0.100000 0.100000
0.900000 0.100000 0.100000
0.100000 0.100000 0.100000
0.900000 0.100000 0.100000
0.100000 0.100000 0.100000
0.900000 0.100000 0.100000
0.100000 0.100000 0.100000
0.900000 0.100000 0.100000
0.100000 0.100000 0.100000
0.900000 0.100000 0.100000
0.100000 0.100000 0.100000
0.900000 0.100000 0.100000
0.100000 0.100000 0.100000
0.900000 0.100000 0.100000
0.100000 0.100000 0.100000
0.900000 0.100000 0.100000
0.100000 0.100000 0.100000
0.900000 0.100000 0.100000
0.100000 0.100000 0.100000
0.900000 0.100000 0.100000
0.100000 0.900000 0.100000
0.900000 0.900000 0.100000
0.100000 0.900000 0.100000
0.900000 0.900000 0.100000
0.100000 0.900000 0.100000
0.900000 0.900000 0.100000
0.100000 0.900000 0.100000
0.900000 0.900000 0.100000
0.100000 0.900000 0.100000
0.900000 0.900000 0.100000
0.100000 0.900000 0.100000
0.900000 0.900000 0.100000
0.100000 0.900000 0.100000
0.900000 0.900000 0.100000
0.100000 0.900000 0.100000
0.900000 0.900000 0.100000
0.100000 0.900000 0.100000
0.900000 0.900000 0.100000
0.100000 0.900000 0.100000
0.900000 0.900000 0.100000
0.100000 0.900000 0.100000
0.900000 0.900000 0.100000
0.100000 0.900000 0.100000
0.900000 0.900000 0.100000
0.100000 0.900000 0.100000
0.900000 0.900000 0.100000
0.100000 0.900000 0.100000
0.900000 0.900000 0.100000
0.100000 0.900000 0.100000
0.900000 0.900000 0.100000
0.100000 0.900000 0.100000
0.900000 0.900000 0.100000
0.100000 0.100000 0.100000
0.900000 0.100000 0.100000
0.100000 0.100000 0.100000
0.900000 0.100000 0.100000
0.100000 0.100000 0.100000
0.900000 0.100000 0.100000
0.100000 0.100000 0.100000
0.900000 0.100000 0.100000
0.100000 0.100000 0.100000
0.900000 0.100000 0.100000
0.100000 0.100000 0.100000
0.900000 0.100000 0.100000
0.100000 0.100000 0.100000
0.900000 0.100000 0.100000
0.100000 0.100000 0.100000
0.900000 0.100000 0.100000
0.100000 0.100000 0.100000
0.900000 0.100000 0.100000
0.100000 0.100000 0.100000
0.900000 0.100000 0.100000
0.100000 0.100000 0.100000
0.900000 0.100000 0.100000
0.100000 0.100000 0.100000
0.900000 0.100000 0.100000
0.100000 0.100000 0.100000
0.900000 0.100000 0.100000
0.100000 0.100000 0.100000
0.900000 0.100000 0.100000
0.100000 0.100000 0.100000
0.900000 0.100000 0.100000
0.100000 0.100000 0.100000
0.900000 0.100000 0.100000
0.100000 0.900000 0.100000
0.900000 0.900000 0.100000
0.100000 0.900000 0.100000
0.900000 0.900000 0.100000
0.100000 0.900000 0.100000
0.900000 0.900000 0.100000
0.100000 0.900000 0.100000
0.900000 0.900000 0.100000
0.100000 0.900000 0.100000
0.900000 0.900000 0.100000
0.100000 0.900000 0.100000
0.900000 0.900000 0.100000
0.100000 0.900000 0.100000
0.900000 0.900000 0.100000
0.100000 0.900000 0.100000
0.900000 0.900000 0.100000
0.100000 0.900000 0.100000
0.900000 0.900000 0.100000
0.100000 0.900000 0.100000
0.900000 0.900000 0.100000
0.100000 0.900000 0.100000
