unity projects/render_random/Assets/sawtooth.cube
TITLE "sawtooth.cube"
LUT_3D_SIZE 5
DOMAIN_MIN 0.000000 0.000000 0.000000
DOMAIN_MAX 0.903226 0.903226 0.903226
0.100000 0.100000 0.100000
0.900000 0.100000 0.100000
0.100000 0.100000 0.100000
0.900000 0.100000 0.100000
0.100000 0.100000 0.100000
0.100000 0.900000 0.100000
0.900000 0.900000 0.100000
0.100000 0.900000 0.100000
0.900000 0.900000 0.100000
0.100000 0.900000 0.100000
0.100000 0.100000 0.100000
0.900000 0.100000 0.100000
0.100000 0.100000 0.100000
0.900000 0.100000 0.100000
0.100000 0.100000 0.100000
0.100000 0.900000 0.100000
0.900000 0.900000 0.100000
0.100000 0.900000 0.100000
0.900000 0.900000 0.100000
0.100000 0.900000 0.100000
0.100000 0.100000 0.100000
0.900000 0.100000 0.100000
0.100000 0.100000 0.100000
0.900000 0.100000 0.100000
0.100000 0.100000 0.100000
0.100000 0.100000 0.900000
0.900000 0.100000 0.900000
0.100000 0.100000 0.900000
0.900000 0.100000 0.900000
0.100000 0.100000 0.900000
0.100000 0.900000 0.900000
0.900000 0.900000 0.900000
0.100000 0.900000 0.900000
0.900000 0.900000 0.900000
0.100000 0.900000 0.900000
0.100000 0.100000 0.900000
0.900000 0.100000 0.900000
0.100000 0.100000 0.900000
0.900000 0.100000 0.900000
0.100000 0.100000 0.900000
0.100000 0.900000 0.900000
0.900000 0.900000 0.900000
0.100000 0.900000 0.900000
0.900000 0.900000 0.900000
0.100000 0.900000 0.900000
0.100000 0.100000 0.900000
0.900000 0.100000 0.900000
0.100000 0.100000 0.900000
0.900000 0.100000 0.900000
0.100000 0.100000 0.900000
0.100000 0.100000 0.100000
0.900000 0.100000 0.100000
0.100000 0.100000 0.100000
0.900000 0.100000 0.100000
0.100000 0.100000 0.100000
0.100000 0.900000 0.100000
0.900000 0.900000 0.100000
0.100000 0.900000 0.100000
0.900000 0.900000 0.100000
0.100000 0.900000 0.100000
0.100000 0.100000 0.100000
0.900000 0.100000 0.100000
0.100000 0.100000 0.100000
0.900000 0.100000 0.100000
0.100000 0.100000 0.100000
0.100000 0.900000 0.100000
0.900000 0.900000 0.100000
0.100000 0.900000 0.100000
0.900000 0.900000 0.100000
0.100000 0.900000 0.100000
0.100000 0.100000 0.100000
0.900000 0.100000 0.100000
0.100000 0.100000 0.100000
0.900000 0.100000 0.100000
0.100000 0.100000 0.100000
0.100000 0.100000 0.900000
0.900000 0.100000 0.900000
0.100000 0.100000 0.900000
0.900000 0.100000 0.900000
0.100000 0.100000 0.900000
0.100000 0.900000 0.900000
0.900000 0.900000 0.900000
0.100000 0.900000 0.900000
0.900000 0.900000 0.900000
0.100000 0.900000 0.900000
0.100000 0.100000 0.900000
0.900000 0.100000 0.900000
0.100000 0.100000 0.900000
0.900000 0.100000 0.900000
0.100000 0.100000 0.900000
0.100000 0.900000 0.900000
0.900000 0.900000 0.900000
0.100000 0.900000 0.900000
0.900000 0.900000 0.900000
0.100000 0.900000 0.900000
0.100000 0.100000 0.900000
0.900000 0.100000 0.900000
0.100000 0.100000 0.900000
0.900000 0.100000 0.900000
0.100000 0.100000 0.900000
0.100000 0.100000 0.100000
0.900000 0.100000 0.100000
0.100000 0.100000 0.100000
0.900000 0.100000 0.100000
0.100000 0.100000 0.100000
0.100000 0.900000 0.100000
0.900000 0.900000 0.100000
0.100000 0.900000 0.100000
0.900000 0.900000 0.100000
0.100000 0.900000 0.100000
0.100000 0.100000 0.100000
0.900000 0.100000 0.100000
0.100000 0.100000 0.100000
0.900000 0.100000 0.100000
0.100000 0.100000 0.100000
0.100000 0.900000 0.100000
0.900000 0.900000 0.100000
0.100000 0.900000 0.100000
0.900000 0.900000 0.100000
0.100000 0.900000 0.100000
0.100000 0.100000 0.100000
0.900000 0.100000 0.100000
0.100000 0.100000 0.100000
0.900000 0.100000 0.100000
0.100000 0.100000 0.100000
