unity projects/render_random/Assets/square.cube
TITLE "square.cube"
LUT_3D_SIZE 5
DOMAIN_MIN 0.000000 0.000000 0.000000
DOMAIN_MAX 0.903226 0.903226 0.903226
0.000000 0.000000 0.000000
0.000952 0.000000 0.000000
0.106733 0.000000 0.000000
7.612081 0.000000 0.000000
540.562500 0.000000 0.000000
0.000000 0.000952 0.000000
0.000952 0.000952 0.000000
0.106733 0.000952 0.000000
7.612081 0.000952 0.000000
540.562500 0.000952 0.000000
0.000000 0.106733 0.000000
0.000952 0.106733 0.000000
0.106733 0.106733 0.000000
7.612081 0.106733 0.000000
540.562500 0.106733 0.000000
0.000000 7.612081 0.000000
0.000952 7.612081 0.000000
0.106733 7.612081 0.000000
7.612081 7.612081 0.000000
540.562500 7.612081 0.000000
0.000000 540.562500 0.000000
0.000952 540.562500 0.000000
0.106733 540.562500 0.000000
7.612081 540.562500 0.000000
540.562500 540.562500 0.000000
0.000000 0.000000 0.000952
0.000952 0.000000 0.000952
0.106733 0.000000 0.000952
7.612081 0.000000 0.000952
540.562500 0.000000 0.000952
0.000000 0.000952 0.000952
0.000952 0.000952 0.000952
0.106733 0.000952 0.000952
7.612081 0.000952 0.000952
540.562500 0.000952 0.000952
0.000000 0.106733 0.000952
0.000952 0.106733 0.000952
0.106733 0.106733 0.000952
7.612081 0.106733 0.000952
540.562500 0.106733 0.000952
0.000000 7.612081 0.000952
0.000952 7.612081 0.000952
0.106733 7.612081 0.000952
7.612081 7.612081 0.000952
540.562500 7.612081 0.000952
0.000000 540.562500 0.000952
0.000952 540.562500 0.000952
0.106733 540.562500 0.000952
7.612081 540.562500 0.000952
540.562500 540.562500 0.000952
0.000000 0.000000 0.106733
0.000952 0.000000 0.106733
0.106733 0.000000 0.106733
7.612081 0.000000 0.106733
540.562500 0.000000 0.106733
0.000000 0.000952 0.106733
0.000952 0.000952 0.106733
0.106733 0.000952 0.106733
7.612081 0.000952 0.106733
540.562500 0.000952 0.106733
0.000000 0.106733 0.106733
0.000952 0.106733 0.106733
0.106733 0.106733 0.106733
7.612081 0.106733 0.106733
540.562500 0.106733 0.106733
0.000000 7.612081 0.106733
0.000952 7.612081 0.106733
0.106733 7.612081 0.106733
7.612081 7.612081 0.106733
540.562500 7.612081 0.106733
0.000000 540.562500 0.106733
0.000952 540.562500 0.106733
0.106733 540.562500 0.106733
7.612081 540.562500 0.106733
540.562500 540.562500 0.106733
0.000000 0.000000 7.612081
0.000952 0.000000 7.612081
0.106733 0.000000 7.612081
7.612081 0.000000 7.612081
540.562500 0.000000 7.612081
0.000000 0.000952 7.612081
0.000952 0.000952 7.612081
0.106733 0.000952 7.612081
7.612081 0.000952 7.612081
540.562500 0.000952 7.612081
0.000000 0.106733 7.612081
0.000952 0.106733 7.612081
0.106733 0.106733 7.612081
7.612081 0.106733 7.612081
540.562500 0.106733 7.612081
0.000000 7.612081 7.612081
0.000952 7.612081 7.612081
0.106733 7.612081 7.612081
7.612081 7.612081 7.612081
540.562500 7.612081 7.612081
0.000000 540.562500 7.612081
0.000952 540.562500 7.612081
0.106733 540.562500 7.612081
7.612081 540.562500 7.612081
540.562500 540.562500 7.612081
0.000000 0.000000 540.562500
0.000952 0.000000 540.562500
0.106733 0.000000 540.562500
7.612081 0.000000 540.562500
540.562500 0.000000 540.562500
0.000000 0.000952 540.562500
0.000952 0.000952 540.562500
0.106733 0.000952 540.562500
7.612081 0.000952 540.562500
540.562500 0.000952 540.562500
0.000000 0.106733 540.562500
0.000952 0.106733 540.562500
0.106733 0.106733 540.562500
7.612081 0.106733 540.562500
540.562500 0.106733 540.562500
0.000000 7.612081 540.562500
0.000952 7.612081 540.562500
0.106733 7.612081 540.562500
7.612081 7.612081 540.562500
540.562500 7.612081 540.562500
0.000000 540.562500 540.562500
0.000952 540.562500 540.562500
0.106733 540.562500 540.562500
7.612081 540.562500 540.562500
540.562500 540.562500 540.562500
