unity projects/render_random/Assets/square_root.cube
TITLE "square_root.cube"
LUT_3D_SIZE 32
DOMAIN_MIN 0.0 0.0 0.0
DOMAIN_MAX 1.0 1.0 1.0
0.000000 0.000000 0.000000
0.000032 0.000000 0.000000
0.000451 0.000000 0.000000
0.051264 0.000000 0.000000
0.083223 0.000000 0.000000
0.112250 0.000000 0.000000
0.142513 0.000000 0.000000
0.175642 0.000000 0.000000
0.212108 0.000000 0.000000
0.253436 0.000000 0.000000
0.299783 0.000000 0.000000
0.354119 0.000000 0.000000
0.416173 0.000000 0.000000
0.487545 0.000000 0.000000
0.571577 0.000000 0.000000
0.664756 0.000000 0.000000
0.780513 0.000000 0.000000
0.907744 0.000000 0.000000
1.053091 0.000000 0.000000
1.221475 0.000000 0.000000
1.426184 0.000000 0.000000
1.661024 0.000000 0.000000
1.933391 0.000000 0.000000
2.254551 0.000000 0.000000
2.623166 0.000000 0.000000
3.056469 0.000000 0.000000
3.551056 0.000000 0.000000
4.147288 0.000000 0.000000
4.821825 0.000000 0.000000
5.612486 0.000000 0.000000
6.538348 0.000000 0.000000
7.603289 0.000000 0.000000
0.000000 0.000032 0.000000
0.000032 0.000032 0.000000
0.000451 0.000032 0.000000
0.051264 0.000032 0.000000
0.083223 0.000032 0.000000
0.112250 0.000032 0.000000
0.142513 0.000032 0.000000
0.175642 0.000032 0.000000
0.212108 0.000032 0.000000
0.253436 0.000032 0.000000
0.299783 0.000032 0.000000
0.354119 0.000032 0.000000
0.416173 0.000032 0.000000
0.487545 0.000032 0.000000
0.571577 0.000032 0.000000
0.664756 0.000032 0.000000
0.780513 0.000032 0.000000
0.907744 0.000032 0.000000
1.053091 0.000032 0.000000
1.221475 0.000032 0.000000
1.426184 0.000032 0.000000
1.661024 0.000032 0.000000
1.933391 0.000032 0.000000
2.254551 0.000032 0.000000
2.623166 0.000032 0.000000
3.056469 0.000032 0.000000
3.551056 0.000032 0.000000
4.147288 0.000032 0.000000
4.821825 0.000032 0.000000
5.612486 0.000032 0.000000
6.538348 0.000032 0.000000
7.603289 0.000032 0.000000
0.000000 0.000451 0.000000
0.000032 0.000451 0.000000
0.000451 0.000451 0.000000
0.051264 0.000451 0.000000
0.083223 0.000451 0.000000
0.112250 0.000451 0.000000
0.142513 0.000451 0.000000
0.175642 0.000451 0.000000
0.212108 0.000451 0.000000
0.253436 0.000451 0.000000
0.299783 0.000451 0.000000
0.354119 0.000451 0.000000
0.416173 0.000451 0.000000
0.487545 0.000451 0.000000
0.571577 0.000451 0.000000
0.664756 0.000451 0.000000
0.780513 0.000451 0.000000
0.907744 0.000451 0.000000
1.053091 0.000451 0.000000
1.221475 0.000451 0.000000
1.426184 0.000451 0.000000
1.661024 0.000451 0.000000
1.933391 0.000451 0.000000
2.254551 0.000451 0.000000
2.623166 0.000451 0.000000
3.056469 0.000451 0.000000
3.551056 0.000451 0.000000
4.147288 0.000451 0.000000
4.821825 0.000451 0.000000
5.612486 0.000451 0.000000
6.538348 0.000451 0.000000
7.603289 0.000451 0.000000
0.000000 0.051264 0.000000
0.000032 0.051264 0.000000
0.000451 0.051264 0.000000
0.051264 0.051264 0.000000
0.083223 0.051264 0.000000
0.112250 0.051264 0.000000
0.142513 0.051264 0.000000
0.175642 0.051264 0.000000
0.212108 0.051264 0.000000
0.253436 0.051264 0.000000
0.299783 0.051264 0.000000
0.354119 0.051264 0.000000
0.416173 0.051264 0.000000
0.487545 0.051264 0.000000
0.571577 0.051264 0.000000
0.664756 0.051264 0.000000
0.780513 0.051264 0.000000
0.907744 0.051264 0.000000
1.053091 0.051264 0.000000
1.221475 0.051264 0.000000
1.426184 0.051264 0.000000
1.661024 0.051264 0.000000
1.933391 0.051264 0.000000
2.254551 0.051264 0.000000
2.623166 0.051264 0.000000
3.056469 0.051264 0.000000
3.551056 0.051264 0.000000
4.147288 0.051264 0.000000
4.821825 0.051264 0.000000
5.612486 0.051264 0.000000
6.538348 0.051264 0.000000
7.603289 0.051264 0.000000
0.000000 0.083223 0.000000
0.000032 0.083223 0.000000
0.000451 0.083223 0.000000
0.051264 0.083223 0.000000
0.083223 0.083223 0.000000
0.112250 0.083223 0.000000
0.142513 0.083223 0.000000
0.175642 0.083223 0.000000
0.212108 0.083223 0.000000
0.253436 0.083223 0.000000
0.299783 0.083223 0.000000
0.354119 0.083223 0.000000
0.416173 0.083223 0.000000
0.487545 0.083223 0.000000
0.571577 0.083223 0.000000
0.664756 0.083223 0.000000
0.780513 0.083223 0.000000
0.907744 0.083223 0.000000
1.053091 0.083223 0.000000
1.221475 0.083223 0.000000
1.426184 0.083223 0.000000
1.661024 0.083223 0.000000
1.933391 0.083223 0.000000
2.254551 0.083223 0.000000
2.623166 0.083223 0.000000
3.056469 0.083223 0.000000
3.551056 0.083223 0.000000
4.147288 0.083223 0.000000
4.821825 0.083223 0.000000
5.612486 0.083223 0.000000
6.538348 0.083223 0.000000
7.603289 0.083223 0.000000
0.000000 0.112250 0.000000
0.000032 0.112250 0.000000
0.000451 0.112250 0.000000
0.051264 0.112250 0.000000
0.083223 0.112250 0.000000
0.112250 0.112250 0.000000
0.142513 0.112250 0.000000
0.175642 0.112250 0.000000
0.212108 0.112250 0.000000
0.253436 0.112250 0.000000
0.299783 0.112250 0.000000
0.354119 0.112250 0.000000
0.416173 0.112250 0.000000
0.487545 0.112250 0.000000
0.571577 0.112250 0.000000
0.664756 0.112250 0.000000
0.780513 0.112250 0.000000
0.907744 0.112250 0.000000
1.053091 0.112250 0.000000
1.221475 0.112250 0.000000
1.426184 0.112250 0.000000
1.661024 0.112250 0.000000
1.933391 0.112250 0.000000
2.254551 0.112250 0.000000
2.623166 0.112250 0.000000
3.056469 0.112250 0.000000
3.551056 0.112250 0.000000
4.147288 0.112250 0.000000
4.821825 0.112250 0.000000
5.612486 0.112250 0.000000
6.538348 0.112250 0.000000
7.603289 0.112250 0.000000
0.000000 0.142513 0.000000
0.000032 0.142513 0.000000
0.000451 0.142513 0.000000
0.051264 0.142513 0.000000
0.083223 0.142513 0.000000
0.112250 0.142513 0.000000
0.142513 0.142513 0.000000
0.175642 0.142513 0.000000
0.212108 0.142513 0.000000
0.253436 0.142513 0.000000
0.299783 0.142513 0.000000
0.354119 0.142513 0.000000
0.416173 0.142513 0.000000
0.487545 0.142513 0.000000
0.571577 0.142513 0.000000
0.664756 0.142513 0.000000
0.780513 0.142513 0.000000
0.907744 0.142513 0.000000
1.053091 0.142513 0.000000
1.221475 0.142513 0.000000
1.426184 0.142513 0.000000
1.661024 0.142513 0.000000
1.933391 0.142513 0.000000
2.254551 0.142513 0.000000
2.623166 0.142513 0.000000
3.056469 0.142513 0.000000
3.551056 0.142513 0.000000
4.147288 0.142513 0.000000
4.821825 0.142513 0.000000
5.612486 0.142513 0.000000
6.538348 0.142513 0.000000
7.603289 0.142513 0.000000
0.000000 0.175642 0.000000
0.000032 0.175642 0.000000
0.000451 0.175642 0.000000
0.051264 0.175642 0.000000
0.083223 0.175642 0.000000
0.112250 0.175642 0.000000
0.142513 0.175642 0.000000
0.175642 0.175642 0.000000
0.212108 0.175642 0.000000
0.253436 0.175642 0.000000
0.299783 0.175642 0.000000
0.354119 0.175642 0.000000
0.416173 0.175642 0.000000
0.487545 0.175642 0.000000
0.571577 0.175642 0.000000
0.664756 0.175642 0.000000
0.780513 0.175642 0.000000
0.907744 0.175642 0.000000
1.053091 0.175642 0.000000
1.221475 0.175642 0.000000
1.426184 0.175642 0.000000
1.661024 0.175642 0.000000
1.933391 0.175642 0.000000
2.254551 0.175642 0.000000
2.623166 0.175642 0.000000
3.056469 0.175642 0.000000
3.551056 0.175642 0.000000
4.147288 0.175642 0.000000
4.821825 0.175642 0.000000
5.612486 0.175642 0.000000
6.538348 0.175642 0.000000
7.603289 0.175642 0.000000
0.000000 0.212108 0.000000
0.000032 0.212108 0.000000
0.000451 0.212108 0.000000
0.051264 0.212108 0.000000
0.083223 0.212108 0.000000
0.112250 0.212108 0.000000
0.142513 0.212108 0.000000
0.175642 0.212108 0.000000
0.212108 0.212108 0.000000
0.253436 0.212108 0.000000
0.299783 0.212108 0.000000
0.354119 0.212108 0.000000
0.416173 0.212108 0.000000
0.487545 0.212108 0.000000
0.571577 0.212108 0.000000
0.664756 0.212108 0.000000
0.780513 0.212108 0.000000
0.907744 0.212108 0.000000
1.053091 0.212108 0.000000
1.221475 0.212108 0.000000
1.426184 0.212108 0.000000
1.661024 0.212108 0.000000
1.933391 0.212108 0.000000
2.254551 0.212108 0.000000
2.623166 0.212108 0.000000
3.056469 0.212108 0.000000
3.551056 0.212108 0.000000
4.147288 0.212108 0.000000
4.821825 0.212108 0.000000
5.612486 0.212108 0.000000
6.538348 0.212108 0.000000
7.603289 0.212108 0.000000
0.000000 0.253436 0.000000
0.000032 0.253436 0.000000
0.000451 0.253436 0.000000
0.051264 0.253436 0.000000
0.083223 0.253436 0.000000
0.112250 0.253436 0.000000
0.142513 0.253436 0.000000
0.175642 0.253436 0.000000
0.212108 0.253436 0.000000
0.253436 0.253436 0.000000
0.299783 0.253436 0.000000
0.354119 0.253436 0.000000
0.416173 0.253436 0.000000
0.487545 0.253436 0.000000
0.571577 0.253436 0.000000
0.664756 0.253436 0.000000
0.780513 0.253436 0.000000
0.907744 0.253436 0.000000
1.053091 0.253436 0.000000
1.221475 0.253436 0.000000
1.426184 0.253436 0.000000
1.661024 0.253436 0.000000
1.933391 0.253436 0.000000
2.254551 0.253436 0.000000
2.623166 0.253436 0.000000
3.056469 0.253436 0.000000
3.551056 0.253436 0.000000
4.147288 0.253436 0.000000
4.821825 0.253436 0.000000
5.612486 0.253436 0.000000
6.538348 0.253436 0.000000
7.603289 0.253436 0.000000
0.000000 0.299783 0.000000
0.000032 0.299783 0.000000
0.000451 0.299783 0.000000
0.051264 0.299783 0.000000
0.083223 0.299783 0.000000
0.112250 0.299783 0.000000
0.142513 0.299783 0.000000
0.175642 0.299783 0.000000
0.212108 0.299783 0.000000
0.253436 0.299783 0.000000
0.299783 0.299783 0.000000
0.354119 0.299783 0.000000
0.416173 0.299783 0.000000
0.487545 0.299783 0.000000
0.571577 0.299783 0.000000
0.664756 0.299783 0.000000
0.780513 0.299783 0.000000
0.907744 0.299783 0.000000
1.053091 0.299783 0.000000
1.221475 0.299783 0.000000
1.426184 0.299783 0.000000
1.661024 0.299783 0.000000
1.933391 0.299783 0.000000
2.254551 0.299783 0.000000
2.623166 0.299783 0.000000
3.056469 0.299783 0.000000
3.551056 0.299783 0.000000
4.147288 0.299783 0.000000
4.821825 0.299783 0.000000
5.612486 0.299783 0.000000
6.538348 0.299783 0.000000
7.603289 0.299783 0.000000
0.000000 0.354119 0.000000
0.000032 0.354119 0.000000
0.000451 0.354119 0.000000
0.051264 0.354119 0.000000
0.083223 0.354119 0.000000
0.112250 0.354119 0.000000
0.142513 0.354119 0.000000
0.175642 0.354119 0.000000
0.212108 0.354119 0.000000
0.253436 0.354119 0.000000
0.299783 0.354119 0.000000
0.354119 0.354119 0.000000
0.416173 0.354119 0.000000
0.487545 0.354119 0.000000
0.571577 0.354119 0.000000
0.664756 0.354119 0.000000
0.780513 0.354119 0.000000
0.907744 0.354119 0.000000
1.053091 0.354119 0.000000
1.221475 0.354119 0.000000
1.426184 0.354119 0.000000
1.661024 0.354119 0.000000
1.933391 0.354119 0.000000
2.254551 0.354119 0.000000
2.623166 0.354119 0.000000
3.056469 0.354119 0.000000
3.551056 0.354119 0.000000
4.147288 0.354119 0.000000
4.821825 0.354119 0.000000
5.612486 0.354119 0.000000
6.538348 0.354119 0.000000
7.603289 0.354119 0.000000
0.000000 0.416173 0.000000
0.000032 0.416173 0.000000
0.000451 0.416173 0.000000
0.051264 0.416173 0.000000
0.083223 0.416173 0.000000
0.112250 0.416173 0.000000
0.142513 0.416173 0.000000
0.175642 0.416173 0.000000
0.212108 0.416173 0.000000
0.253436 0.416173 0.000000
0.299783 0.416173 0.000000
0.354119 0.416173 0.000000
0.416173 0.416173 0.000000
0.487545 0.416173 0.000000
0.571577 0.416173 0.000000
0.664756 0.416173 0.000000
0.780513 0.416173 0.000000
0.907744 0.416173 0.000000
1.053091 0.416173 0.000000
1.221475 0.416173 0.000000
1.426184 0.416173 0.000000
1.661024 0.416173 0.000000
1.933391 0.416173 0.000000
2.254551 0.416173 0.000000
2.623166 0.416173 0.000000
3.056469 0.416173 0.000000
3.551056 0.416173 0.000000
4.147288 0.416173 0.000000
4.821825 0.416173 0.000000
5.612486 0.416173 0.000000
6.538348 0.416173 0.000000
7.603289 0.416173 0.000000
0.000000 0.487545 0.000000
0.000032 0.487545 0.000000
0.000451 0.487545 0.000000
0.051264 0.487545 0.000000
0.083223 0.487545 0.000000
0.112250 0.487545 0.000000
0.142513 0.487545 0.000000
0.175642 0.487545 0.000000
0.212108 0.487545 0.000000
0.253436 0.487545 0.000000
0.299783 0.487545 0.000000
0.354119 0.487545 0.000000
0.416173 0.487545 0.000000
0.487545 0.487545 0.000000
0.571577 0.487545 0.000000
0.664756 0.487545 0.000000
0.780513 0.487545 0.000000
0.907744 0.487545 0.000000
1.053091 0.487545 0.000000
1.221475 0.487545 0.000000
1.426184 0.487545 0.000000
1.661024 0.487545 0.000000
1.933391 0.487545 0.000000
2.254551 0.487545 0.000000
2.623166 0.487545 0.000000
3.056469 0.487545 0.000000
3.551056 0.487545 0.000000
4.147288 0.487545 0.000000
4.821825 0.487545 0.000000
5.612486 0.487545 0.000000
6.538348 0.487545 0.000000
7.603289 0.487545 0.000000
0.000000 0.571577 0.000000
0.000032 0.571577 0.000000
0.000451 0.571577 0.000000
0.051264 0.571577 0.000000
0.083223 0.571577 0.000000
0.112250 0.571577 0.000000
0.142513 0.571577 0.000000
0.175642 0.571577 0.000000
0.212108 0.571577 0.000000
0.253436 0.571577 0.000000
0.299783 0.571577 0.000000
0.354119 0.571577 0.000000
0.416173 0.571577 0.000000
0.487545 0.571577 0.000000
0.571577 0.571577 0.000000
0.664756 0.571577 0.000000
0.780513 0.571577 0.000000
0.907744 0.571577 0.000000
1.053091 0.571577 0.000000
1.221475 0.571577 0.000000
1.426184 0.571577 0.000000
1.661024 0.571577 0.000000
1.933391 0.571577 0.000000
2.254551 0.571577 0.000000
2.623166 0.571577 0.000000
3.056469 0.571577 0.000000
3.551056 0.571577 0.000000
4.147288 0.571577 0.000000
4.821825 0.571577 0.000000
5.612486 0.571577 0.000000
6.538348 0.571577 0.000000
7.603289 0.571577 0.000000
0.000000 0.664756 0.000000
0.000032 0.664756 0.000000
0.000451 0.664756 0.000000
0.051264 0.664756 0.000000
0.083223 0.664756 0.000000
0.112250 0.664756 0.000000
0.142513 0.664756 0.000000
0.175642 0.664756 0.000000
0.212108 0.664756 0.000000
0.253436 0.664756 0.000000
0.299783 0.664756 0.000000
0.354119 0.664756 0.000000
0.416173 0.664756 0.000000
0.487545 0.664756 0.000000
0.571577 0.664756 0.000000
0.664756 0.664756 0.000000
0.780513 0.664756 0.000000
0.907744 0.664756 0.000000
1.053091 0.664756 0.000000
1.221475 0.664756 0.000000
1.426184 0.664756 0.000000
1.661024 0.664756 0.000000
1.933391 0.664756 0.000000
2.254551 0.664756 0.000000
2.623166 0.664756 0.000000
3.056469 0.664756 0.000000
3.551056 0.664756 0.000000
4.147288 0.664756 0.000000
4.821825 0.664756 0.000000
5.612486 0.664756 0.000000
6.538348 0.664756 0.000000
7.603289 0.664756 0.000000
0.000000 0.780513 0.000000
0.000032 0.780513 0.000000
0.000451 0.780513 0.000000
0.051264 0.780513 0.000000
0.083223 0.780513 0.000000
0.112250 0.780513 0.000000
0.142513 0.780513 0.000000
0.175642 0.780513 0.000000
0.212108 0.780513 0.000000
0.253436 0.780513 0.000000
0.299783 0.780513 0.000000
0.354119 0.780513 0.000000
0.416173 0.780513 0.000000
0.487545 0.780513 0.000000
0.571577 0.780513 0.000000
0.664756 0.780513 0.000000
0.780513 0.780513 0.000000
0.907744 0.780513 0.000000
1.053091 0.780513 0.000000
1.221475 0.780513 0.000000
1.426184 0.780513 0.000000
1.661024 0.780513 0.000000
1.933391 0.780513 0.000000
2.254551 0.780513 0.000000
2.623166 0.780513 0.000000
3.056469 0.780513 0.000000
3.551056 0.780513 0.000000
4.147288 0.780513 0.000000
4.821825 0.780513 0.000000
5.612486 0.780513 0.000000
6.538348 0.780513 0.000000
7.603289 0.780513 0.000000
0.000000 0.907744 0.000000
0.000032 0.907744 0.000000
0.000451 0.907744 0.000000
0.051264 0.907744 0.000000
0.083223 0.907744 0.000000
0.112250 0.907744 0.000000
0.142513 0.907744 0.000000
0.175642 0.907744 0.000000
0.212108 0.907744 0.000000
0.253436 0.907744 0.000000
0.299783 0.907744 0.000000
0.354119 0.907744 0.000000
0.416173 0.907744 0.000000
0.487545 0.907744 0.000000
0.571577 0.907744 0.000000
0.664756 0.907744 0.000000
0.780513 0.907744 0.000000
0.907744 0.907744 0.000000
1.053091 0.907744 0.000000
1.221475 0.907744 0.000000
1.426184 0.907744 0.000000
1.661024 0.907744 0.000000
1.933391 0.907744 0.000000
2.254551 0.907744 0.000000
2.623166 0.907744 0.000000
3.056469 0.907744 0.000000
3.551056 0.907744 0.000000
4.147288 0.907744 0.000000
4.821825 0.907744 0.000000
5.612486 0.907744 0.000000
6.538348 0.907744 0.000000
7.603289 0.907744 0.000000
0.000000 1.053091 0.000000
0.000032 1.053091 0.000000
0.000451 1.053091 0.000000
0.051264 1.053091 0.000000
0.083223 1.053091 0.000000
0.112250 1.053091 0.000000
0.142513 1.053091 0.000000
0.175642 1.053091 0.000000
0.212108 1.053091 0.000000
0.253436 1.053091 0.000000
0.299783 1.053091 0.000000
0.354119 1.053091 0.000000
0.416173 1.053091 0.000000
0.487545 1.053091 0.000000
0.571577 1.053091 0.000000
0.664756 1.053091 0.000000
0.780513 1.053091 0.000000
0.907744 1.053091 0.000000
1.053091 1.053091 0.000000
1.221475 1.053091 0.000000
1.426184 1.053091 0.000000
1.661024 1.053091 0.000000
1.933391 1.053091 0.000000
2.254551 1.053091 0.000000
2.623166 1.053091 0.000000
3.056469 1.053091 0.000000
3.551056 1.053091 0.000000
4.147288 1.053091 0.000000
4.821825 1.053091 0.000000
5.612486 1.053091 0.000000
6.538348 1.053091 0.000000
7.603289 1.053091 0.000000
0.000000 1.221475 0.000000
0.000032 1.221475 0.000000
0.000451 1.221475 0.000000
0.051264 1.221475 0.000000
0.083223 1.221475 0.000000
0.112250 1.221475 0.000000
0.142513 1.221475 0.000000
0.175642 1.221475 0.000000
0.212108 1.221475 0.000000
0.253436 1.221475 0.000000
0.299783 1.221475 0.000000
0.354119 1.221475 0.000000
0.416173 1.221475 0.000000
0.487545 1.221475 0.000000
0.571577 1.221475 0.000000
0.664756 1.221475 0.000000
0.780513 1.221475 0.000000
0.907744 1.221475 0.000000
1.053091 1.221475 0.000000
1.221475 1.221475 0.000000
1.426184 1.221475 0.000000
1.661024 1.221475 0.000000
1.933391 1.221475 0.000000
2.254551 1.221475 0.000000
2.623166 1.221475 0.000000
3.056469 1.221475 0.000000
3.551056 1.221475 0.000000
4.147288 1.221475 0.000000
4.821825 1.221475 0.000000
5.612486 1.221475 0.000000
6.538348 1.221475 0.000000
7.603289 1.221475 0.000000
0.000000 1.426184 0.000000
0.000032 1.426184 0.000000
0.000451 1.426184 0.000000
0.051264 1.426184 0.000000
0.083223 1.426184 0.000000
0.112250 1.426184 0.000000
0.142513 1.426184 0.000000
0.175642 1.426184 0.000000
0.212108 1.426184 0.000000
0.253436 1.426184 0.000000
0.299783 1.426184 0.000000
0.354119 1.426184 0.000000
0.416173 1.426184 0.000000
0.487545 1.426184 0.000000
0.571577 1.426184 0.000000
0.664756 1.426184 0.000000
0.780513 1.426184 0.000000
0.907744 1.426184 0.000000
1.053091 1.426184 0.000000
1.221475 1.426184 0.000000
1.426184 1.426184 0.000000
1.661024 1.426184 0.000000
1.933391 1.426184 0.000000
2.254551 1.426184 0.000000
2.623166 1.426184 0.000000
3.056469 1.426184 0.000000
3.551056 1.426184 0.000000
4.147288 1.426184 0.000000
4.821825 1.426184 0.000000
5.612486 1.426184 0.000000
6.538348 1.426184 0.000000
7.603289 1.426184 0.000000
0.000000 1.661024 0.000000
0.000032 1.661024 0.000000
0.000451 1.661024 0.000000
0.051264 1.661024 0.000000
0.083223 1.661024 0.000000
0.112250 1.661024 0.000000
0.142513 1.661024 0.000000
0.175642 1.661024 0.000000
0.212108 1.661024 0.000000
0.253436 1.661024 0.000000
0.299783 1.661024 0.000000
0.354119 1.661024 0.000000
0.416173 1.661024 0.000000
0.487545 1.661024 0.000000
0.571577 1.661024 0.000000
0.664756 1.661024 0.000000
0.780513 1.661024 0.000000
0.907744 1.661024 0.000000
1.053091 1.661024 0.000000
1.221475 1.661024 0.000000
1.426184 1.661024 0.000000
1.661024 1.661024 0.000000
1.933391 1.661024 0.000000
2.254551 1.661024 0.000000
2.623166 1.661024 0.000000
3.056469 1.661024 0.000000
3.551056 1.661024 0.000000
4.147288 1.661024 0.000000
4.821825 1.661024 0.000000
5.612486 1.661024 0.000000
6.538348 1.661024 0.000000
7.603289 1.661024 0.000000
0.000000 1.933391 0.000000
0.000032 1.933391 0.000000
0.000451 1.933391 0.000000
0.051264 1.933391 0.000000
0.083223 1.933391 0.000000
0.112250 1.933391 0.000000
0.142513 1.933391 0.000000
0.175642 1.933391 0.000000
0.212108 1.933391 0.000000
0.253436 1.933391 0.000000
0.299783 1.933391 0.000000
0.354119 1.933391 0.000000
0.416173 1.933391 0.000000
0.487545 1.933391 0.000000
0.571577 1.933391 0.000000
0.664756 1.933391 0.000000
0.780513 1.933391 0.000000
0.907744 1.933391 0.000000
1.053091 1.933391 0.000000
1.221475 1.933391 0.000000
1.426184 1.933391 0.000000
1.661024 1.933391 0.000000
1.933391 1.933391 0.000000
2.254551 1.933391 0.000000
2.623166 1.933391 0.000000
3.056469 1.933391 0.000000
3.551056 1.933391 0.000000
4.147288 1.933391 0.000000
4.821825 1.933391 0.000000
5.612486 1.933391 0.000000
6.538348 1.933391 0.000000
7.603289 1.933391 0.000000
0.000000 2.254551 0.000000
0.000032 2.254551 0.000000
0.000451 2.254551 0.000000
0.051264 2.254551 0.000000
0.083223 2.254551 0.000000
0.112250 2.254551 0.000000
0.142513 2.254551 0.000000
0.175642 2.254551 0.000000
0.212108 2.254551 0.000000
0.253436 2.254551 0.000000
0.299783 2.254551 0.000000
0.354119 2.254551 0.000000
0.416173 2.254551 0.000000
0.487545 2.254551 0.000000
0.571577 2.254551 0.000000
0.664756 2.254551 0.000000
0.780513 2.254551 0.000000
0.907744 2.254551 0.000000
1.053091 2.254551 0.000000
1.221475 2.254551 0.000000
1.426184 2.254551 0.000000
1.661024 2.254551 0.000000
1.933391 2.254551 0.000000
2.254551 2.254551 0.000000
2.623166 2.254551 0.000000
3.056469 2.254551 0.000000
3.551056 2.254551 0.000000
4.147288 2.254551 0.000000
4.821825 2.254551 0.000000
5.612486 2.254551 0.000000
6.538348 2.254551 0.000000
7.603289 2.254551 0.000000
0.000000 2.623166 0.000000
0.000032 2.623166 0.000000
0.000451 2.623166 0.000000
0.051264 2.623166 0.000000
0.083223 2.623166 0.000000
0.112250 2.623166 0.000000
0.142513 2.623166 0.000000
0.175642 2.623166 0.000000
0.212108 2.623166 0.000000
0.253436 2.623166 0.000000
0.299783 2.623166 0.000000
0.354119 2.623166 0.000000
0.416173 2.623166 0.000000
0.487545 2.623166 0.000000
0.571577 2.623166 0.000000
0.664756 2.623166 0.000000
0.780513 2.623166 0.000000
0.907744 2.623166 0.000000
1.053091 2.623166 0.000000
1.221475 2.623166 0.000000
1.426184 2.623166 0.000000
1.661024 2.623166 0.000000
1.933391 2.623166 0.000000
2.254551 2.623166 0.000000
2.623166 2.623166 0.000000
3.056469 2.623166 0.000000
3.551056 2.623166 0.000000
4.147288 2.623166 0.000000
4.821825 2.623166 0.000000
5.612486 2.623166 0.000000
6.538348 2.623166 0.000000
7.603289 2.623166 0.000000
0.000000 3.056469 0.000000
0.000032 3.056469 0.000000
0.000451 3.056469 0.000000
0.051264 3.056469 0.000000
0.083223 3.056469 0.000000
0.112250 3.056469 0.000000
0.142513 3.056469 0.000000
0.175642 3.056469 0.000000
0.212108 3.056469 0.000000
0.253436 3.056469 0.000000
0.299783 3.056469 0.000000
0.354119 3.056469 0.000000
0.416173 3.056469 0.000000
0.487545 3.056469 0.000000
0.571577 3.056469 0.000000
0.664756 3.056469 0.000000
0.780513 3.056469 0.000000
0.907744 3.056469 0.000000
1.053091 3.056469 0.000000
1.221475 3.056469 0.000000
1.426184 3.056469 0.000000
1.661024 3.056469 0.000000
1.933391 3.056469 0.000000
2.254551 3.056469 0.000000
2.623166 3.056469 0.000000
3.056469 3.056469 0.000000
3.551056 3.056469 0.000000
4.147288 3.056469 0.000000
4.821825 3.056469 0.000000
5.612486 3.056469 0.000000
6.538348 3.056469 0.000000
7.603289 3.056469 0.000000
0.000000 3.551056 0.000000
0.000032 3.551056 0.000000
0.000451 3.551056 0.000000
0.051264 3.551056 0.000000
0.083223 3.551056 0.000000
0.112250 3.551056 0.000000
0.142513 3.551056 0.000000
0.175642 3.551056 0.000000
0.212108 3.551056 0.000000
0.253436 3.551056 0.000000
0.299783 3.551056 0.000000
0.354119 3.551056 0.000000
0.416173 3.551056 0.000000
0.487545 3.551056 0.000000
0.571577 3.551056 0.000000
0.664756 3.551056 0.000000
0.780513 3.551056 0.000000
0.907744 3.551056 0.000000
1.053091 3.551056 0.000000
1.221475 3.551056 0.000000
1.426184 3.551056 0.000000
1.661024 3.551056 0.000000
1.933391 3.551056 0.000000
2.254551 3.551056 0.000000
2.623166 3.551056 0.000000
3.056469 3.551056 0.000000
3.551056 3.551056 0.000000
4.147288 3.551056 0.000000
4.821825 3.551056 0.000000
5.612486 3.551056 0.000000
6.538348 3.551056 0.000000
7.603289 3.551056 0.000000
0.000000 4.147288 0.000000
0.000032 4.147288 0.000000
0.000451 4.147288 0.000000
0.051264 4.147288 0.000000
0.083223 4.147288 0.000000
0.112250 4.147288 0.000000
0.142513 4.147288 0.000000
0.175642 4.147288 0.000000
0.212108 4.147288 0.000000
0.253436 4.147288 0.000000
0.299783 4.147288 0.000000
0.354119 4.147288 0.000000
0.416173 4.147288 0.000000
0.487545 4.147288 0.000000
0.571577 4.147288 0.000000
0.664756 4.147288 0.000000
0.780513 4.147288 0.000000
0.907744 4.147288 0.000000
1.053091 4.147288 0.000000
1.221475 4.147288 0.000000
1.426184 4.147288 0.000000
