unity projects/render_random/Assets/square_root.cube
TITLE "square_root.cube"
LUT_3D_SIZE 5
DOMAIN_MIN 0.000000 0.000000 0.000000
DOMAIN_MAX 0.903226 0.903226 0.903226
0.000000 0.000000 0.000000
0.175642 0.000000 0.000000
0.571577 0.000000 0.000000
1.661024 0.000000 0.000000
4.821825 0.000000 0.000000
0.000000 0.175642 0.000000
0.175642 0.175642 0.000000
0.571577 0.175642 0.000000
1.661024 0.175642 0.000000
4.821825 0.175642 0.000000
0.000000 0.571577 0.000000
0.175642 0.571577 0.000000
0.571577 0.571577 0.000000
1.661024 0.571577 0.000000
4.821825 0.571577 0.000000
0.000000 1.661024 0.000000
0.175642 1.661024 0.000000
0.571577 1.661024 0.000000
1.661024 1.661024 0.000000
4.821825 1.661024 0.000000
0.000000 4.821825 0.000000
0.175642 4.821825 0.000000
0.571577 4.821825 0.000000
1.661024 4.821825 0.000000
4.821825 4.821825 0.000000
0.000000 0.000000 0.175642
0.175642 0.000000 0.175642
0.571577 0.000000 0.175642
1.661024 0.000000 0.175642
4.821825 0.000000 0.175642
0.000000 0.175642 0.175642
0.175642 0.175642 0.175642
0.571577 0.175642 0.175642
1.661024 0.175642 0.175642
4.821825 0.175642 0.175642
0.000000 0.571577 0.175642
0.175642 0.571577 0.175642
0.571577 0.571577 0.175642
1.661024 0.571577 0.175642
4.821825 0.571577 0.175642
0.000000 1.661024 0.175642
0.175642 1.661024 0.175642
0.571577 1.661024 0.175642
1.661024 1.661024 0.175642
4.821825 1.661024 0.175642
0.000000 4.821825 0.175642
0.175642 4.821825 0.175642
0.571577 4.821825 0.175642
1.661024 4.821825 0.175642
4.821825 4.821825 0.175642
0.000000 0.000000 0.571577
0.175642 0.000000 0.571577
0.571577 0.000000 0.571577
1.661024 0.000000 0.571577
4.821825 0.000000 0.571577
0.000000 0.175642 0.571577
0.175642 0.175642 0.571577
0.571577 0.175642 0.571577
1.661024 0.175642 0.571577
4.821825 0.175642 0.571577
0.000000 0.571577 0.571577
0.175642 0.571577 0.571577
0.571577 0.571577 0.571577
1.661024 0.571577 0.571577
4.821825 0.571577 0.571577
0.000000 1.661024 0.571577
0.175642 1.661024 0.571577
0.571577 1.661024 0.571577
1.661024 1.661024 0.571577
4.821825 1.661024 0.571577
0.000000 4.821825 0.571577
0.175642 4.821825 0.571577
0.571577 4.821825 0.571577
1.661024 4.821825 0.571577
4.821825 4.821825 0.571577
0.000000 0.000000 1.661024
0.175642 0.000000 1.661024
0.571577 0.000000 1.661024
1.661024 0.000000 1.661024
4.821825 0.000000 1.661024
0.000000 0.175642 1.661024
0.175642 0.175642 1.661024
0.571577 0.175642 1.661024
1.661024 0.175642 1.661024
4.821825 0.175642 1.661024
0.000000 0.571577 1.661024
0.175642 0.571577 1.661024
0.571577 0.571577 1.661024
1.661024 0.571577 1.661024
4.821825 0.571577 1.661024
0.000000 1.661024 1.661024
0.175642 1.661024 1.661024
0.571577 1.661024 1.661024
1.661024 1.661024 1.661024
4.821825 1.661024 1.661024
0.000000 4.821825 1.661024
0.175642 4.821825 1.661024
0.571577 4.821825 1.661024
1.661024 4.821825 1.661024
4.821825 4.821825 1.661024
0.000000 0.000000 4.821825
0.175642 0.000000 4.821825
0.571577 0.000000 4.821825
1.661024 0.000000 4.821825
4.821825 0.000000 4.821825
0.000000 0.175642 4.821825
0.175642 0.175642 4.821825
0.571577 0.175642 4.821825
1.661024 0.175642 4.821825
4.821825 0.175642 4.821825
0.000000 0.571577 4.821825
0.175642 0.571577 4.821825
0.571577 0.571577 4.821825
1.661024 0.571577 4.821825
4.821825 0.571577 4.821825
0.000000 1.661024 4.821825
0.175642 1.661024 4.821825
0.571577 1.661024 4.821825
1.661024 1.661024 4.821825
4.821825 1.661024 4.821825
0.000000 4.821825 4.821825
0.175642 4.821825 4.821825
0.571577 4.821825 4.821825
1.661024 4.821825 4.821825
4.821825 4.821825 4.821825
