unity projects/render_random/Assets/square.cube
TITLE "square.cube"
LUT_3D_SIZE 8
DOMAIN_MIN 0.000000 0.000000 0.000000
DOMAIN_MAX 0.903226 0.903226 0.903226
0.000000 0.000000 0.000000
0.000048 0.000000 0.000000
0.002024 0.000000 0.000000
0.029998 0.000000 0.000000
0.371125 0.000000 0.000000
4.137156 0.000000 0.000000
47.348161 0.000000 0.000000
540.562500 0.000000 0.000000
0.000000 0.000048 0.000000
0.000048 0.000048 0.000000
0.002024 0.000048 0.000000
0.029998 0.000048 0.000000
0.371125 0.000048 0.000000
4.137156 0.000048 0.000000
47.348161 0.000048 0.000000
540.562500 0.000048 0.000000
0.000000 0.002024 0.000000
0.000048 0.002024 0.000000
0.002024 0.002024 0.000000
0.029998 0.002024 0.000000
0.371125 0.002024 0.000000
4.137156 0.002024 0.000000
47.348161 0.002024 0.000000
540.562500 0.002024 0.000000
0.000000 0.029998 0.000000
0.000048 0.029998 0.000000
0.002024 0.029998 0.000000
0.029998 0.029998 0.000000
0.371125 0.029998 0.000000
4.137156 0.029998 0.000000
47.348161 0.029998 0.000000
540.562500 0.029998 0.000000
0.000000 0.371125 0.000000
0.000048 0.371125 0.000000
0.002024 0.371125 0.000000
0.029998 0.371125 0.000000
0.371125 0.371125 0.000000
4.137156 0.371125 0.000000
47.348161 0.371125 0.000000
540.562500 0.371125 0.000000
0.000000 4.137156 0.000000
0.000048 4.137156 0.000000
0.002024 4.137156 0.000000
0.029998 4.137156 0.000000
0.371125 4.137156 0.000000
4.137156 4.137156 0.000000
47.348161 4.137156 0.000000
540.562500 4.137156 0.000000
0.000000 47.348161 0.000000
0.000048 47.348161 0.000000
0.002024 47.348161 0.000000
0.029998 47.348161 0.000000
0.371125 47.348161 0.000000
4.137156 47.348161 0.000000
47.348161 47.348161 0.000000
540.562500 47.348161 0.000000
0.000000 540.562500 0.000000
0.000048 540.562500 0.000000
0.002024 540.562500 0.000000
0.029998 540.562500 0.000000
0.371125 540.562500 0.000000
4.137156 540.562500 0.000000
47.348161 540.562500 0.000000
540.562500 540.562500 0.000000
0.000000 0.000000 0.000048
0.000048 0.000000 0.000048
0.002024 0.000000 0.000048
0.029998 0.000000 0.000048
0.371125 0.000000 0.000048
4.137156 0.000000 0.000048
47.348161 0.000000 0.000048
540.562500 0.000000 0.000048
0.000000 0.000048 0.000048
0.000048 0.000048 0.000048
0.002024 0.000048 0.000048
0.029998 0.000048 0.000048
0.371125 0.000048 0.000048
4.137156 0.000048 0.000048
47.348161 0.000048 0.000048
540.562500 0.000048 0.000048
0.000000 0.002024 0.000048
0.000048 0.002024 0.000048
0.002024 0.002024 0.000048
0.029998 0.002024 0.000048
0.371125 0.002024 0.000048
4.137156 0.002024 0.000048
47.348161 0.002024 0.000048
540.562500 0.002024 0.000048
0.000000 0.029998 0.000048
0.000048 0.029998 0.000048
0.002024 0.029998 0.000048
0.029998 0.029998 0.000048
0.371125 0.029998 0.000048
4.137156 0.029998 0.000048
47.348161 0.029998 0.000048
540.562500 0.029998 0.000048
0.000000 0.371125 0.000048
0.000048 0.371125 0.000048
0.002024 0.371125 0.000048
0.029998 0.371125 0.000048
0.371125 0.371125 0.000048
4.137156 0.371125 0.000048
47.348161 0.371125 0.000048
540.562500 0.371125 0.000048
0.000000 4.137156 0.000048
0.000048 4.137156 0.000048
0.002024 4.137156 0.000048
0.029998 4.137156 0.000048
0.371125 4.137156 0.000048
4.137156 4.137156 0.000048
47.348161 4.137156 0.000048
540.562500 4.137156 0.000048
0.000000 47.348161 0.000048
0.000048 47.348161 0.000048
0.002024 47.348161 0.000048
0.029998 47.348161 0.000048
0.371125 47.348161 0.000048
4.137156 47.348161 0.000048
47.348161 47.348161 0.000048
540.562500 47.348161 0.000048
0.000000 540.562500 0.000048
0.000048 540.562500 0.000048
0.002024 540.562500 0.000048
0.029998 540.562500 0.000048
0.371125 540.562500 0.000048
4.137156 540.562500 0.000048
47.348161 540.562500 0.000048
540.562500 540.562500 0.000048
0.000000 0.000000 0.002024
0.000048 0.000000 0.002024
0.002024 0.000000 0.002024
0.029998 0.000000 0.002024
0.371125 0.000000 0.002024
4.137156 0.000000 0.002024
47.348161 0.000000 0.002024
540.562500 0.000000 0.002024
0.000000 0.000048 0.002024
0.000048 0.000048 0.002024
0.002024 0.000048 0.002024
0.029998 0.000048 0.002024
0.371125 0.000048 0.002024
4.137156 0.000048 0.002024
47.348161 0.000048 0.002024
540.562500 0.000048 0.002024
0.000000 0.002024 0.002024
0.000048 0.002024 0.002024
0.002024 0.002024 0.002024
0.029998 0.002024 0.002024
0.371125 0.002024 0.002024
4.137156 0.002024 0.002024
47.348161 0.002024 0.002024
540.562500 0.002024 0.002024
0.000000 0.029998 0.002024
0.000048 0.029998 0.002024
0.002024 0.029998 0.002024
0.029998 0.029998 0.002024
0.371125 0.029998 0.002024
4.137156 0.029998 0.002024
47.348161 0.029998 0.002024
540.562500 0.029998 0.002024
0.000000 0.371125 0.002024
0.000048 0.371125 0.002024
0.002024 0.371125 0.002024
0.029998 0.371125 0.002024
0.371125 0.371125 0.002024
4.137156 0.371125 0.002024
47.348161 0.371125 0.002024
540.562500 0.371125 0.002024
0.000000 4.137156 0.002024
0.000048 4.137156 0.002024
0.002024 4.137156 0.002024
0.029998 4.137156 0.002024
0.371125 4.137156 0.002024
4.137156 4.137156 0.002024
47.348161 4.137156 0.002024
540.562500 4.137156 0.002024
0.000000 47.348161 0.002024
0.000048 47.348161 0.002024
0.002024 47.348161 0.002024
0.029998 47.348161 0.002024
0.371125 47.348161 0.002024
4.137156 47.348161 0.002024
47.348161 47.348161 0.002024
540.562500 47.348161 0.002024
0.000000 540.562500 0.002024
0.000048 540.562500 0.002024
0.002024 540.562500 0.002024
0.029998 540.562500 0.002024
0.371125 540.562500 0.002024
4.137156 540.562500 0.002024
47.348161 540.562500 0.002024
540.562500 540.562500 0.002024
0.000000 0.000000 0.029998
0.000048 0.000000 0.029998
0.002024 0.000000 0.029998
0.029998 0.000000 0.029998
0.371125 0.000000 0.029998
4.137156 0.000000 0.029998
47.348161 0.000000 0.029998
540.562500 0.000000 0.029998
0.000000 0.000048 0.029998
0.000048 0.000048 0.029998
0.002024 0.000048 0.029998
0.029998 0.000048 0.029998
0.371125 0.000048 0.029998
4.137156 0.000048 0.029998
47.348161 0.000048 0.029998
540.562500 0.000048 0.029998
0.000000 0.002024 0.029998
0.000048 0.002024 0.029998
0.002024 0.002024 0.029998
0.029998 0.002024 0.029998
0.371125 0.002024 0.029998
4.137156 0.002024 0.029998
47.348161 0.002024 0.029998
540.562500 0.002024 0.029998
0.000000 0.029998 0.029998
0.000048 0.029998 0.029998
0.002024 0.029998 0.029998
0.029998 0.029998 0.029998
0.371125 0.029998 0.029998
4.137156 0.029998 0.029998
47.348161 0.029998 0.029998
540.562500 0.029998 0.029998
0.000000 0.371125 0.029998
0.000048 0.371125 0.029998
0.002024 0.371125 0.029998
0.029998 0.371125 0.029998
0.371125 0.371125 0.029998
4.137156 0.371125 0.029998
47.348161 0.371125 0.029998
540.562500 0.371125 0.029998
0.000000 4.137156 0.029998
0.000048 4.137156 0.029998
0.002024 4.137156 0.029998
0.029998 4.137156 0.029998
0.371125 4.137156 0.029998
4.137156 4.137156 0.029998
47.348161 4.137156 0.029998
540.562500 4.137156 0.029998
0.000000 47.348161 0.029998
0.000048 47.348161 0.029998
0.002024 47.348161 0.029998
0.029998 47.348161 0.029998
0.371125 47.348161 0.029998
4.137156 47.348161 0.029998
47.348161 47.348161 0.029998
540.562500 47.348161 0.029998
0.000000 540.562500 0.029998
0.000048 540.562500 0.029998
0.002024 540.562500 0.029998
0.029998 540.562500 0.029998
0.371125 540.562500 0.029998
4.137156 540.562500 0.029998
47.348161 540.562500 0.029998
540.562500 540.562500 0.029998
0.000000 0.000000 0.371125
0.000048 0.000000 0.371125
0.002024 0.000000 0.371125
0.029998 0.000000 0.371125
0.371125 0.000000 0.371125
4.137156 0.000000 0.371125
47.348161 0.000000 0.371125
540.562500 0.000000 0.371125
0.000000 0.000048 0.371125
0.000048 0.000048 0.371125
0.002024 0.000048 0.371125
0.029998 0.000048 0.371125
0.371125 0.000048 0.371125
4.137156 0.000048 0.371125
47.348161 0.000048 0.371125
540.562500 0.000048 0.371125
0.000000 0.002024 0.371125
0.000048 0.002024 0.371125
0.002024 0.002024 0.371125
0.029998 0.002024 0.371125
0.371125 0.002024 0.371125
4.137156 0.002024 0.371125
47.348161 0.002024 0.371125
540.562500 0.002024 0.371125
0.000000 0.029998 0.371125
0.000048 0.029998 0.371125
0.002024 0.029998 0.371125
0.029998 0.029998 0.371125
0.371125 0.029998 0.371125
4.137156 0.029998 0.371125
47.348161 0.029998 0.371125
540.562500 0.029998 0.371125
0.000000 0.371125 0.371125
0.000048 0.371125 0.371125
0.002024 0.371125 0.371125
0.029998 0.371125 0.371125
0.371125 0.371125 0.371125
4.137156 0.371125 0.371125
47.348161 0.371125 0.371125
540.562500 0.371125 0.371125
0.000000 4.137156 0.371125
0.000048 4.137156 0.371125
0.002024 4.137156 0.371125
0.029998 4.137156 0.371125
0.371125 4.137156 0.371125
4.137156 4.137156 0.371125
47.348161 4.137156 0.371125
540.562500 4.137156 0.371125
0.000000 47.348161 0.371125
0.000048 47.348161 0.371125
0.002024 47.348161 0.371125
0.029998 47.348161 0.371125
0.371125 47.348161 0.371125
4.137156 47.348161 0.371125
47.348161 47.348161 0.371125
540.562500 47.348161 0.371125
0.000000 540.562500 0.371125
0.000048 540.562500 0.371125
0.002024 540.562500 0.371125
0.029998 540.562500 0.371125
0.371125 540.562500 0.371125
4.137156 540.562500 0.371125
47.348161 540.562500 0.371125
540.562500 540.562500 0.371125
0.000000 0.000000 4.137156
0.000048 0.000000 4.137156
0.002024 0.000000 4.137156
0.029998 0.000000 4.137156
0.371125 0.000000 4.137156
4.137156 0.000000 4.137156
47.348161 0.000000 4.137156
540.562500 0.000000 4.137156
0.000000 0.000048 4.137156
0.000048 0.000048 4.137156
0.002024 0.000048 4.137156
0.029998 0.000048 4.137156
0.371125 0.000048 4.137156
4.137156 0.000048 4.137156
47.348161 0.000048 4.137156
540.562500 0.000048 4.137156
0.000000 0.002024 4.137156
0.000048 0.002024 4.137156
0.002024 0.002024 4.137156
0.029998 0.002024 4.137156
0.371125 0.002024 4.137156
4.137156 0.002024 4.137156
47.348161 0.002024 4.137156
540.562500 0.002024 4.137156
0.000000 0.029998 4.137156
0.000048 0.029998 4.137156
0.002024 0.029998 4.137156
0.029998 0.029998 4.137156
0.371125 0.029998 4.137156
4.137156 0.029998 4.137156
47.348161 0.029998 4.137156
540.562500 0.029998 4.137156
0.000000 0.371125 4.137156
0.000048 0.371125 4.137156
0.002024 0.371125 4.137156
0.029998 0.371125 4.137156
0.371125 0.371125 4.137156
4.137156 0.371125 4.137156
47.348161 0.371125 4.137156
540.562500 0.371125 4.137156
0.000000 4.137156 4.137156
0.000048 4.137156 4.137156
0.002024 4.137156 4.137156
0.029998 4.137156 4.137156
0.371125 4.137156 4.137156
4.137156 4.137156 4.137156
47.348161 4.137156 4.137156
540.562500 4.137156 4.137156
0.000000 47.348161 4.137156
0.000048 47.348161 4.137156
0.002024 47.348161 4.137156
0.029998 47.348161 4.137156
0.371125 47.348161 4.137156
4.137156 47.348161 4.137156
47.348161 47.348161 4.137156
540.562500 47.348161 4.137156
0.000000 540.562500 4.137156
0.000048 540.562500 4.137156
0.002024 540.562500 4.137156
0.029998 540.562500 4.137156
0.371125 540.562500 4.137156
4.137156 540.562500 4.137156
47.348161 540.562500 4.137156
540.562500 540.562500 4.137156
0.000000 0.000000 47.348161
0.000048 0.000000 47.348161
0.002024 0.000000 47.348161
0.029998 0.000000 47.348161
0.371125 0.000000 47.348161
4.137156 0.000000 47.348161
47.348161 0.000000 47.348161
540.562500 0.000000 47.348161
0.000000 0.000048 47.348161
0.000048 0.000048 47.348161
0.002024 0.000048 47.348161
0.029998 0.000048 47.348161
0.371125 0.000048 47.348161
4.137156 0.000048 47.348161
47.348161 0.000048 47.348161
540.562500 0.000048 47.348161
0.000000 0.002024 47.348161
0.000048 0.002024 47.348161
0.002024 0.002024 47.348161
0.029998 0.002024 47.348161
0.371125 0.002024 47.348161
4.137156 0.002024 47.348161
47.348161 0.002024 47.348161
540.562500 0.002024 47.348161
0.000000 0.029998 47.348161
0.000048 0.029998 47.348161
0.002024 0.029998 47.348161
0.029998 0.029998 47.348161
0.371125 0.029998 47.348161
4.137156 0.029998 47.348161
47.348161 0.029998 47.348161
540.562500 0.029998 47.348161
0.000000 0.371125 47.348161
0.000048 0.371125 47.348161
0.002024 0.371125 47.348161
0.029998 0.371125 47.348161
0.371125 0.371125 47.348161
4.137156 0.371125 47.348161
47.348161 0.371125 47.348161
540.562500 0.371125 47.348161
0.000000 4.137156 47.348161
0.000048 4.137156 47.348161
0.002024 4.137156 47.348161
0.029998 4.137156 47.348161
0.371125 4.137156 47.348161
4.137156 4.137156 47.348161
47.348161 4.137156 47.348161
540.562500 4.137156 47.348161
0.000000 47.348161 47.348161
0.000048 47.348161 47.348161
0.002024 47.348161 47.348161
0.029998 47.348161 47.348161
0.371125 47.348161 47.348161
4.137156 47.348161 47.348161
47.348161 47.348161 47.348161
540.562500 47.348161 47.348161
0.000000 540.562500 47.348161
0.000048 540.562500 47.348161
0.002024 540.562500 47.348161
0.029998 540.562500 47.348161
0.371125 540.562500 47.348161
4.137156 540.562500 47.348161
47.348161 540.562500 47.348161
540.562500 540.562500 47.348161
0.000000 0.000000 540.562500
0.000048 0.000000 540.562500
0.002024 0.000000 540.562500
0.029998 0.000000 540.562500
0.371125 0.000000 540.562500
4.137156 0.000000 540.562500
47.348161 0.000000 540.562500
540.562500 0.000000 540.562500
0.000000 0.000048 540.562500
0.000048 0.000048 540.562500
0.002024 0.000048 540.562500
0.029998 0.000048 540.562500
0.371125 0.000048 540.562500
4.137156 0.000048 540.562500
47.348161 0.000048 540.562500
540.562500 0.000048 540.562500
0.000000 0.002024 540.562500
0.000048 0.002024 540.562500
0.002024 0.002024 540.562500
0.029998 0.002024 540.562500
0.371125 0.002024 540.562500
4.137156 0.002024 540.562500
47.348161 0.002024 540.562500
540.562500 0.002024 540.562500
0.000000 0.029998 540.562500
0.000048 0.029998 540.562500
0.002024 0.029998 540.562500
0.029998 0.029998 540.562500
0.371125 0.029998 540.562500
4.137156 0.029998 540.562500
47.348161 0.029998 540.562500
540.562500 0.029998 540.562500
0.000000 0.371125 540.562500
0.000048 0.371125 540.562500
0.002024 0.371125 540.562500
0.029998 0.371125 540.562500
0.371125 0.371125 540.562500
4.137156 0.371125 540.562500
47.348161 0.371125 540.562500
540.562500 0.371125 540.562500
0.000000 4.137156 540.562500
0.000048 4.137156 540.562500
0.002024 4.137156 540.562500
0.029998 4.137156 540.562500
0.371125 4.137156 540.562500
4.137156 4.137156 540.562500
47.348161 4.137156 540.562500
540.562500 4.137156 540.562500
0.000000 47.348161 540.562500
0.000048 47.348161 540.562500
0.002024 47.348161 540.562500
0.029998 47.348161 540.562500
0.371125 47.348161 540.562500
4.137156 47.348161 540.562500
47.348161 47.348161 540.562500
540.562500 47.348161 540.562500
0.000000 540.562500 540.562500
0.000048 540.562500 540.562500
0.002024 540.562500 540.562500
0.029998 540.562500 540.562500
0.371125 540.562500 540.562500
4.137156 540.562500 540.562500
47.348161 540.562500 540.562500
540.562500 540.562500 540.562500
