unity projects/render_random/Assets/square.cube
TITLE "square.cube"
LUT_3D_SIZE 32
DOMAIN_MIN 0.0 0.0 0.0
DOMAIN_MAX 1.0 1.0 1.0
0.000000 0.000000 0.000000
0.000000 0.000000 0.000000
0.000000 0.000000 0.000000
0.000007 0.000000 0.000000
0.000048 0.000000 0.000000
0.000159 0.000000 0.000000
0.000412 0.000000 0.000000
0.000952 0.000000 0.000000
0.002024 0.000000 0.000000
0.004125 0.000000 0.000000
0.008077 0.000000 0.000000
0.015725 0.000000 0.000000
0.029998 0.000000 0.000000
0.056501 0.000000 0.000000
0.106733 0.000000 0.000000
0.195276 0.000000 0.000000
0.371125 0.000000 0.000000
0.678976 0.000000 0.000000
1.229881 0.000000 0.000000
2.226064 0.000000 0.000000
4.137156 0.000000 0.000000
7.612081 0.000000 0.000000
13.972644 0.000000 0.000000
25.836889 0.000000 0.000000
47.348161 0.000000 0.000000
87.272964 0.000000 0.000000
159.012100 0.000000 0.000000
295.840000 0.000000 0.000000
540.562500 0.000000 0.000000
992.250000 0.000000 0.000000
1827.562500 0.000000 0.000000
3341.996100 0.000000 0.000000
0.000000 0.000000 0.000000
0.000000 0.000000 0.000000
0.000000 0.000000 0.000000
0.000007 0.000000 0.000000
0.000048 0.000000 0.000000
0.000159 0.000000 0.000000
0.000412 0.000000 0.000000
0.000952 0.000000 0.000000
0.002024 0.000000 0.000000
0.004125 0.000000 0.000000
0.008077 0.000000 0.000000
0.015725 0.000000 0.000000
0.029998 0.000000 0.000000
0.056501 0.000000 0.000000
0.106733 0.000000 0.000000
0.195276 0.000000 0.000000
0.371125 0.000000 0.000000
0.678976 0.000000 0.000000
1.229881 0.000000 0.000000
2.226064 0.000000 0.000000
4.137156 0.000000 0.000000
7.612081 0.000000 0.000000
13.972644 0.000000 0.000000
25.836889 0.000000 0.000000
47.348161 0.000000 0.000000
87.272964 0.000000 0.000000
159.012100 0.000000 0.000000
295.840000 0.000000 0.000000
540.562500 0.000000 0.000000
992.250000 0.000000 0.000000
1827.562500 0.000000 0.000000
3341.996100 0.000000 0.000000
0.000000 0.000000 0.000000
0.000000 0.000000 0.000000
0.000000 0.000000 0.000000
0.000007 0.000000 0.000000
0.000048 0.000000 0.000000
0.000159 0.000000 0.000000
0.000412 0.000000 0.000000
0.000952 0.000000 0.000000
0.002024 0.000000 0.000000
0.004125 0.000000 0.000000
0.008077 0.000000 0.000000
0.015725 0.000000 0.000000
0.029998 0.000000 0.000000
0.056501 0.000000 0.000000
0.106733 0.000000 0.000000
0.195276 0.000000 0.000000
0.371125 0.000000 0.000000
0.678976 0.000000 0.000000
1.229881 0.000000 0.000000
2.226064 0.000000 0.000000
4.137156 0.000000 0.000000
7.612081 0.000000 0.000000
13.972644 0.000000 0.000000
25.836889 0.000000 0.000000
47.348161 0.000000 0.000000
87.272964 0.000000 0.000000
159.012100 0.000000 0.000000
295.840000 0.000000 0.000000
540.562500 0.000000 0.000000
992.250000 0.000000 0.000000
1827.562500 0.000000 0.000000
3341.996100 0.000000 0.000000
0.000000 0.000007 0.000000
0.000000 0.000007 0.000000
0.000000 0.000007 0.000000
0.000007 0.000007 0.000000
0.000048 0.000007 0.000000
0.000159 0.000007 0.000000
0.000412 0.000007 0.000000
0.000952 0.000007 0.000000
0.002024 0.000007 0.000000
0.004125 0.000007 0.000000
0.008077 0.000007 0.000000
0.015725 0.000007 0.000000
0.029998 0.000007 0.000000
0.056501 0.000007 0.000000
0.106733 0.000007 0.000000
0.195276 0.000007 0.000000
0.371125 0.000007 0.000000
0.678976 0.000007 0.000000
1.229881 0.000007 0.000000
2.226064 0.000007 0.000000
4.137156 0.000007 0.000000
7.612081 0.000007 0.000000
13.972644 0.000007 0.000000
25.836889 0.000007 0.000000
47.348161 0.000007 0.000000
87.272964 0.000007 0.000000
159.012100 0.000007 0.000000
295.840000 0.000007 0.000000
540.562500 0.000007 0.000000
992.250000 0.000007 0.000000
1827.562500 0.000007 0.000000
3341.996100 0.000007 0.000000
0.000000 0.000048 0.000000
0.000000 0.000048 0.000000
0.000000 0.000048 0.000000
0.000007 0.000048 0.000000
0.000048 0.000048 0.000000
0.000159 0.000048 0.000000
0.000412 0.000048 0.000000
0.000952 0.000048 0.000000
0.002024 0.000048 0.000000
0.004125 0.000048 0.000000
0.008077 0.000048 0.000000
0.015725 0.000048 0.000000
0.029998 0.000048 0.000000
0.056501 0.000048 0.000000
0.106733 0.000048 0.000000
0.195276 0.000048 0.000000
0.371125 0.000048 0.000000
0.678976 0.000048 0.000000
1.229881 0.000048 0.000000
2.226064 0.000048 0.000000
4.137156 0.000048 0.000000
7.612081 0.000048 0.000000
13.972644 0.000048 0.000000
25.836889 0.000048 0.000000
47.348161 0.000048 0.000000
87.272964 0.000048 0.000000
159.012100 0.000048 0.000000
295.840000 0.000048 0.000000
540.562500 0.000048 0.000000
992.250000 0.000048 0.000000
1827.562500 0.000048 0.000000
3341.996100 0.000048 0.000000
0.000000 0.000159 0.000000
0.000000 0.000159 0.000000
0.000000 0.000159 0.000000
0.000007 0.000159 0.000000
0.000048 0.000159 0.000000
0.000159 0.000159 0.000000
0.000412 0.000159 0.000000
0.000952 0.000159 0.000000
0.002024 0.000159 0.000000
0.004125 0.000159 0.000000
0.008077 0.000159 0.000000
0.015725 0.000159 0.000000
0.029998 0.000159 0.000000
0.056501 0.000159 0.000000
0.106733 0.000159 0.000000
0.195276 0.000159 0.000000
0.371125 0.000159 0.000000
0.678976 0.000159 0.000000
1.229881 0.000159 0.000000
2.226064 0.000159 0.000000
4.137156 0.000159 0.000000
7.612081 0.000159 0.000000
13.972644 0.000159 0.000000
25.836889 0.000159 0.000000
47.348161 0.000159 0.000000
87.272964 0.000159 0.000000
159.012100 0.000159 0.000000
295.840000 0.000159 0.000000
540.562500 0.000159 0.000000
992.250000 0.000159 0.000000
1827.562500 0.000159 0.000000
3341.996100 0.000159 0.000000
0.000000 0.000412 0.000000
0.000000 0.000412 0.000000
0.000000 0.000412 0.000000
0.000007 0.000412 0.000000
0.000048 0.000412 0.000000
0.000159 0.000412 0.000000
0.000412 0.000412 0.000000
0.000952 0.000412 0.000000
0.002024 0.000412 0.000000
0.004125 0.000412 0.000000
0.008077 0.000412 0.000000
0.015725 0.000412 0.000000
0.029998 0.000412 0.000000
0.056501 0.000412 0.000000
0.106733 0.000412 0.000000
0.195276 0.000412 0.000000
0.371125 0.000412 0.000000
0.678976 0.000412 0.000000
1.229881 0.000412 0.000000
2.226064 0.000412 0.000000
4.137156 0.000412 0.000000
7.612081 0.000412 0.000000
13.972644 0.000412 0.000000
25.836889 0.000412 0.000000
47.348161 0.000412 0.000000
87.272964 0.000412 0.000000
159.012100 0.000412 0.000000
295.840000 0.000412 0.000000
540.562500 0.000412 0.000000
992.250000 0.000412 0.000000
1827.562500 0.000412 0.000000
3341.996100 0.000412 0.000000
0.000000 0.000952 0.000000
0.000000 0.000952 0.000000
0.000000 0.000952 0.000000
0.000007 0.000952 0.000000
0.000048 0.000952 0.000000
0.000159 0.000952 0.000000
0.000412 0.000952 0.000000
0.000952 0.000952 0.000000
0.002024 0.000952 0.000000
0.004125 0.000952 0.000000
0.008077 0.000952 0.000000
0.015725 0.000952 0.000000
0.029998 0.000952 0.000000
0.056501 0.000952 0.000000
0.106733 0.000952 0.000000
0.195276 0.000952 0.000000
0.371125 0.000952 0.000000
0.678976 0.000952 0.000000
1.229881 0.000952 0.000000
2.226064 0.000952 0.000000
4.137156 0.000952 0.000000
7.612081 0.000952 0.000000
13.972644 0.000952 0.000000
25.836889 0.000952 0.000000
47.348161 0.000952 0.000000
87.272964 0.000952 0.000000
159.012100 0.000952 0.000000
295.840000 0.000952 0.000000
540.562500 0.000952 0.000000
992.250000 0.000952 0.000000
1827.562500 0.000952 0.000000
3341.996100 0.000952 0.000000
0.000000 0.002024 0.000000
0.000000 0.002024 0.000000
0.000000 0.002024 0.000000
0.000007 0.002024 0.000000
0.000048 0.002024 0.000000
0.000159 0.002024 0.000000
0.000412 0.002024 0.000000
0.000952 0.002024 0.000000
0.002024 0.002024 0.000000
0.004125 0.002024 0.000000
0.008077 0.002024 0.000000
0.015725 0.002024 0.000000
0.029998 0.002024 0.000000
0.056501 0.002024 0.000000
0.106733 0.002024 0.000000
0.195276 0.002024 0.000000
0.371125 0.002024 0.000000
0.678976 0.002024 0.000000
1.229881 0.002024 0.000000
2.226064 0.002024 0.000000
4.137156 0.002024 0.000000
7.612081 0.002024 0.000000
13.972644 0.002024 0.000000
25.836889 0.002024 0.000000
47.348161 0.002024 0.000000
87.272964 0.002024 0.000000
159.012100 0.002024 0.000000
295.840000 0.002024 0.000000
540.562500 0.002024 0.000000
992.250000 0.002024 0.000000
1827.562500 0.002024 0.000000
3341.996100 0.002024 0.000000
0.000000 0.004125 0.000000
0.000000 0.004125 0.000000
0.000000 0.004125 0.000000
0.000007 0.004125 0.000000
0.000048 0.004125 0.000000
0.000159 0.004125 0.000000
0.000412 0.004125 0.000000
0.000952 0.004125 0.000000
0.002024 0.004125 0.000000
0.004125 0.004125 0.000000
0.008077 0.004125 0.000000
0.015725 0.004125 0.000000
0.029998 0.004125 0.000000
0.056501 0.004125 0.000000
0.106733 0.004125 0.000000
0.195276 0.004125 0.000000
0.371125 0.004125 0.000000
0.678976 0.004125 0.000000
1.229881 0.004125 0.000000
2.226064 0.004125 0.000000
4.137156 0.004125 0.000000
7.612081 0.004125 0.000000
13.972644 0.004125 0.000000
25.836889 0.004125 0.000000
47.348161 0.004125 0.000000
87.272964 0.004125 0.000000
159.012100 0.004125 0.000000
295.840000 0.004125 0.000000
540.562500 0.004125 0.000000
992.250000 0.004125 0.000000
1827.562500 0.004125 0.000000
3341.996100 0.004125 0.000000
0.000000 0.008077 0.000000
0.000000 0.008077 0.000000
0.000000 0.008077 0.000000
0.000007 0.008077 0.000000
0.000048 0.008077 0.000000
0.000159 0.008077 0.000000
0.000412 0.008077 0.000000
0.000952 0.008077 0.000000
0.002024 0.008077 0.000000
0.004125 0.008077 0.000000
0.008077 0.008077 0.000000
0.015725 0.008077 0.000000
0.029998 0.008077 0.000000
0.056501 0.008077 0.000000
0.106733 0.008077 0.000000
0.195276 0.008077 0.000000
0.371125 0.008077 0.000000
0.678976 0.008077 0.000000
1.229881 0.008077 0.000000
2.226064 0.008077 0.000000
4.137156 0.008077 0.000000
7.612081 0.008077 0.000000
13.972644 0.008077 0.000000
25.836889 0.008077 0.000000
47.348161 0.008077 0.000000
87.272964 0.008077 0.000000
159.012100 0.008077 0.000000
295.840000 0.008077 0.000000
540.562500 0.008077 0.000000
992.250000 0.008077 0.000000
1827.562500 0.008077 0.000000
3341.996100 0.008077 0.000000
0.000000 0.015725 0.000000
0.000000 0.015725 0.000000
0.000000 0.015725 0.000000
0.000007 0.015725 0.000000
0.000048 0.015725 0.000000
0.000159 0.015725 0.000000
0.000412 0.015725 0.000000
0.000952 0.015725 0.000000
0.002024 0.015725 0.000000
0.004125 0.015725 0.000000
0.008077 0.015725 0.000000
0.015725 0.015725 0.000000
0.029998 0.015725 0.000000
0.056501 0.015725 0.000000
0.106733 0.015725 0.000000
0.195276 0.015725 0.000000
0.371125 0.015725 0.000000
0.678976 0.015725 0.000000
1.229881 0.015725 0.000000
2.226064 0.015725 0.000000
4.137156 0.015725 0.000000
7.612081 0.015725 0.000000
13.972644 0.015725 0.000000
25.836889 0.015725 0.000000
47.348161 0.015725 0.000000
87.272964 0.015725 0.000000
159.012100 0.015725 0.000000
295.840000 0.015725 0.000000
540.562500 0.015725 0.000000
992.250000 0.015725 0.000000
1827.562500 0.015725 0.000000
3341.996100 0.015725 0.000000
0.000000 0.029998 0.000000
0.000000 0.029998 0.000000
0.000000 0.029998 0.000000
0.000007 0.029998 0.000000
0.000048 0.029998 0.000000
0.000159 0.029998 0.000000
0.000412 0.029998 0.000000
0.000952 0.029998 0.000000
0.002024 0.029998 0.000000
0.004125 0.029998 0.000000
0.008077 0.029998 0.000000
0.015725 0.029998 0.000000
0.029998 0.029998 0.000000
0.056501 0.029998 0.000000
0.106733 0.029998 0.000000
0.195276 0.029998 0.000000
0.371125 0.029998 0.000000
0.678976 0.029998 0.000000
1.229881 0.029998 0.000000
2.226064 0.029998 0.000000
4.137156 0.029998 0.000000
7.612081 0.029998 0.000000
13.972644 0.029998 0.000000
25.836889 0.029998 0.000000
47.348161 0.029998 0.000000
87.272964 0.029998 0.000000
159.012100 0.029998 0.000000
295.840000 0.029998 0.000000
540.562500 0.029998 0.000000
992.250000 0.029998 0.000000
1827.562500 0.029998 0.000000
3341.996100 0.029998 0.000000
0.000000 0.056501 0.000000
0.000000 0.056501 0.000000
0.000000 0.056501 0.000000
0.000007 0.056501 0.000000
0.000048 0.056501 0.000000
0.000159 0.056501 0.000000
0.000412 0.056501 0.000000
0.000952 0.056501 0.000000
0.002024 0.056501 0.000000
0.004125 0.056501 0.000000
0.008077 0.056501 0.000000
0.015725 0.056501 0.000000
0.029998 0.056501 0.000000
0.056501 0.056501 0.000000
0.106733 0.056501 0.000000
0.195276 0.056501 0.000000
0.371125 0.056501 0.000000
0.678976 0.056501 0.000000
1.229881 0.056501 0.000000
2.226064 0.056501 0.000000
4.137156 0.056501 0.000000
7.612081 0.056501 0.000000
13.972644 0.056501 0.000000
25.836889 0.056501 0.000000
47.348161 0.056501 0.000000
87.272964 0.056501 0.000000
159.012100 0.056501 0.000000
295.840000 0.056501 0.000000
540.562500 0.056501 0.000000
992.250000 0.056501 0.000000
1827.562500 0.056501 0.000000
3341.996100 0.056501 0.000000
0.000000 0.106733 0.000000
0.000000 0.106733 0.000000
0.000000 0.106733 0.000000
0.000007 0.106733 0.000000
0.000048 0.106733 0.000000
0.000159 0.106733 0.000000
0.000412 0.106733 0.000000
0.000952 0.106733 0.000000
0.002024 0.106733 0.000000
0.004125 0.106733 0.000000
0.008077 0.106733 0.000000
0.015725 0.106733 0.000000
0.029998 0.106733 0.000000
0.056501 0.106733 0.000000
0.106733 0.106733 0.000000
0.195276 0.106733 0.000000
0.371125 0.106733 0.000000
0.678976 0.106733 0.000000
1.229881 0.106733 0.000000
2.226064 0.106733 0.000000
4.137156 0.106733 0.000000
7.612081 0.106733 0.000000
13.972644 0.106733 0.000000
25.836889 0.106733 0.000000
47.348161 0.106733 0.000000
87.272964 0.106733 0.000000
159.012100 0.106733 0.000000
295.840000 0.106733 0.000000
540.562500 0.106733 0.000000
992.250000 0.106733 0.000000
1827.562500 0.106733 0.000000
3341.996100 0.106733 0.000000
0.000000 0.195276 0.000000
0.000000 0.195276 0.000000
0.000000 0.195276 0.000000
0.000007 0.195276 0.000000
0.000048 0.195276 0.000000
0.000159 0.195276 0.000000
0.000412 0.195276 0.000000
0.000952 0.195276 0.000000
0.002024 0.195276 0.000000
0.004125 0.195276 0.000000
0.008077 0.195276 0.000000
0.015725 0.195276 0.000000
0.029998 0.195276 0.000000
0.056501 0.195276 0.000000
0.106733 0.195276 0.000000
0.195276 0.195276 0.000000
0.371125 0.195276 0.000000
0.678976 0.195276 0.000000
1.229881 0.195276 0.000000
2.226064 0.195276 0.000000
4.137156 0.195276 0.000000
7.612081 0.195276 0.000000
13.972644 0.195276 0.000000
25.836889 0.195276 0.000000
47.348161 0.195276 0.000000
87.272964 0.195276 0.000000
159.012100 0.195276 0.000000
295.840000 0.195276 0.000000
540.562500 0.195276 0.000000
992.250000 0.195276 0.000000
1827.562500 0.195276 0.000000
3341.996100 0.195276 0.000000
0.000000 0.371125 0.000000
0.000000 0.371125 0.000000
0.000000 0.371125 0.000000
0.000007 0.371125 0.000000
0.000048 0.371125 0.000000
0.000159 0.371125 0.000000
0.000412 0.371125 0.000000
0.000952 0.371125 0.000000
0.002024 0.371125 0.000000
0.004125 0.371125 0.000000
0.008077 0.371125 0.000000
0.015725 0.371125 0.000000
0.029998 0.371125 0.000000
0.056501 0.371125 0.000000
0.106733 0.371125 0.000000
0.195276 0.371125 0.000000
0.371125 0.371125 0.000000
0.678976 0.371125 0.000000
1.229881 0.371125 0.000000
2.226064 0.371125 0.000000
4.137156 0.371125 0.000000
7.612081 0.371125 0.000000
13.972644 0.371125 0.000000
25.836889 0.371125 0.000000
47.348161 0.371125 0.000000
87.272964 0.371125 0.000000
159.012100 0.371125 0.000000
295.840000 0.371125 0.000000
540.562500 0.371125 0.000000
992.250000 0.371125 0.000000
1827.562500 0.371125 0.000000
3341.996100 0.371125 0.000000
0.000000 0.678976 0.000000
0.000000 0.678976 0.000000
0.000000 0.678976 0.000000
0.000007 0.678976 0.000000
0.000048 0.678976 0.000000
0.000159 0.678976 0.000000
0.000412 0.678976 0.000000
0.000952 0.678976 0.000000
0.002024 0.678976 0.000000
0.004125 0.678976 0.000000
0.008077 0.678976 0.000000
0.015725 0.678976 0.000000
0.029998 0.678976 0.000000
0.056501 0.678976 0.000000
0.106733 0.678976 0.000000
0.195276 0.678976 0.000000
0.371125 0.678976 0.000000
0.678976 0.678976 0.000000
1.229881 0.678976 0.000000
2.226064 0.678976 0.000000
4.137156 0.678976 0.000000
7.612081 0.678976 0.000000
13.972644 0.678976 0.000000
25.836889 0.678976 0.000000
47.348161 0.678976 0.000000
87.272964 0.678976 0.000000
159.012100 0.678976 0.000000
295.840000 0.678976 0.000000
540.562500 0.678976 0.000000
992.250000 0.678976 0.000000
1827.562500 0.678976 0.000000
3341.996100 0.678976 0.000000
0.000000 1.229881 0.000000
0.000000 1.229881 0.000000
0.000000 1.229881 0.000000
0.000007 1.229881 0.000000
0.000048 1.229881 0.000000
0.000159 1.229881 0.000000
0.000412 1.229881 0.000000
0.000952 1.229881 0.000000
0.002024 1.229881 0.000000
0.004125 1.229881 0.000000
0.008077 1.229881 0.000000
0.015725 1.229881 0.000000
0.029998 1.229881 0.000000
0.056501 1.229881 0.000000
0.106733 1.229881 0.000000
0.195276 1.229881 0.000000
0.371125 1.229881 0.000000
0.678976 1.229881 0.000000
1.229881 1.229881 0.000000
2.226064 1.229881 0.000000
4.137156 1.229881 0.000000
7.612081 1.229881 0.000000
13.972644 1.229881 0.000000
25.836889 1.229881 0.000000
47.348161 1.229881 0.000000
87.272964 1.229881 0.000000
159.012100 1.229881 0.000000
295.840000 1.229881 0.000000
540.562500 1.229881 0.000000
992.250000 1.229881 0.000000
1827.562500 1.229881 0.000000
3341.996100 1.229881 0.000000
0.000000 2.226064 0.000000
0.000000 2.226064 0.000000
0.000000 2.226064 0.000000
0.000007 2.226064 0.000000
0.000048 2.226064 0.000000
0.000159 2.226064 0.000000
0.000412 2.226064 0.000000
0.000952 2.226064 0.000000
0.002024 2.226064 0.000000
0.004125 2.226064 0.000000
0.008077 2.226064 0.000000
0.015725 2.226064 0.000000
0.029998 2.226064 0.000000
0.056501 2.226064 0.000000
0.106733 2.226064 0.000000
0.195276 2.226064 0.000000
0.371125 2.226064 0.000000
0.678976 2.226064 0.000000
1.229881 2.226064 0.000000
2.226064 2.226064 0.000000
4.137156 2.226064 0.000000
7.612081 2.226064 0.000000
13.972644 2.226064 0.000000
25.836889 2.226064 0.000000
47.348161 2.226064 0.000000
87.272964 2.226064 0.000000
159.012100 2.226064 0.000000
295.840000 2.226064 0.000000
540.562500 2.226064 0.000000
992.250000 2.226064 0.000000
1827.562500 2.226064 0.000000
3341.996100 2.226064 0.000000
0.000000 4.137156 0.000000
0.000000 4.137156 0.000000
0.000000 4.137156 0.000000
0.000007 4.137156 0.000000
0.000048 4.137156 0.000000
0.000159 4.137156 0.000000
0.000412 4.137156 0.000000
0.000952 4.137156 0.000000
0.002024 4.137156 0.000000
0.004125 4.137156 0.000000
0.008077 4.137156 0.000000
0.015725 4.137156 0.000000
0.029998 4.137156 0.000000
0.056501 4.137156 0.000000
0.106733 4.137156 0.000000
0.195276 4.137156 0.000000
0.371125 4.137156 0.000000
0.678976 4.137156 0.000000
1.229881 4.137156 0.000000
2.226064 4.137156 0.000000
4.137156 4.137156 0.000000
7.612081 4.137156 0.000000
13.972644 4.137156 0.000000
25.836889 4.137156 0.000000
47.348161 4.137156 0.000000
87.272964 4.137156 0.000000
159.012100 4.137156 0.000000
295.840000 4.137156 0.000000
540.562500 4.137156 0.000000
992.250000 4.137156 0.000000
1827.562500 4.137156 0.000000
3341.996100 4.137156 0.000000
0.000000 7.612081 0.000000
0.000000 7.612081 0.000000
0.000000 7.612081 0.000000
0.000007 7.612081 0.000000
0.000048 7.612081 0.000000
0.000159 7.612081 0.000000
0.000412 7.612081 0.000000
0.000952 7.612081 0.000000
0.002024 7.612081 0.000000
0.004125 7.612081 0.000000
0.008077 7.612081 0.000000
0.015725 7.612081 0.000000
0.029998 7.612081 0.000000
0.056501 7.612081 0.000000
0.106733 7.612081 0.000000
0.195276 7.612081 0.000000
0.371125 7.612081 0.000000
0.678976 7.612081 0.000000
1.229881 7.612081 0.000000
2.226064 7.612081 0.000000
4.137156 7.612081 0.000000
7.612081 7.612081 0.000000
13.972644 7.612081 0.000000
25.836889 7.612081 0.000000
47.348161 7.612081 0.000000
87.272964 7.612081 0.000000
159.012100 7.612081 0.000000
295.840000 7.612081 0.000000
540.562500 7.612081 0.000000
992.250000 7.612081 0.000000
1827.562500 7.612081 0.000000
3341.996100 7.612081 0.000000
0.000000 13.972644 0.000000
0.000000 13.972644 0.000000
0.000000 13.972644 0.000000
0.000007 13.972644 0.000000
0.000048 13.972644 0.000000
0.000159 13.972644 0.000000
0.000412 13.972644 0.000000
0.000952 13.972644 0.000000
0.002024 13.972644 0.000000
0.004125 13.972644 0.000000
0.008077 13.972644 0.000000
0.015725 13.972644 0.000000
0.029998 13.972644 0.000000
0.056501 13.972644 0.000000
0.106733 13.972644 0.000000
0.195276 13.972644 0.000000
0.371125 13.972644 0.000000
0.678976 13.972644 0.000000
1.229881 13.972644 0.000000
2.226064 13.972644 0.000000
4.137156 13.972644 0.000000
7.612081 13.972644 0.000000
13.972644 13.972644 0.000000
25.836889 13.972644 0.000000
47.348161 13.972644 0.000000
87.272964 13.972644 0.000000
159.012100 13.972644 0.000000
295.840000 13.972644 0.000000
540.562500 13.972644 0.000000
992.250000 13.972644 0.000000
1827.562500 13.972644 0.000000
3341.996100 13.972644 0.000000
0.000000 25.836889 0.000000
0.000000 25.836889 0.000000
0.000000 25.836889 0.000000
0.000007 25.836889 0.000000
0.000048 25.836889 0.000000
0.000159 25.836889 0.000000
0.000412 25.836889 0.000000
0.000952 25.836889 0.000000
0.002024 25.836889 0.000000
0.004125 25.836889 0.000000
0.008077 25.836889 0.000000
0.015725 25.836889 0.000000
0.029998 25.836889 0.000000
0.056501 25.836889 0.000000
0.106733 25.836889 0.000000
0.195276 25.836889 0.000000
0.371125 25.836889 0.000000
0.678976 25.836889 0.000000
1.229881 25.836889 0.000000
2.226064 25.836889 0.000000
4.137156 25.836889 0.000000
7.612081 25.836889 0.000000
13.972644 25.836889 0.000000
25.836889 25.836889 0.000000
47.348161 25.836889 0.000000
87.272964 25.836889 0.000000
159.012100 25.836889 0.000000
295.840000 25.836889 0.000000
540.562500 25.836889 0.000000
992.250000 25.836889 0.000000
1827.562500 25.836889 0.000000
3341.996100 25.836889 0.000000
0.000000 47.348161 0.000000
0.000000 47.348161 0.000000
0.000000 47.348161 0.000000
0.000007 47.348161 0.000000
0.000048 47.348161 0.000000
0.000159 47.348161 0.000000
0.000412 47.348161 0.000000
0.000952 47.348161 0.000000
0.002024 47.348161 0.000000
0.004125 47.348161 0.000000
0.008077 47.348161 0.000000
0.015725 47.348161 0.000000
0.029998 47.348161 0.000000
0.056501 47.348161 0.000000
0.106733 47.348161 0.000000
0.195276 47.348161 0.000000
0.371125 47.348161 0.000000
0.678976 47.348161 0.000000
1.229881 47.348161 0.000000
2.226064 47.348161 0.000000
4.137156 47.348161 0.000000
7.612081 47.348161 0.000000
13.972644 47.348161 0.000000
25.836889 47.348161 0.000000
47.348161 47.348161 0.000000
87.272964 47.348161 0.000000
159.012100 47.348161 0.000000
295.840000 47.348161 0.000000
540.562500 47.348161 0.000000
992.250000 47.348161 0.000000
1827.562500 47.348161 0.000000
3341.996100 47.348161 0.000000
0.000000 87.272964 0.000000
0.000000 87.272964 0.000000
0.000000 87.272964 0.000000
0.000007 87.272964 0.000000
0.000048 87.272964 0.000000
0.000159 87.272964 0.000000
0.000412 87.272964 0.000000
0.000952 87.272964 0.000000
0.002024 87.272964 0.000000
0.004125 87.272964 0.000000
0.008077 87.272964 0.000000
0.015725 87.272964 0.000000
0.029998 87.272964 0.000000
0.056501 87.272964 0.000000
0.106733 87.272964 0.000000
0.195276 87.272964 0.000000
0.371125 87.272964 0.000000
0.678976 87.272964 0.000000
1.229881 87.272964 0.000000
2.226064 87.272964 0.000000
4.137156 87.272964 0.000000
7.612081 87.272964 0.000000
13.972644 87.272964 0.000000
25.836889 87.272964 0.000000
47.348161 87.272964 0.000000
87.272964 87.272964 0.000000
159.012100 87.272964 0.000000
295.840000 87.272964 0.000000
540.562500 87.272964 0.000000
992.250000 87.272964 0.000000
1827.562500 87.272964 0.000000
3341.996100 87.272964 0.000000
0.000000 159.012100 0.000000
0.000000 159.012100 0.000000
0.000000 159.012100 0.000000
0.000007 159.012100 0.000000
0.000048 159.012100 0.000000
0.000159 159.012100 0.000000
0.000412 159.012100 0.000000
0.000952 159.012100 0.000000
0.002024 159.012100 0.000000
0.004125 159.012100 0.000000
0.008077 159.012100 0.000000
0.015725 159.012100 0.000000
0.029998 159.012100 0.000000
0.056501 159.012100 0.000000
0.106733 159.012100 0.000000
0.195276 159.012100 0.000000
0.371125 159.012100 0.000000
0.678976 159.012100 0.000000
1.229881 159.012100 0.000000
2.226064 159.012100 0.000000
4.137156 159.012100 0.000000
7.612081 159.012100 0.000000
13.972644 159.012100 0.000000
25.836889 159.012100 0.000000
47.348161 159.012100 0.000000
87.272964 159.012100 0.000000
159.012100 159.012100 0.000000
295.840000 159.012100 0.000000
540.562500 159.012100 0.000000
