unity projects/render_random/Assets/square_root.cube
TITLE "square_root.cube"
LUT_3D_SIZE 8
DOMAIN_MIN 0.000000 0.000000 0.000000
DOMAIN_MAX 0.903226 0.903226 0.903226
0.000000 0.000000 0.000000
0.083223 0.000000 0.000000
0.212108 0.000000 0.000000
0.416173 0.000000 0.000000
0.780513 0.000000 0.000000
1.426184 0.000000 0.000000
2.623166 0.000000 0.000000
4.821825 0.000000 0.000000
0.000000 0.083223 0.000000
0.083223 0.083223 0.000000
0.212108 0.083223 0.000000
0.416173 0.083223 0.000000
0.780513 0.083223 0.000000
1.426184 0.083223 0.000000
2.623166 0.083223 0.000000
4.821825 0.083223 0.000000
0.000000 0.212108 0.000000
0.083223 0.212108 0.000000
0.212108 0.212108 0.000000
0.416173 0.212108 0.000000
0.780513 0.212108 0.000000
1.426184 0.212108 0.000000
2.623166 0.212108 0.000000
4.821825 0.212108 0.000000
0.000000 0.416173 0.000000
0.083223 0.416173 0.000000
0.212108 0.416173 0.000000
0.416173 0.416173 0.000000
0.780513 0.416173 0.000000
1.426184 0.416173 0.000000
2.623166 0.416173 0.000000
4.821825 0.416173 0.000000
0.000000 0.780513 0.000000
0.083223 0.780513 0.000000
0.212108 0.780513 0.000000
0.416173 0.780513 0.000000
0.780513 0.780513 0.000000
1.426184 0.780513 0.000000
2.623166 0.780513 0.000000
4.821825 0.780513 0.000000
0.000000 1.426184 0.000000
0.083223 1.426184 0.000000
0.212108 1.426184 0.000000
0.416173 1.426184 0.000000
0.780513 1.426184 0.000000
1.426184 1.426184 0.000000
2.623166 1.426184 0.000000
4.821825 1.426184 0.000000
0.000000 2.623166 0.000000
0.083223 2.623166 0.000000
0.212108 2.623166 0.000000
0.416173 2.623166 0.000000
0.780513 2.623166 0.000000
1.426184 2.623166 0.000000
2.623166 2.623166 0.000000
4.821825 2.623166 0.000000
0.000000 4.821825 0.000000
0.083223 4.821825 0.000000
0.212108 4.821825 0.000000
0.416173 4.821825 0.000000
0.780513 4.821825 0.000000
1.426184 4.821825 0.000000
2.623166 4.821825 0.000000
4.821825 4.821825 0.000000
0.000000 0.000000 0.083223
0.083223 0.000000 0.083223
0.212108 0.000000 0.083223
0.416173 0.000000 0.083223
0.780513 0.000000 0.083223
1.426184 0.000000 0.083223
2.623166 0.000000 0.083223
4.821825 0.000000 0.083223
0.000000 0.083223 0.083223
0.083223 0.083223 0.083223
0.212108 0.083223 0.083223
0.416173 0.083223 0.083223
0.780513 0.083223 0.083223
1.426184 0.083223 0.083223
2.623166 0.083223 0.083223
4.821825 0.083223 0.083223
0.000000 0.212108 0.083223
0.083223 0.212108 0.083223
0.212108 0.212108 0.083223
0.416173 0.212108 0.083223
0.780513 0.212108 0.083223
1.426184 0.212108 0.083223
2.623166 0.212108 0.083223
4.821825 0.212108 0.083223
0.000000 0.416173 0.083223
0.083223 0.416173 0.083223
0.212108 0.416173 0.083223
0.416173 0.416173 0.083223
0.780513 0.416173 0.083223
1.426184 0.416173 0.083223
2.623166 0.416173 0.083223
4.821825 0.416173 0.083223
0.000000 0.780513 0.083223
0.083223 0.780513 0.083223
0.212108 0.780513 0.083223
0.416173 0.780513 0.083223
0.780513 0.780513 0.083223
1.426184 0.780513 0.083223
2.623166 0.780513 0.083223
4.821825 0.780513 0.083223
0.000000 1.426184 0.083223
0.083223 1.426184 0.083223
0.212108 1.426184 0.083223
0.416173 1.426184 0.083223
0.780513 1.426184 0.083223
1.426184 1.426184 0.083223
2.623166 1.426184 0.083223
4.821825 1.426184 0.083223
0.000000 2.623166 0.083223
0.083223 2.623166 0.083223
0.212108 2.623166 0.083223
0.416173 2.623166 0.083223
0.780513 2.623166 0.083223
1.426184 2.623166 0.083223
2.623166 2.623166 0.083223
4.821825 2.623166 0.083223
0.000000 4.821825 0.083223
0.083223 4.821825 0.083223
0.212108 4.821825 0.083223
0.416173 4.821825 0.083223
0.780513 4.821825 0.083223
1.426184 4.821825 0.083223
2.623166 4.821825 0.083223
4.821825 4.821825 0.083223
0.000000 0.000000 0.212108
0.083223 0.000000 0.212108
0.212108 0.000000 0.212108
0.416173 0.000000 0.212108
0.780513 0.000000 0.212108
1.426184 0.000000 0.212108
2.623166 0.000000 0.212108
4.821825 0.000000 0.212108
0.000000 0.083223 0.212108
0.083223 0.083223 0.212108
0.212108 0.083223 0.212108
0.416173 0.083223 0.212108
0.780513 0.083223 0.212108
1.426184 0.083223 0.212108
2.623166 0.083223 0.212108
4.821825 0.083223 0.212108
0.000000 0.212108 0.212108
0.083223 0.212108 0.212108
0.212108 0.212108 0.212108
0.416173 0.212108 0.212108
0.780513 0.212108 0.212108
1.426184 0.212108 0.212108
2.623166 0.212108 0.212108
4.821825 0.212108 0.212108
0.000000 0.416173 0.212108
0.083223 0.416173 0.212108
0.212108 0.416173 0.212108
0.416173 0.416173 0.212108
0.780513 0.416173 0.212108
1.426184 0.416173 0.212108
2.623166 0.416173 0.212108
4.821825 0.416173 0.212108
0.000000 0.780513 0.212108
0.083223 0.780513 0.212108
0.212108 0.780513 0.212108
0.416173 0.780513 0.212108
0.780513 0.780513 0.212108
1.426184 0.780513 0.212108
2.623166 0.780513 0.212108
4.821825 0.780513 0.212108
0.000000 1.426184 0.212108
0.083223 1.426184 0.212108
0.212108 1.426184 0.212108
0.416173 1.426184 0.212108
0.780513 1.426184 0.212108
1.426184 1.426184 0.212108
2.623166 1.426184 0.212108
4.821825 1.426184 0.212108
0.000000 2.623166 0.212108
0.083223 2.623166 0.212108
0.212108 2.623166 0.212108
0.416173 2.623166 0.212108
0.780513 2.623166 0.212108
1.426184 2.623166 0.212108
2.623166 2.623166 0.212108
4.821825 2.623166 0.212108
0.000000 4.821825 0.212108
0.083223 4.821825 0.212108
0.212108 4.821825 0.212108
0.416173 4.821825 0.212108
0.780513 4.821825 0.212108
1.426184 4.821825 0.212108
2.623166 4.821825 0.212108
4.821825 4.821825 0.212108
0.000000 0.000000 0.416173
0.083223 0.000000 0.416173
0.212108 0.000000 0.416173
0.416173 0.000000 0.416173
0.780513 0.000000 0.416173
1.426184 0.000000 0.416173
2.623166 0.000000 0.416173
4.821825 0.000000 0.416173
0.000000 0.083223 0.416173
0.083223 0.083223 0.416173
0.212108 0.083223 0.416173
0.416173 0.083223 0.416173
0.780513 0.083223 0.416173
1.426184 0.083223 0.416173
2.623166 0.083223 0.416173
4.821825 0.083223 0.416173
0.000000 0.212108 0.416173
0.083223 0.212108 0.416173
0.212108 0.212108 0.416173
0.416173 0.212108 0.416173
0.780513 0.212108 0.416173
1.426184 0.212108 0.416173
2.623166 0.212108 0.416173
4.821825 0.212108 0.416173
0.000000 0.416173 0.416173
0.083223 0.416173 0.416173
0.212108 0.416173 0.416173
0.416173 0.416173 0.416173
0.780513 0.416173 0.416173
1.426184 0.416173 0.416173
2.623166 0.416173 0.416173
4.821825 0.416173 0.416173
0.000000 0.780513 0.416173
0.083223 0.780513 0.416173
0.212108 0.780513 0.416173
0.416173 0.780513 0.416173
0.780513 0.780513 0.416173
1.426184 0.780513 0.416173
2.623166 0.780513 0.416173
4.821825 0.780513 0.416173
0.000000 1.426184 0.416173
0.083223 1.426184 0.416173
0.212108 1.426184 0.416173
0.416173 1.426184 0.416173
0.780513 1.426184 0.416173
1.426184 1.426184 0.416173
2.623166 1.426184 0.416173
4.821825 1.426184 0.416173
0.000000 2.623166 0.416173
0.083223 2.623166 0.416173
0.212108 2.623166 0.416173
0.416173 2.623166 0.416173
0.780513 2.623166 0.416173
1.426184 2.623166 0.416173
2.623166 2.623166 0.416173
4.821825 2.623166 0.416173
0.000000 4.821825 0.416173
0.083223 4.821825 0.416173
0.212108 4.821825 0.416173
0.416173 4.821825 0.416173
0.780513 4.821825 0.416173
1.426184 4.821825 0.416173
2.623166 4.821825 0.416173
4.821825 4.821825 0.416173
0.000000 0.000000 0.780513
0.083223 0.000000 0.780513
0.212108 0.000000 0.780513
0.416173 0.000000 0.780513
0.780513 0.000000 0.780513
1.426184 0.000000 0.780513
2.623166 0.000000 0.780513
4.821825 0.000000 0.780513
0.000000 0.083223 0.780513
0.083223 0.083223 0.780513
0.212108 0.083223 0.780513
0.416173 0.083223 0.780513
0.780513 0.083223 0.780513
1.426184 0.083223 0.780513
2.623166 0.083223 0.780513
4.821825 0.083223 0.780513
0.000000 0.212108 0.780513
0.083223 0.212108 0.780513
0.212108 0.212108 0.780513
0.416173 0.212108 0.780513
0.780513 0.212108 0.780513
1.426184 0.212108 0.780513
2.623166 0.212108 0.780513
4.821825 0.212108 0.780513
0.000000 0.416173 0.780513
0.083223 0.416173 0.780513
0.212108 0.416173 0.780513
0.416173 0.416173 0.780513
0.780513 0.416173 0.780513
1.426184 0.416173 0.780513
2.623166 0.416173 0.780513
4.821825 0.416173 0.780513
0.000000 0.780513 0.780513
0.083223 0.780513 0.780513
0.212108 0.780513 0.780513
0.416173 0.780513 0.780513
0.780513 0.780513 0.780513
1.426184 0.780513 0.780513
2.623166 0.780513 0.780513
4.821825 0.780513 0.780513
0.000000 1.426184 0.780513
0.083223 1.426184 0.780513
0.212108 1.426184 0.780513
0.416173 1.426184 0.780513
0.780513 1.426184 0.780513
1.426184 1.426184 0.780513
2.623166 1.426184 0.780513
4.821825 1.426184 0.780513
0.000000 2.623166 0.780513
0.083223 2.623166 0.780513
0.212108 2.623166 0.780513
0.416173 2.623166 0.780513
0.780513 2.623166 0.780513
1.426184 2.623166 0.780513
2.623166 2.623166 0.780513
4.821825 2.623166 0.780513
0.000000 4.821825 0.780513
0.083223 4.821825 0.780513
0.212108 4.821825 0.780513
0.416173 4.821825 0.780513
0.780513 4.821825 0.780513
1.426184 4.821825 0.780513
2.623166 4.821825 0.780513
4.821825 4.821825 0.780513
0.000000 0.000000 1.426184
0.083223 0.000000 1.426184
0.212108 0.000000 1.426184
0.416173 0.000000 1.426184
0.780513 0.000000 1.426184
1.426184 0.000000 1.426184
2.623166 0.000000 1.426184
4.821825 0.000000 1.426184
0.000000 0.083223 1.426184
0.083223 0.083223 1.426184
0.212108 0.083223 1.426184
0.416173 0.083223 1.426184
0.780513 0.083223 1.426184
1.426184 0.083223 1.426184
2.623166 0.083223 1.426184
4.821825 0.083223 1.426184
0.000000 0.212108 1.426184
0.083223 0.212108 1.426184
0.212108 0.212108 1.426184
0.416173 0.212108 1.426184
0.780513 0.212108 1.426184
1.426184 0.212108 1.426184
2.623166 0.212108 1.426184
4.821825 0.212108 1.426184
0.000000 0.416173 1.426184
0.083223 0.416173 1.426184
0.212108 0.416173 1.426184
0.416173 0.416173 1.426184
0.780513 0.416173 1.426184
1.426184 0.416173 1.426184
2.623166 0.416173 1.426184
4.821825 0.416173 1.426184
0.000000 0.780513 1.426184
0.083223 0.780513 1.426184
0.212108 0.780513 1.426184
0.416173 0.780513 1.426184
0.780513 0.780513 1.426184
1.426184 0.780513 1.426184
2.623166 0.780513 1.426184
4.821825 0.780513 1.426184
0.000000 1.426184 1.426184
0.083223 1.426184 1.426184
0.212108 1.426184 1.426184
0.416173 1.426184 1.426184
0.780513 1.426184 1.426184
1.426184 1.426184 1.426184
2.623166 1.426184 1.426184
4.821825 1.426184 1.426184
0.000000 2.623166 1.426184
0.083223 2.623166 1.426184
0.212108 2.623166 1.426184
0.416173 2.623166 1.426184
0.780513 2.623166 1.426184
1.426184 2.623166 1.426184
2.623166 2.623166 1.426184
4.821825 2.623166 1.426184
0.000000 4.821825 1.426184
0.083223 4.821825 1.426184
0.212108 4.821825 1.426184
0.416173 4.821825 1.426184
0.780513 4.821825 1.426184
1.426184 4.821825 1.426184
2.623166 4.821825 1.426184
4.821825 4.821825 1.426184
0.000000 0.000000 2.623166
0.083223 0.000000 2.623166
0.212108 0.000000 2.623166
0.416173 0.000000 2.623166
0.780513 0.000000 2.623166
1.426184 0.000000 2.623166
2.623166 0.000000 2.623166
4.821825 0.000000 2.623166
0.000000 0.083223 2.623166
0.083223 0.083223 2.623166
0.212108 0.083223 2.623166
0.416173 0.083223 2.623166
0.780513 0.083223 2.623166
1.426184 0.083223 2.623166
2.623166 0.083223 2.623166
4.821825 0.083223 2.623166
0.000000 0.212108 2.623166
0.083223 0.212108 2.623166
0.212108 0.212108 2.623166
0.416173 0.212108 2.623166
0.780513 0.212108 2.623166
1.426184 0.212108 2.623166
2.623166 0.212108 2.623166
4.821825 0.212108 2.623166
0.000000 0.416173 2.623166
0.083223 0.416173 2.623166
0.212108 0.416173 2.623166
0.416173 0.416173 2.623166
0.780513 0.416173 2.623166
1.426184 0.416173 2.623166
2.623166 0.416173 2.623166
4.821825 0.416173 2.623166
0.000000 0.780513 2.623166
0.083223 0.780513 2.623166
0.212108 0.780513 2.623166
0.416173 0.780513 2.623166
0.780513 0.780513 2.623166
1.426184 0.780513 2.623166
2.623166 0.780513 2.623166
4.821825 0.780513 2.623166
0.000000 1.426184 2.623166
0.083223 1.426184 2.623166
0.212108 1.426184 2.623166
0.416173 1.426184 2.623166
0.780513 1.426184 2.623166
1.426184 1.426184 2.623166
2.623166 1.426184 2.623166
4.821825 1.426184 2.623166
0.000000 2.623166 2.623166
0.083223 2.623166 2.623166
0.212108 2.623166 2.623166
0.416173 2.623166 2.623166
0.780513 2.623166 2.623166
1.426184 2.623166 2.623166
2.623166 2.623166 2.623166
4.821825 2.623166 2.623166
0.000000 4.821825 2.623166
0.083223 4.821825 2.623166
0.212108 4.821825 2.623166
0.416173 4.821825 2.623166
0.780513 4.821825 2.623166
1.426184 4.821825 2.623166
2.623166 4.821825 2.623166
4.821825 4.821825 2.623166
0.000000 0.000000 4.821825
0.083223 0.000000 4.821825
0.212108 0.000000 4.821825
0.416173 0.000000 4.821825
0.780513 0.000000 4.821825
1.426184 0.000000 4.821825
2.623166 0.000000 4.821825
4.821825 0.000000 4.821825
0.000000 0.083223 4.821825
0.083223 0.083223 4.821825
0.212108 0.083223 4.821825
0.416173 0.083223 4.821825
0.780513 0.083223 4.821825
1.426184 0.083223 4.821825
2.623166 0.083223 4.821825
4.821825 0.083223 4.821825
0.000000 0.212108 4.821825
0.083223 0.212108 4.821825
0.212108 0.212108 4.821825
0.416173 0.212108 4.821825
0.780513 0.212108 4.821825
1.426184 0.212108 4.821825
2.623166 0.212108 4.821825
4.821825 0.212108 4.821825
0.000000 0.416173 4.821825
0.083223 0.416173 4.821825
0.212108 0.416173 4.821825
0.416173 0.416173 4.821825
0.780513 0.416173 4.821825
1.426184 0.416173 4.821825
2.623166 0.416173 4.821825
4.821825 0.416173 4.821825
0.000000 0.780513 4.821825
0.083223 0.780513 4.821825
0.212108 0.780513 4.821825
0.416173 0.780513 4.821825
0.780513 0.780513 4.821825
1.426184 0.780513 4.821825
2.623166 0.780513 4.821825
4.821825 0.780513 4.821825
0.000000 1.426184 4.821825
0.083223 1.426184 4.821825
0.212108 1.426184 4.821825
0.416173 1.426184 4.821825
0.780513 1.426184 4.821825
1.426184 1.426184 4.821825
2.623166 1.426184 4.821825
4.821825 1.426184 4.821825
0.000000 2.623166 4.821825
0.083223 2.623166 4.821825
0.212108 2.623166 4.821825
0.416173 2.623166 4.821825
0.780513 2.623166 4.821825
1.426184 2.623166 4.821825
2.623166 2.623166 4.821825
4.821825 2.623166 4.821825
0.000000 4.821825 4.821825
0.083223 4.821825 4.821825
0.212108 4.821825 4.821825
0.416173 4.821825 4.821825
0.780513 4.821825 4.821825
1.426184 4.821825 4.821825
2.623166 4.821825 4.821825
4.821825 4.821825 4.821825
