python/linearize1.cube
TITLE "linearize1.cube"
LUT_3D_SIZE 32
DOMAIN_MIN 0.0 0.0 0.0
DOMAIN_MAX 1.0 1.0 1.0
-0.000000 -0.000000 -0.000000
-0.000000 -0.000000 -0.000000
-0.000000 -0.000000 -0.000000
-0.000000 -0.000000 -0.000000
-0.000000 -0.000000 -0.000000
-0.000000 -0.000000 -0.000000
-0.000000 -0.000000 -0.000000
-0.000000 -0.000000 -0.000000
-0.000000 -0.000000 -0.000000
0.021766 -0.000000 -0.000000
0.049105 -0.000000 -0.000000
0.085140 -0.000000 -0.000000
0.133733 -0.000000 -0.000000
0.198707 -0.000000 -0.000000
0.290187 -0.000000 -0.000000
0.409460 -0.000000 -0.000000
0.580010 -0.000000 -0.000000
0.808637 -0.000000 -0.000000
1.000000 -0.000000 -0.000000
1.000000 -0.000000 -0.000000
1.000000 -0.000000 -0.000000
1.000000 -0.000000 -0.000000
1.000000 -0.000000 -0.000000
1.000000 -0.000000 -0.000000
1.000000 -0.000000 -0.000000
1.000000 -0.000000 -0.000000
1.000000 -0.000000 -0.000000
1.000000 -0.000000 -0.000000
1.000000 -0.000000 -0.000000
1.000000 -0.000000 -0.000000
1.000000 -0.000000 -0.000000
1.000000 -0.000000 -0.000000
-0.000000 -0.000000 -0.000000
-0.000000 -0.000000 -0.000000
-0.000000 -0.000000 -0.000000
-0.000000 -0.000000 -0.000000
-0.000000 -0.000000 -0.000000
-0.000000 -0.000000 -0.000000
-0.000000 -0.000000 -0.000000
-0.000000 -0.000000 -0.000000
-0.000000 -0.000000 -0.000000
0.021766 -0.000000 -0.000000
0.049105 -0.000000 -0.000000
0.085140 -0.000000 -0.000000
0.133733 -0.000000 -0.000000
0.198707 -0.000000 -0.000000
0.290187 -0.000000 -0.000000
0.409460 -0.000000 -0.000000
0.580010 -0.000000 -0.000000
0.808637 -0.000000 -0.000000
1.000000 -0.000000 -0.000000
1.000000 -0.000000 -0.000000
1.000000 -0.000000 -0.000000
1.000000 -0.000000 -0.000000
1.000000 -0.000000 -0.000000
1.000000 -0.000000 -0.000000
1.000000 -0.000000 -0.000000
1.000000 -0.000000 -0.000000
1.000000 -0.000000 -0.000000
1.000000 -0.000000 -0.000000
1.000000 -0.000000 -0.000000
1.000000 -0.000000 -0.000000
1.000000 -0.000000 -0.000000
1.000000 -0.000000 -0.000000
-0.000000 -0.000000 -0.000000
-0.000000 -0.000000 -0.000000
-0.000000 -0.000000 -0.000000
-0.000000 -0.000000 -0.000000
-0.000000 -0.000000 -0.000000
-0.000000 -0.000000 -0.000000
-0.000000 -0.000000 -0.000000
-0.000000 -0.000000 -0.000000
-0.000000 -0.000000 -0.000000
0.021766 -0.000000 -0.000000
0.049105 -0.000000 -0.000000
0.085140 -0.000000 -0.000000
0.133733 -0.000000 -0.000000
0.198707 -0.000000 -0.000000
0.290187 -0.000000 -0.000000
0.409460 -0.000000 -0.000000
0.580010 -0.000000 -0.000000
0.808637 -0.000000 -0.000000
1.000000 -0.000000 -0.000000
1.000000 -0.000000 -0.000000
1.000000 -0.000000 -0.000000
1.000000 -0.000000 -0.000000
1.000000 -0.000000 -0.000000
1.000000 -0.000000 -0.000000
1.000000 -0.000000 -0.000000
1.000000 -0.000000 -0.000000
1.000000 -0.000000 -0.000000
1.000000 -0.000000 -0.000000
1.000000 -0.000000 -0.000000
1.000000 -0.000000 -0.000000
1.000000 -0.000000 -0.000000
1.000000 -0.000000 -0.000000
-0.000000 -0.000000 -0.000000
-0.000000 -0.000000 -0.000000
-0.000000 -0.000000 -0.000000
-0.000000 -0.000000 -0.000000
-0.000000 -0.000000 -0.000000
-0.000000 -0.000000 -0.000000
-0.000000 -0.000000 -0.000000
-0.000000 -0.000000 -0.000000
-0.000000 -0.000000 -0.000000
0.021766 -0.000000 -0.000000
0.049105 -0.000000 -0.000000
0.085140 -0.000000 -0.000000
0.133733 -0.000000 -0.000000
0.198707 -0.000000 -0.000000
0.290187 -0.000000 -0.000000
0.409460 -0.000000 -0.000000
0.580010 -0.000000 -0.000000
0.808637 -0.000000 -0.000000
1.000000 -0.000000 -0.000000
1.000000 -0.000000 -0.000000
1.000000 -0.000000 -0.000000
1.000000 -0.000000 -0.000000
1.000000 -0.000000 -0.000000
1.000000 -0.000000 -0.000000
1.000000 -0.000000 -0.000000
1.000000 -0.000000 -0.000000
1.000000 -0.000000 -0.000000
1.000000 -0.000000 -0.000000
1.000000 -0.000000 -0.000000
1.000000 -0.000000 -0.000000
1.000000 -0.000000 -0.000000
1.000000 -0.000000 -0.000000
-0.000000 -0.000000 -0.000000
-0.000000 -0.000000 -0.000000
-0.000000 -0.000000 -0.000000
-0.000000 -0.000000 -0.000000
-0.000000 -0.000000 -0.000000
-0.000000 -0.000000 -0.000000
-0.000000 -0.000000 -0.000000
-0.000000 -0.000000 -0.000000
-0.000000 -0.000000 -0.000000
0.021766 -0.000000 -0.000000
0.049105 -0.000000 -0.000000
0.085140 -0.000000 -0.000000
0.133733 -0.000000 -0.000000
0.198707 -0.000000 -0.000000
0.290187 -0.000000 -0.000000
0.409460 -0.000000 -0.000000
0.580010 -0.000000 -0.000000
0.808637 -0.000000 -0.000000
1.000000 -0.000000 -0.000000
1.000000 -0.000000 -0.000000
1.000000 -0.000000 -0.000000
1.000000 -0.000000 -0.000000
1.000000 -0.000000 -0.000000
1.000000 -0.000000 -0.000000
1.000000 -0.000000 -0.000000
1.000000 -0.000000 -0.000000
1.000000 -0.000000 -0.000000
1.000000 -0.000000 -0.000000
1.000000 -0.000000 -0.000000
1.000000 -0.000000 -0.000000
1.000000 -0.000000 -0.000000
1.000000 -0.000000 -0.000000
-0.000000 -0.000000 -0.000000
-0.000000 -0.000000 -0.000000
-0.000000 -0.000000 -0.000000
-0.000000 -0.000000 -0.000000
-0.000000 -0.000000 -0.000000
-0.000000 -0.000000 -0.000000
-0.000000 -0.000000 -0.000000
-0.000000 -0.000000 -0.000000
-0.000000 -0.000000 -0.000000
0.021766 -0.000000 -0.000000
0.049105 -0.000000 -0.000000
0.085140 -0.000000 -0.000000
0.133733 -0.000000 -0.000000
0.198707 -0.000000 -0.000000
0.290187 -0.000000 -0.000000
0.409460 -0.000000 -0.000000
0.580010 -0.000000 -0.000000
0.808637 -0.000000 -0.000000
1.000000 -0.000000 -0.000000
1.000000 -0.000000 -0.000000
1.000000 -0.000000 -0.000000
1.000000 -0.000000 -0.000000
1.000000 -0.000000 -0.000000
1.000000 -0.000000 -0.000000
1.000000 -0.000000 -0.000000
1.000000 -0.000000 -0.000000
1.000000 -0.000000 -0.000000
1.000000 -0.000000 -0.000000
1.000000 -0.000000 -0.000000
1.000000 -0.000000 -0.000000
1.000000 -0.000000 -0.000000
1.000000 -0.000000 -0.000000
-0.000000 -0.000000 -0.000000
-0.000000 -0.000000 -0.000000
-0.000000 -0.000000 -0.000000
-0.000000 -0.000000 -0.000000
-0.000000 -0.000000 -0.000000
-0.000000 -0.000000 -0.000000
-0.000000 -0.000000 -0.000000
-0.000000 -0.000000 -0.000000
-0.000000 -0.000000 -0.000000
0.021766 -0.000000 -0.000000
0.049105 -0.000000 -0.000000
0.085140 -0.000000 -0.000000
0.133733 -0.000000 -0.000000
0.198707 -0.000000 -0.000000
0.290187 -0.000000 -0.000000
0.409460 -0.000000 -0.000000
0.580010 -0.000000 -0.000000
0.808637 -0.000000 -0.000000
1.000000 -0.000000 -0.000000
1.000000 -0.000000 -0.000000
1.000000 -0.000000 -0.000000
1.000000 -0.000000 -0.000000
1.000000 -0.000000 -0.000000
1.000000 -0.000000 -0.000000
1.000000 -0.000000 -0.000000
1.000000 -0.000000 -0.000000
1.000000 -0.000000 -0.000000
1.000000 -0.000000 -0.000000
1.000000 -0.000000 -0.000000
1.000000 -0.000000 -0.000000
1.000000 -0.000000 -0.000000
1.000000 -0.000000 -0.000000
-0.000000 -0.000000 -0.000000
-0.000000 -0.000000 -0.000000
-0.000000 -0.000000 -0.000000
-0.000000 -0.000000 -0.000000
-0.000000 -0.000000 -0.000000
-0.000000 -0.000000 -0.000000
-0.000000 -0.000000 -0.000000
-0.000000 -0.000000 -0.000000
-0.000000 -0.000000 -0.000000
0.021766 -0.000000 -0.000000
0.049105 -0.000000 -0.000000
0.085140 -0.000000 -0.000000
0.133733 -0.000000 -0.000000
0.198707 -0.000000 -0.000000
0.290187 -0.000000 -0.000000
0.409460 -0.000000 -0.000000
0.580010 -0.000000 -0.000000
0.808637 -0.000000 -0.000000
1.000000 -0.000000 -0.000000
1.000000 -0.000000 -0.000000
1.000000 -0.000000 -0.000000
1.000000 -0.000000 -0.000000
1.000000 -0.000000 -0.000000
1.000000 -0.000000 -0.000000
1.000000 -0.000000 -0.000000
1.000000 -0.000000 -0.000000
1.000000 -0.000000 -0.000000
1.000000 -0.000000 -0.000000
1.000000 -0.000000 -0.000000
1.000000 -0.000000 -0.000000
1.000000 -0.000000 -0.000000
1.000000 -0.000000 -0.000000
-0.000000 -0.000000 -0.000000
-0.000000 -0.000000 -0.000000
-0.000000 -0.000000 -0.000000
-0.000000 -0.000000 -0.000000
-0.000000 -0.000000 -0.000000
-0.000000 -0.000000 -0.000000
-0.000000 -0.000000 -0.000000
-0.000000 -0.000000 -0.000000
-0.000000 -0.000000 -0.000000
0.021766 -0.000000 -0.000000
0.049105 -0.000000 -0.000000
0.085140 -0.000000 -0.000000
0.133733 -0.000000 -0.000000
0.198707 -0.000000 -0.000000
0.290187 -0.000000 -0.000000
0.409460 -0.000000 -0.000000
0.580010 -0.000000 -0.000000
0.808637 -0.000000 -0.000000
1.000000 -0.000000 -0.000000
1.000000 -0.000000 -0.000000
1.000000 -0.000000 -0.000000
1.000000 -0.000000 -0.000000
1.000000 -0.000000 -0.000000
1.000000 -0.000000 -0.000000
1.000000 -0.000000 -0.000000
1.000000 -0.000000 -0.000000
1.000000 -0.000000 -0.000000
1.000000 -0.000000 -0.000000
1.000000 -0.000000 -0.000000
1.000000 -0.000000 -0.000000
1.000000 -0.000000 -0.000000
1.000000 -0.000000 -0.000000
-0.000000 0.021766 -0.000000
-0.000000 0.021766 -0.000000
-0.000000 0.021766 -0.000000
-0.000000 0.021766 -0.000000
-0.000000 0.021766 -0.000000
-0.000000 0.021766 -0.000000
-0.000000 0.021766 -0.000000
-0.000000 0.021766 -0.000000
-0.000000 0.021766 -0.000000
0.021766 0.021766 -0.000000
0.049105 0.021766 -0.000000
0.085140 0.021766 -0.000000
0.133733 0.021766 -0.000000
0.198707 0.021766 -0.000000
0.290187 0.021766 -0.000000
0.409460 0.021766 -0.000000
0.580010 0.021766 -0.000000
0.808637 0.021766 -0.000000
1.000000 0.021766 -0.000000
1.000000 0.021766 -0.000000
1.000000 0.021766 -0.000000
1.000000 0.021766 -0.000000
1.000000 0.021766 -0.000000
1.000000 0.021766 -0.000000
1.000000 0.021766 -0.000000
1.000000 0.021766 -0.000000
1.000000 0.021766 -0.000000
1.000000 0.021766 -0.000000
1.000000 0.021766 -0.000000
1.000000 0.021766 -0.000000
1.000000 0.021766 -0.000000
1.000000 0.021766 -0.000000
-0.000000 0.049105 -0.000000
-0.000000 0.049105 -0.000000
-0.000000 0.049105 -0.000000
-0.000000 0.049105 -0.000000
-0.000000 0.049105 -0.000000
-0.000000 0.049105 -0.000000
-0.000000 0.049105 -0.000000
-0.000000 0.049105 -0.000000
-0.000000 0.049105 -0.000000
0.021766 0.049105 -0.000000
0.049105 0.049105 -0.000000
0.085140 0.049105 -0.000000
0.133733 0.049105 -0.000000
0.198707 0.049105 -0.000000
0.290187 0.049105 -0.000000
0.409460 0.049105 -0.000000
0.580010 0.049105 -0.000000
0.808637 0.049105 -0.000000
1.000000 0.049105 -0.000000
1.000000 0.049105 -0.000000
1.000000 0.049105 -0.000000
1.000000 0.049105 -0.000000
1.000000 0.049105 -0.000000
1.000000 0.049105 -0.000000
1.000000 0.049105 -0.000000
1.000000 0.049105 -0.000000
1.000000 0.049105 -0.000000
1.000000 0.049105 -0.000000
1.000000 0.049105 -0.000000
1.000000 0.049105 -0.000000
1.000000 0.049105 -0.000000
1.000000 0.049105 -0.000000
-0.000000 0.085140 -0.000000
-0.000000 0.085140 -0.000000
-0.000000 0.085140 -0.000000
-0.000000 0.085140 -0.000000
-0.000000 0.085140 -0.000000
-0.000000 0.085140 -0.000000
-0.000000 0.085140 -0.000000
-0.000000 0.085140 -0.000000
-0.000000 0.085140 -0.000000
0.021766 0.085140 -0.000000
0.049105 0.085140 -0.000000
0.085140 0.085140 -0.000000
0.133733 0.085140 -0.000000
0.198707 0.085140 -0.000000
0.290187 0.085140 -0.000000
0.409460 0.085140 -0.000000
0.580010 0.085140 -0.000000
0.808637 0.085140 -0.000000
1.000000 0.085140 -0.000000
1.000000 0.085140 -0.000000
1.000000 0.085140 -0.000000
1.000000 0.085140 -0.000000
1.000000 0.085140 -0.000000
1.000000 0.085140 -0.000000
1.000000 0.085140 -0.000000
1.000000 0.085140 -0.000000
1.000000 0.085140 -0.000000
1.000000 0.085140 -0.000000
1.000000 0.085140 -0.000000
1.000000 0.085140 -0.000000
1.000000 0.085140 -0.000000
1.000000 0.085140 -0.000000
-0.000000 0.133733 -0.000000
-0.000000 0.133733 -0.000000
-0.000000 0.133733 -0.000000
-0.000000 0.133733 -0.000000
-0.000000 0.133733 -0.000000
-0.000000 0.133733 -0.000000
-0.000000 0.133733 -0.000000
-0.000000 0.133733 -0.000000
-0.000000 0.133733 -0.000000
0.021766 0.133733 -0.000000
0.049105 0.133733 -0.000000
0.085140 0.133733 -0.000000
0.133733 0.133733 -0.000000
0.198707 0.133733 -0.000000
0.290187 0.133733 -0.000000
0.409460 0.133733 -0.000000
0.580010 0.133733 -0.000000
0.808637 0.133733 -0.000000
1.000000 0.133733 -0.000000
1.000000 0.133733 -0.000000
1.000000 0.133733 -0.000000
1.000000 0.133733 -0.000000
1.000000 0.133733 -0.000000
1.000000 0.133733 -0.000000
1.000000 0.133733 -0.000000
1.000000 0.133733 -0.000000
1.000000 0.133733 -0.000000
1.000000 0.133733 -0.000000
1.000000 0.133733 -0.000000
1.000000 0.133733 -0.000000
1.000000 0.133733 -0.000000
1.000000 0.133733 -0.000000
-0.000000 0.198707 -0.000000
-0.000000 0.198707 -0.000000
-0.000000 0.198707 -0.000000
-0.000000 0.198707 -0.000000
-0.000000 0.198707 -0.000000
-0.000000 0.198707 -0.000000
-0.000000 0.198707 -0.000000
-0.000000 0.198707 -0.000000
-0.000000 0.198707 -0.000000
0.021766 0.198707 -0.000000
0.049105 0.198707 -0.000000
0.085140 0.198707 -0.000000
0.133733 0.198707 -0.000000
0.198707 0.198707 -0.000000
0.290187 0.198707 -0.000000
0.409460 0.198707 -0.000000
0.580010 0.198707 -0.000000
0.808637 0.198707 -0.000000
1.000000 0.198707 -0.000000
1.000000 0.198707 -0.000000
1.000000 0.198707 -0.000000
1.000000 0.198707 -0.000000
1.000000 0.198707 -0.000000
1.000000 0.198707 -0.000000
1.000000 0.198707 -0.000000
1.000000 0.198707 -0.000000
1.000000 0.198707 -0.000000
1.000000 0.198707 -0.000000
1.000000 0.198707 -0.000000
1.000000 0.198707 -0.000000
1.000000 0.198707 -0.000000
1.000000 0.198707 -0.000000
-0.000000 0.290187 -0.000000
-0.000000 0.290187 -0.000000
-0.000000 0.290187 -0.000000
-0.000000 0.290187 -0.000000
-0.000000 0.290187 -0.000000
-0.000000 0.290187 -0.000000
-0.000000 0.290187 -0.000000
-0.000000 0.290187 -0.000000
-0.000000 0.290187 -0.000000
0.021766 0.290187 -0.000000
0.049105 0.290187 -0.000000
0.085140 0.290187 -0.000000
0.133733 0.290187 -0.000000
0.198707 0.290187 -0.000000
0.290187 0.290187 -0.000000
0.409460 0.290187 -0.000000
0.580010 0.290187 -0.000000
0.808637 0.290187 -0.000000
1.000000 0.290187 -0.000000
1.000000 0.290187 -0.000000
1.000000 0.290187 -0.000000
1.000000 0.290187 -0.000000
1.000000 0.290187 -0.000000
1.000000 0.290187 -0.000000
1.000000 0.290187 -0.000000
1.000000 0.290187 -0.000000
1.000000 0.290187 -0.000000
1.000000 0.290187 -0.000000
1.000000 0.290187 -0.000000
1.000000 0.290187 -0.000000
1.000000 0.290187 -0.000000
1.000000 0.290187 -0.000000
-0.000000 0.409460 -0.000000
-0.000000 0.409460 -0.000000
-0.000000 0.409460 -0.000000
-0.000000 0.409460 -0.000000
-0.000000 0.409460 -0.000000
-0.000000 0.409460 -0.000000
-0.000000 0.409460 -0.000000
-0.000000 0.409460 -0.000000
-0.000000 0.409460 -0.000000
0.021766 0.409460 -0.000000
0.049105 0.409460 -0.000000
0.085140 0.409460 -0.000000
0.133733 0.409460 -0.000000
0.198707 0.409460 -0.000000
0.290187 0.409460 -0.000000
0.409460 0.409460 -0.000000
0.580010 0.409460 -0.000000
0.808637 0.409460 -0.000000
1.000000 0.409460 -0.000000
1.000000 0.409460 -0.000000
1.000000 0.409460 -0.000000
1.000000 0.409460 -0.000000
1.000000 0.409460 -0.000000
1.000000 0.409460 -0.000000
1.000000 0.409460 -0.000000
1.000000 0.409460 -0.000000
1.000000 0.409460 -0.000000
1.000000 0.409460 -0.000000
1.000000 0.409460 -0.000000
1.000000 0.409460 -0.000000
1.000000 0.409460 -0.000000
1.000000 0.409460 -0.000000
-0.000000 0.580010 -0.000000
-0.000000 0.580010 -0.000000
-0.000000 0.580010 -0.000000
-0.000000 0.580010 -0.000000
-0.000000 0.580010 -0.000000
-0.000000 0.580010 -0.000000
-0.000000 0.580010 -0.000000
-0.000000 0.580010 -0.000000
-0.000000 0.580010 -0.000000
0.021766 0.580010 -0.000000
0.049105 0.580010 -0.000000
0.085140 0.580010 -0.000000
0.133733 0.580010 -0.000000
0.198707 0.580010 -0.000000
0.290187 0.580010 -0.000000
0.409460 0.580010 -0.000000
0.580010 0.580010 -0.000000
0.808637 0.580010 -0.000000
1.000000 0.580010 -0.000000
1.000000 0.580010 -0.000000
1.000000 0.580010 -0.000000
1.000000 0.580010 -0.000000
1.000000 0.580010 -0.000000
1.000000 0.580010 -0.000000
1.000000 0.580010 -0.000000
1.000000 0.580010 -0.000000
1.000000 0.580010 -0.000000
1.000000 0.580010 -0.000000
1.000000 0.580010 -0.000000
1.000000 0.580010 -0.000000
1.000000 0.580010 -0.000000
1.000000 0.580010 -0.000000
-0.000000 0.808637 -0.000000
-0.000000 0.808637 -0.000000
-0.000000 0.808637 -0.000000
-0.000000 0.808637 -0.000000
-0.000000 0.808637 -0.000000
-0.000000 0.808637 -0.000000
-0.000000 0.808637 -0.000000
-0.000000 0.808637 -0.000000
-0.000000 0.808637 -0.000000
0.021766 0.808637 -0.000000
0.049105 0.808637 -0.000000
0.085140 0.808637 -0.000000
0.133733 0.808637 -0.000000
0.198707 0.808637 -0.000000
0.290187 0.808637 -0.000000
0.409460 0.808637 -0.000000
0.580010 0.808637 -0.000000
0.808637 0.808637 -0.000000
1.000000 0.808637 -0.000000
1.000000 0.808637 -0.000000
1.000000 0.808637 -0.000000
1.000000 0.808637 -0.000000
1.000000 0.808637 -0.000000
1.000000 0.808637 -0.000000
1.000000 0.808637 -0.000000
1.000000 0.808637 -0.000000
1.000000 0.808637 -0.000000
1.000000 0.808637 -0.000000
1.000000 0.808637 -0.000000
1.000000 0.808637 -0.000000
1.000000 0.808637 -0.000000
1.000000 0.808637 -0.000000
-0.000000 1.000000 -0.000000
-0.000000 1.000000 -0.000000
-0.000000 1.000000 -0.000000
-0.000000 1.000000 -0.000000
-0.000000 1.000000 -0.000000
-0.000000 1.000000 -0.000000
-0.000000 1.000000 -0.000000
-0.000000 1.000000 -0.000000
-0.000000 1.000000 -0.000000
0.021766 1.000000 -0.000000
0.049105 1.000000 -0.000000
0.085140 1.000000 -0.000000
0.133733 1.000000 -0.000000
0.198707 1.000000 -0.000000
0.290187 1.000000 -0.000000
0.409460 1.000000 -0.000000
0.580010 1.000000 -0.000000
0.808637 1.000000 -0.000000
1.000000 1.000000 -0.000000
1.000000 1.000000 -0.000000
1.000000 1.000000 -0.000000
1.000000 1.000000 -0.000000
1.000000 1.000000 -0.000000
1.000000 1.000000 -0.000000
1.000000 1.000000 -0.000000
1.000000 1.000000 -0.000000
1.000000 1.000000 -0.000000
1.000000 1.000000 -0.000000
1.000000 1.000000 -0.000000
1.000000 1.000000 -0.000000
1.000000 1.000000 -0.000000
1.000000 1.000000 -0.000000
-0.000000 1.000000 -0.000000
-0.000000 1.000000 -0.000000
-0.000000 1.000000 -0.000000
-0.000000 1.000000 -0.000000
-0.000000 1.000000 -0.000000
-0.000000 1.000000 -0.000000
-0.000000 1.000000 -0.000000
-0.000000 1.000000 -0.000000
-0.000000 1.000000 -0.000000
0.021766 1.000000 -0.000000
0.049105 1.000000 -0.000000
0.085140 1.000000 -0.000000
0.133733 1.000000 -0.000000
0.198707 1.000000 -0.000000
0.290187 1.000000 -0.000000
0.409460 1.000000 -0.000000
0.580010 1.000000 -0.000000
0.808637 1.000000 -0.000000
1.000000 1.000000 -0.000000
1.000000 1.000000 -0.000000
1.000000 1.000000 -0.000000
1.000000 1.000000 -0.000000
1.000000 1.000000 -0.000000
1.000000 1.000000 -0.000000
1.000000 1.000000 -0.000000
1.000000 1.000000 -0.000000
1.000000 1.000000 -0.000000
1.000000 1.000000 -0.000000
1.000000 1.000000 -0.000000
1.000000 1.000000 -0.000000
1.000000 1.000000 -0.000000
1.000000 1.000000 -0.000000
-0.000000 1.000000 -0.000000
-0.000000 1.000000 -0.000000
-0.000000 1.000000 -0.000000
-0.000000 1.000000 -0.000000
-0.000000 1.000000 -0.000000
-0.000000 1.000000 -0.000000
-0.000000 1.000000 -0.000000
-0.000000 1.000000 -0.000000
-0.000000 1.000000 -0.000000
0.021766 1.000000 -0.000000
0.049105 1.000000 -0.000000
0.085140 1.000000 -0.000000
0.133733 1.000000 -0.000000
0.198707 1.000000 -0.000000
0.290187 1.000000 -0.000000
0.409460 1.000000 -0.000000
0.580010 1.000000 -0.000000
0.808637 1.000000 -0.000000
1.000000 1.000000 -0.000000
1.000000 1.000000 -0.000000
1.000000 1.000000 -0.000000
1.000000 1.000000 -0.000000
1.000000 1.000000 -0.000000
1.000000 1.000000 -0.000000
1.000000 1.000000 -0.000000
1.000000 1.000000 -0.000000
1.000000 1.000000 -0.000000
1.000000 1.000000 -0.000000
1.000000 1.000000 -0.000000
1.000000 1.000000 -0.000000
1.000000 1.000000 -0.000000
1.000000 1.000000 -0.000000
-0.000000 1.000000 -0.000000
-0.000000 1.000000 -0.000000
-0.000000 1.000000 -0.000000
-0.000000 1.000000 -0.000000
-0.000000 1.000000 -0.000000
-0.000000 1.000000 -0.000000
-0.000000 1.000000 -0.000000
-0.000000 1.000000 -0.000000
-0.000000 1.000000 -0.000000
0.021766 1.000000 -0.000000
0.049105 1.000000 -0.000000
0.085140 1.000000 -0.000000
0.133733 1.000000 -0.000000
0.198707 1.000000 -0.000000
0.290187 1.000000 -0.000000
0.409460 1.000000 -0.000000
0.580010 1.000000 -0.000000
0.808637 1.000000 -0.000000
1.000000 1.000000 -0.000000
1.000000 1.000000 -0.000000
1.000000 1.000000 -0.000000
1.000000 1.000000 -0.000000
1.000000 1.000000 -0.000000
1.000000 1.000000 -0.000000
1.000000 1.000000 -0.000000
1.000000 1.000000 -0.000000
1.000000 1.000000 -0.000000
1.000000 1.000000 -0.000000
1.000000 1.000000 -0.000000
1.000000 1.000000 -0.000000
1.000000 1.000000 -0.000000
1.000000 1.000000 -0.000000
-0.000000 1.000000 -0.000000
-0.000000 1.000000 -0.000000
-0.000000 1.000000 -0.000000
-0.000000 1.000000 -0.000000
-0.000000 1.000000 -0.000000
-0.000000 1.000000 -0.000000
-0.000000 1.000000 -0.000000
-0.000000 1.000000 -0.000000
-0.000000 1.000000 -0.000000
0.021766 1.000000 -0.000000
0.049105 1.000000 -0.000000
0.085140 1.000000 -0.000000
0.133733 1.000000 -0.000000
0.198707 1.000000 -0.000000
0.290187 1.000000 -0.000000
0.409460 1.000000 -0.000000
0.580010 1.000000 -0.000000
0.808637 1.000000 -0.000000
1.000000 1.000000 -0.000000
1.000000 1.000000 -0.000000
1.000000 1.000000 -0.000000
1.000000 1.000000 -0.000000
1.000000 1.000000 -0.000000
1.000000 1.000000 -0.000000
1.000000 1.000000 -0.000000
1.000000 1.000000 -0.000000
1.000000 1.000000 -0.000000
1.000000 1.000000 -0.000000
1.000000 1.000000 -0.000000
1.000000 1.000000 -0.000000
1.000000 1.000000 -0.000000
1.000000 1.000000 -0.000000
-0.000000 1.000000 -0.000000
-0.000000 1.000000 -0.000000
-0.000000 1.000000 -0.000000
-0.000000 1.000000 -0.000000
-0.000000 1.000000 -0.000000
-0.000000 1.000000 -0.000000
-0.000000 1.000000 -0.000000
-0.000000 1.000000 -0.000000
-0.000000 1.000000 -0.000000
0.021766 1.000000 -0.000000
0.049105 1.000000 -0.000000
0.085140 1.000000 -0.000000
0.133733 1.000000 -0.000000
0.198707 1.000000 -0.000000
0.290187 1.000000 -0.000000
0.409460 1.000000 -0.000000
0.580010 1.000000 -0.000000
0.808637 1.000000 -0.000000
1.000000 1.000000 -0.000000
1.000000 1.000000 -0.000000
1.000000 1.000000 -0.000000
1.000000 1.000000 -0.000000
1.000000 1.000000 -0.000000
1.000000 1.000000 -0.000000
1.000000 1.000000 -0.000000
1.000000 1.000000 -0.000000
1.000000 1.000000 -0.000000
1.000000 1.000000 -0.000000
1.000000 1.000000 -0.000000
1.000000 1.000000 -0.000000
1.000000 1.000000 -0.000000
1.000000 1.000000 -0.000000
-0.000000 1.000000 -0.000000
-0.000000 1.000000 -0.000000
-0.000000 1.000000 -0.000000
-0.000000 1.000000 -0.000000
-0.000000 1.000000 -0.000000
-0.000000 1.000000 -0.000000
-0.000000 1.000000 -0.000000
-0.000000 1.000000 -0.000000
-0.000000 1.000000 -0.000000
0.021766 1.000000 -0.000000
0.049105 1.000000 -0.000000
0.085140 1.000000 -0.000000
0.133733 1.000000 -0.000000
0.198707 1.000000 -0.000000
0.290187 1.000000 -0.000000
0.409460 1.000000 -0.000000
0.580010 1.000000 -0.000000
0.808637 1.000000 -0.000000
1.000000 1.000000 -0.000000
1.000000 1.000000 -0.000000
1.000000 1.000000 -0.000000
1.000000 1.000000 -0.000000
1.000000 1.000000 -0.000000
1.000000 1.000000 -0.000000
1.000000 1.000000 -0.000000
1.000000 1.000000 -0.000000
1.000000 1.000000 -0.000000
1.000000 1.000000 -0.000000
1.000000 1.000000 -0.000000
1.000000 1.000000 -0.000000
1.000000 1.000000 -0.000000
1.000000 1.000000 -0.000000
-0.000000 1.000000 -0.000000
-0.000000 1.000000 -0.000000
-0.000000 1.000000 -0.000000
-0.000000 1.000000 -0.000000
-0.000000 1.000000 -0.000000
-0.000000 1.000000 -0.000000
-0.000000 1.000000 -0.000000
-0.000000 1.000000 -0.000000
-0.000000 1.000000 -0.000000
0.021766 1.000000 -0.000000
0.049105 1.000000 -0.000000
0.085140 1.000000 -0.000000
0.133733 1.000000 -0.000000
0.198707 1.000000 -0.000000
0.290187 1.000000 -0.000000
0.409460 1.000000 -0.000000
0.580010 1.000000 -0.000000
0.808637 1.000000 -0.000000
1.000000 1.000000 -0.000000
1.000000 1.000000 -0.000000
1.000000 1.000000 -0.000000
1.000000 1.000000 -0.000000
1.000000 1.000000 -0.000000
1.000000 1.000000 -0.000000
1.000000 1.000000 -0.000000
1.000000 1.000000 -0.000000
1.000000 1.000000 -0.000000
1.000000 1.000000 -0.000000
1.000000 1.000000 -0.000000
1.000000 1.000000 -0.000000
1.000000 1.000000 -0.000000
1.000000 1.000000 -0.000000
-0.000000 1.000000 -0.000000
-0.000000 1.000000 -0.000000
-0.000000 1.000000 -0.000000
