python/linearize1.cube
TITLE "linearize1.cube"
LUT_3D_SIZE 5
DOMAIN_MIN 0.000000 0.000000 0.000000
DOMAIN_MAX 0.903226 0.903226 0.903226
-0.000000 -0.000000 -0.000000
-0.000000 -0.000000 -0.000000
0.290187 -0.000000 -0.000000
1.000000 -0.000000 -0.000000
1.000000 -0.000000 -0.000000
-0.000000 -0.000000 -0.000000
-0.000000 -0.000000 -0.000000
0.290187 -0.000000 -0.000000
1.000000 -0.000000 -0.000000
1.000000 -0.000000 -0.000000
-0.000000 0.290187 -0.000000
-0.000000 0.290187 -0.000000
0.290187 0.290187 -0.000000
1.000000 0.290187 -0.000000
1.000000 0.290187 -0.000000
-0.000000 1.000000 -0.000000
-0.000000 1.000000 -0.000000
0.290187 1.000000 -0.000000
1.000000 1.000000 -0.000000
1.000000 1.000000 -0.000000
-0.000000 1.000000 -0.000000
-0.000000 1.000000 -0.000000
0.290187 1.000000 -0.000000
1.000000 1.000000 -0.000000
1.000000 1.000000 -0.000000
-0.000000 -0.000000 -0.000000
-0.000000 -0.000000 -0.000000
0.290187 -0.000000 -0.000000
1.000000 -0.000000 -0.000000
1.000000 -0.000000 -0.000000
-0.000000 -0.000000 -0.000000
-0.000000 -0.000000 -0.000000
0.290187 -0.000000 -0.000000
1.000000 -0.000000 -0.000000
1.000000 -0.000000 -0.000000
-0.000000 0.290187 -0.000000
-0.000000 0.290187 -0.000000
0.290187 0.290187 -0.000000
1.000000 0.290187 -0.000000
1.000000 0.290187 -0.000000
-0.000000 1.000000 -0.000000
-0.000000 1.000000 -0.000000
0.290187 1.000000 -0.000000
1.000000 1.000000 -0.000000
1.000000 1.000000 -0.000000
-0.000000 1.000000 -0.000000
-0.000000 1.000000 -0.000000
0.290187 1.000000 -0.000000
1.000000 1.000000 -0.000000
1.000000 1.000000 -0.000000
-0.000000 -0.000000 0.290187
-0.000000 -0.000000 0.290187
0.290187 -0.000000 0.290187
1.000000 -0.000000 0.290187
1.000000 -0.000000 0.290187
-0.000000 -0.000000 0.290187
-0.000000 -0.000000 0.290187
0.290187 -0.000000 0.290187
1.000000 -0.000000 0.290187
1.000000 -0.000000 0.290187
-0.000000 0.290187 0.290187
-0.000000 0.290187 0.290187
0.290187 0.290187 0.290187
1.000000 0.290187 0.290187
1.000000 0.290187 0.290187
-0.000000 1.000000 0.290187
-0.000000 1.000000 0.290187
0.290187 1.000000 0.290187
1.000000 1.000000 0.290187
1.000000 1.000000 0.290187
-0.000000 1.000000 0.290187
-0.000000 1.000000 0.290187
0.290187 1.000000 0.290187
1.000000 1.000000 0.290187
1.000000 1.000000 0.290187
-0.000000 -0.000000 1.000000
-0.000000 -0.000000 1.000000
0.290187 -0.000000 1.000000
1.000000 -0.000000 1.000000
1.000000 -0.000000 1.000000
-0.000000 -0.000000 1.000000
-0.000000 -0.000000 1.000000
0.290187 -0.000000 1.000000
1.000000 -0.000000 1.000000
1.000000 -0.000000 1.000000
-0.000000 0.290187 1.000000
-0.000000 0.290187 1.000000
0.290187 0.290187 1.000000
1.000000 0.290187 1.000000
1.000000 0.290187 1.000000
-0.000000 1.000000 1.000000
-0.000000 1.000000 1.000000
0.290187 1.000000 1.000000
1.000000 1.000000 1.000000
1.000000 1.000000 1.000000
-0.000000 1.000000 1.000000
-0.000000 1.000000 1.000000
0.290187 1.000000 1.000000
1.000000 1.000000 1.000000
1.000000 1.000000 1.000000
-0.000000 -0.000000 1.000000
-0.000000 -0.000000 1.000000
0.290187 -0.000000 1.000000
1.000000 -0.000000 1.000000
1.000000 -0.000000 1.000000
-0.000000 -0.000000 1.000000
-0.000000 -0.000000 1.000000
0.290187 -0.000000 1.000000
1.000000 -0.000000 1.000000
1.000000 -0.000000 1.000000
-0.000000 0.290187 1.000000
-0.000000 0.290187 1.000000
0.290187 0.290187 1.000000
1.000000 0.290187 1.000000
1.000000 0.290187 1.000000
-0.000000 1.000000 1.000000
-0.000000 1.000000 1.000000
0.290187 1.000000 1.000000
1.000000 1.000000 1.000000
1.000000 1.000000 1.000000
-0.000000 1.000000 1.000000
-0.000000 1.000000 1.000000
0.290187 1.000000 1.000000
1.000000 1.000000 1.000000
1.000000 1.000000 1.000000
