python/linearize1.cube
TITLE "linearize1.cube"
LUT_3D_SIZE 8
DOMAIN_MIN 0.000000 0.000000 0.000000
DOMAIN_MAX 0.903226 0.903226 0.903226
-0.000000 -0.000000 -0.000000
-0.000000 -0.000000 -0.000000
-0.000000 -0.000000 -0.000000
0.133733 -0.000000 -0.000000
0.580010 -0.000000 -0.000000
1.000000 -0.000000 -0.000000
1.000000 -0.000000 -0.000000
1.000000 -0.000000 -0.000000
-0.000000 -0.000000 -0.000000
-0.000000 -0.000000 -0.000000
-0.000000 -0.000000 -0.000000
0.133733 -0.000000 -0.000000
0.580010 -0.000000 -0.000000
1.000000 -0.000000 -0.000000
1.000000 -0.000000 -0.000000
1.000000 -0.000000 -0.000000
-0.000000 -0.000000 -0.000000
-0.000000 -0.000000 -0.000000
-0.000000 -0.000000 -0.000000
0.133733 -0.000000 -0.000000
0.580010 -0.000000 -0.000000
1.000000 -0.000000 -0.000000
1.000000 -0.000000 -0.000000
1.000000 -0.000000 -0.000000
-0.000000 0.133733 -0.000000
-0.000000 0.133733 -0.000000
-0.000000 0.133733 -0.000000
0.133733 0.133733 -0.000000
0.580010 0.133733 -0.000000
1.000000 0.133733 -0.000000
1.000000 0.133733 -0.000000
1.000000 0.133733 -0.000000
-0.000000 0.580010 -0.000000
-0.000000 0.580010 -0.000000
-0.000000 0.580010 -0.000000
0.133733 0.580010 -0.000000
0.580010 0.580010 -0.000000
1.000000 0.580010 -0.000000
1.000000 0.580010 -0.000000
1.000000 0.580010 -0.000000
-0.000000 1.000000 -0.000000
-0.000000 1.000000 -0.000000
-0.000000 1.000000 -0.000000
0.133733 1.000000 -0.000000
0.580010 1.000000 -0.000000
1.000000 1.000000 -0.000000
1.000000 1.000000 -0.000000
1.000000 1.000000 -0.000000
-0.000000 1.000000 -0.000000
-0.000000 1.000000 -0.000000
-0.000000 1.000000 -0.000000
0.133733 1.000000 -0.000000
0.580010 1.000000 -0.000000
1.000000 1.000000 -0.000000
1.000000 1.000000 -0.000000
1.000000 1.000000 -0.000000
-0.000000 1.000000 -0.000000
-0.000000 1.000000 -0.000000
-0.000000 1.000000 -0.000000
0.133733 1.000000 -0.000000
0.580010 1.000000 -0.000000
1.000000 1.000000 -0.000000
1.000000 1.000000 -0.000000
1.000000 1.000000 -0.000000
-0.000000 -0.000000 -0.000000
-0.000000 -0.000000 -0.000000
-0.000000 -0.000000 -0.000000
0.133733 -0.000000 -0.000000
0.580010 -0.000000 -0.000000
1.000000 -0.000000 -0.000000
1.000000 -0.000000 -0.000000
1.000000 -0.000000 -0.000000
-0.000000 -0.000000 -0.000000
-0.000000 -0.000000 -0.000000
-0.000000 -0.000000 -0.000000
0.133733 -0.000000 -0.000000
0.580010 -0.000000 -0.000000
1.000000 -0.000000 -0.000000
1.000000 -0.000000 -0.000000
1.000000 -0.000000 -0.000000
-0.000000 -0.000000 -0.000000
-0.000000 -0.000000 -0.000000
-0.000000 -0.000000 -0.000000
0.133733 -0.000000 -0.000000
0.580010 -0.000000 -0.000000
1.000000 -0.000000 -0.000000
1.000000 -0.000000 -0.000000
1.000000 -0.000000 -0.000000
-0.000000 0.133733 -0.000000
-0.000000 0.133733 -0.000000
-0.000000 0.133733 -0.000000
0.133733 0.133733 -0.000000
0.580010 0.133733 -0.000000
1.000000 0.133733 -0.000000
1.000000 0.133733 -0.000000
1.000000 0.133733 -0.000000
-0.000000 0.580010 -0.000000
-0.000000 0.580010 -0.000000
-0.000000 0.580010 -0.000000
0.133733 0.580010 -0.000000
0.580010 0.580010 -0.000000
1.000000 0.580010 -0.000000
1.000000 0.580010 -0.000000
1.000000 0.580010 -0.000000
-0.000000 1.000000 -0.000000
-0.000000 1.000000 -0.000000
-0.000000 1.000000 -0.000000
0.133733 1.000000 -0.000000
0.580010 1.000000 -0.000000
1.000000 1.000000 -0.000000
1.000000 1.000000 -0.000000
1.000000 1.000000 -0.000000
-0.000000 1.000000 -0.000000
-0.000000 1.000000 -0.000000
-0.000000 1.000000 -0.000000
0.133733 1.000000 -0.000000
0.580010 1.000000 -0.000000
1.000000 1.000000 -0.000000
1.000000 1.000000 -0.000000
1.000000 1.000000 -0.000000
-0.000000 1.000000 -0.000000
-0.000000 1.000000 -0.000000
-0.000000 1.000000 -0.000000
0.133733 1.000000 -0.000000
0.580010 1.000000 -0.000000
1.000000 1.000000 -0.000000
1.000000 1.000000 -0.000000
1.000000 1.000000 -0.000000
-0.000000 -0.000000 -0.000000
-0.000000 -0.000000 -0.000000
-0.000000 -0.000000 -0.000000
0.133733 -0.000000 -0.000000
0.580010 -0.000000 -0.000000
1.000000 -0.000000 -0.000000
1.000000 -0.000000 -0.000000
1.000000 -0.000000 -0.000000
-0.000000 -0.000000 -0.000000
-0.000000 -0.000000 -0.000000
-0.000000 -0.000000 -0.000000
0.133733 -0.000000 -0.000000
0.580010 -0.000000 -0.000000
1.000000 -0.000000 -0.000000
1.000000 -0.000000 -0.000000
1.000000 -0.000000 -0.000000
-0.000000 -0.000000 -0.000000
-0.000000 -0.000000 -0.000000
-0.000000 -0.000000 -0.000000
0.133733 -0.000000 -0.000000
0.580010 -0.000000 -0.000000
1.000000 -0.000000 -0.000000
1.000000 -0.000000 -0.000000
1.000000 -0.000000 -0.000000
-0.000000 0.133733 -0.000000
-0.000000 0.133733 -0.000000
-0.000000 0.133733 -0.000000
0.133733 0.133733 -0.000000
0.580010 0.133733 -0.000000
1.000000 0.133733 -0.000000
1.000000 0.133733 -0.000000
1.000000 0.133733 -0.000000
-0.000000 0.580010 -0.000000
-0.000000 0.580010 -0.000000
-0.000000 0.580010 -0.000000
0.133733 0.580010 -0.000000
0.580010 0.580010 -0.000000
1.000000 0.580010 -0.000000
1.000000 0.580010 -0.000000
1.000000 0.580010 -0.000000
-0.000000 1.000000 -0.000000
-0.000000 1.000000 -0.000000
-0.000000 1.000000 -0.000000
0.133733 1.000000 -0.000000
0.580010 1.000000 -0.000000
1.000000 1.000000 -0.000000
1.000000 1.000000 -0.000000
1.000000 1.000000 -0.000000
-0.000000 1.000000 -0.000000
-0.000000 1.000000 -0.000000
-0.000000 1.000000 -0.000000
0.133733 1.000000 -0.000000
0.580010 1.000000 -0.000000
1.000000 1.000000 -0.000000
1.000000 1.000000 -0.000000
1.000000 1.000000 -0.000000
-0.000000 1.000000 -0.000000
-0.000000 1.000000 -0.000000
-0.000000 1.000000 -0.000000
0.133733 1.000000 -0.000000
0.580010 1.000000 -0.000000
1.000000 1.000000 -0.000000
1.000000 1.000000 -0.000000
1.000000 1.000000 -0.000000
-0.000000 -0.000000 0.133733
-0.000000 -0.000000 0.133733
-0.000000 -0.000000 0.133733
0.133733 -0.000000 0.133733
0.580010 -0.000000 0.133733
1.000000 -0.000000 0.133733
1.000000 -0.000000 0.133733
1.000000 -0.000000 0.133733
-0.000000 -0.000000 0.133733
-0.000000 -0.000000 0.133733
-0.000000 -0.000000 0.133733
0.133733 -0.000000 0.133733
0.580010 -0.000000 0.133733
1.000000 -0.000000 0.133733
1.000000 -0.000000 0.133733
1.000000 -0.000000 0.133733
-0.000000 -0.000000 0.133733
-0.000000 -0.000000 0.133733
-0.000000 -0.000000 0.133733
0.133733 -0.000000 0.133733
0.580010 -0.000000 0.133733
1.000000 -0.000000 0.133733
1.000000 -0.000000 0.133733
1.000000 -0.000000 0.133733
-0.000000 0.133733 0.133733
-0.000000 0.133733 0.133733
-0.000000 0.133733 0.133733
0.133733 0.133733 0.133733
0.580010 0.133733 0.133733
1.000000 0.133733 0.133733
1.000000 0.133733 0.133733
1.000000 0.133733 0.133733
-0.000000 0.580010 0.133733
-0.000000 0.580010 0.133733
-0.000000 0.580010 0.133733
0.133733 0.580010 0.133733
0.580010 0.580010 0.133733
1.000000 0.580010 0.133733
1.000000 0.580010 0.133733
1.000000 0.580010 0.133733
-0.000000 1.000000 0.133733
-0.000000 1.000000 0.133733
-0.000000 1.000000 0.133733
0.133733 1.000000 0.133733
0.580010 1.000000 0.133733
1.000000 1.000000 0.133733
1.000000 1.000000 0.133733
1.000000 1.000000 0.133733
-0.000000 1.000000 0.133733
-0.000000 1.000000 0.133733
-0.000000 1.000000 0.133733
0.133733 1.000000 0.133733
0.580010 1.000000 0.133733
1.000000 1.000000 0.133733
1.000000 1.000000 0.133733
1.000000 1.000000 0.133733
-0.000000 1.000000 0.133733
-0.000000 1.000000 0.133733
-0.000000 1.000000 0.133733
0.133733 1.000000 0.133733
0.580010 1.000000 0.133733
1.000000 1.000000 0.133733
1.000000 1.000000 0.133733
1.000000 1.000000 0.133733
-0.000000 -0.000000 0.580010
-0.000000 -0.000000 0.580010
-0.000000 -0.000000 0.580010
0.133733 -0.000000 0.580010
0.580010 -0.000000 0.580010
1.000000 -0.000000 0.580010
1.000000 -0.000000 0.580010
1.000000 -0.000000 0.580010
-0.000000 -0.000000 0.580010
-0.000000 -0.000000 0.580010
-0.000000 -0.000000 0.580010
0.133733 -0.000000 0.580010
0.580010 -0.000000 0.580010
1.000000 -0.000000 0.580010
1.000000 -0.000000 0.580010
1.000000 -0.000000 0.580010
-0.000000 -0.000000 0.580010
-0.000000 -0.000000 0.580010
-0.000000 -0.000000 0.580010
0.133733 -0.000000 0.580010
0.580010 -0.000000 0.580010
1.000000 -0.000000 0.580010
1.000000 -0.000000 0.580010
1.000000 -0.000000 0.580010
-0.000000 0.133733 0.580010
-0.000000 0.133733 0.580010
-0.000000 0.133733 0.580010
0.133733 0.133733 0.580010
0.580010 0.133733 0.580010
1.000000 0.133733 0.580010
1.000000 0.133733 0.580010
1.000000 0.133733 0.580010
-0.000000 0.580010 0.580010
-0.000000 0.580010 0.580010
-0.000000 0.580010 0.580010
0.133733 0.580010 0.580010
0.580010 0.580010 0.580010
1.000000 0.580010 0.580010
1.000000 0.580010 0.580010
1.000000 0.580010 0.580010
-0.000000 1.000000 0.580010
-0.000000 1.000000 0.580010
-0.000000 1.000000 0.580010
0.133733 1.000000 0.580010
0.580010 1.000000 0.580010
1.000000 1.000000 0.580010
1.000000 1.000000 0.580010
1.000000 1.000000 0.580010
-0.000000 1.000000 0.580010
-0.000000 1.000000 0.580010
-0.000000 1.000000 0.580010
0.133733 1.000000 0.580010
0.580010 1.000000 0.580010
1.000000 1.000000 0.580010
1.000000 1.000000 0.580010
1.000000 1.000000 0.580010
-0.000000 1.000000 0.580010
-0.000000 1.000000 0.580010
-0.000000 1.000000 0.580010
0.133733 1.000000 0.580010
0.580010 1.000000 0.580010
1.000000 1.000000 0.580010
1.000000 1.000000 0.580010
1.000000 1.000000 0.580010
-0.000000 -0.000000 1.000000
-0.000000 -0.000000 1.000000
-0.000000 -0.000000 1.000000
0.133733 -0.000000 1.000000
0.580010 -0.000000 1.000000
1.000000 -0.000000 1.000000
1.000000 -0.000000 1.000000
1.000000 -0.000000 1.000000
-0.000000 -0.000000 1.000000
-0.000000 -0.000000 1.000000
-0.000000 -0.000000 1.000000
0.133733 -0.000000 1.000000
0.580010 -0.000000 1.000000
1.000000 -0.000000 1.000000
1.000000 -0.000000 1.000000
1.000000 -0.000000 1.000000
-0.000000 -0.000000 1.000000
-0.000000 -0.000000 1.000000
-0.000000 -0.000000 1.000000
0.133733 -0.000000 1.000000
0.580010 -0.000000 1.000000
1.000000 -0.000000 1.000000
1.000000 -0.000000 1.000000
1.000000 -0.000000 1.000000
-0.000000 0.133733 1.000000
-0.000000 0.133733 1.000000
-0.000000 0.133733 1.000000
0.133733 0.133733 1.000000
0.580010 0.133733 1.000000
1.000000 0.133733 1.000000
1.000000 0.133733 1.000000
1.000000 0.133733 1.000000
-0.000000 0.580010 1.000000
-0.000000 0.580010 1.000000
-0.000000 0.580010 1.000000
0.133733 0.580010 1.000000
0.580010 0.580010 1.000000
1.000000 0.580010 1.000000
1.000000 0.580010 1.000000
1.000000 0.580010 1.000000
-0.000000 1.000000 1.000000
-0.000000 1.000000 1.000000
-0.000000 1.000000 1.000000
0.133733 1.000000 1.000000
0.580010 1.000000 1.000000
1.000000 1.000000 1.000000
1.000000 1.000000 1.000000
1.000000 1.000000 1.000000
-0.000000 1.000000 1.000000
-0.000000 1.000000 1.000000
-0.000000 1.000000 1.000000
0.133733 1.000000 1.000000
0.580010 1.000000 1.000000
1.000000 1.000000 1.000000
1.000000 1.000000 1.000000
1.000000 1.000000 1.000000
-0.000000 1.000000 1.000000
-0.000000 1.000000 1.000000
-0.000000 1.000000 1.000000
0.133733 1.000000 1.000000
0.580010 1.000000 1.000000
1.000000 1.000000 1.000000
1.000000 1.000000 1.000000
1.000000 1.000000 1.000000
-0.000000 -0.000000 1.000000
-0.000000 -0.000000 1.000000
-0.000000 -0.000000 1.000000
0.133733 -0.000000 1.000000
0.580010 -0.000000 1.000000
1.000000 -0.000000 1.000000
1.000000 -0.000000 1.000000
1.000000 -0.000000 1.000000
-0.000000 -0.000000 1.000000
-0.000000 -0.000000 1.000000
-0.000000 -0.000000 1.000000
0.133733 -0.000000 1.000000
0.580010 -0.000000 1.000000
1.000000 -0.000000 1.000000
1.000000 -0.000000 1.000000
1.000000 -0.000000 1.000000
-0.000000 -0.000000 1.000000
-0.000000 -0.000000 1.000000
-0.000000 -0.000000 1.000000
0.133733 -0.000000 1.000000
0.580010 -0.000000 1.000000
1.000000 -0.000000 1.000000
1.000000 -0.000000 1.000000
1.000000 -0.000000 1.000000
-0.000000 0.133733 1.000000
-0.000000 0.133733 1.000000
-0.000000 0.133733 1.000000
0.133733 0.133733 1.000000
0.580010 0.133733 1.000000
1.000000 0.133733 1.000000
1.000000 0.133733 1.000000
1.000000 0.133733 1.000000
-0.000000 0.580010 1.000000
-0.000000 0.580010 1.000000
-0.000000 0.580010 1.000000
0.133733 0.580010 1.000000
0.580010 0.580010 1.000000
1.000000 0.580010 1.000000
1.000000 0.580010 1.000000
1.000000 0.580010 1.000000
-0.000000 1.000000 1.000000
-0.000000 1.000000 1.000000
-0.000000 1.000000 1.000000
0.133733 1.000000 1.000000
0.580010 1.000000 1.000000
1.000000 1.000000 1.000000
1.000000 1.000000 1.000000
1.000000 1.000000 1.000000
-0.000000 1.000000 1.000000
-0.000000 1.000000 1.000000
-0.000000 1.000000 1.000000
0.133733 1.000000 1.000000
0.580010 1.000000 1.000000
1.000000 1.000000 1.000000
1.000000 1.000000 1.000000
1.000000 1.000000 1.000000
-0.000000 1.000000 1.000000
-0.000000 1.000000 1.000000
-0.000000 1.000000 1.000000
0.133733 1.000000 1.000000
0.580010 1.000000 1.000000
1.000000 1.000000 1.000000
1.000000 1.000000 1.000000
1.000000 1.000000 1.000000
-0.000000 -0.000000 1.000000
-0.000000 -0.000000 1.000000
-0.000000 -0.000000 1.000000
0.133733 -0.000000 1.000000
0.580010 -0.000000 1.000000
1.000000 -0.000000 1.000000
1.000000 -0.000000 1.000000
1.000000 -0.000000 1.000000
-0.000000 -0.000000 1.000000
-0.000000 -0.000000 1.000000
-0.000000 -0.000000 1.000000
0.133733 -0.000000 1.000000
0.580010 -0.000000 1.000000
1.000000 -0.000000 1.000000
1.000000 -0.000000 1.000000
1.000000 -0.000000 1.000000
-0.000000 -0.000000 1.000000
-0.000000 -0.000000 1.000000
-0.000000 -0.000000 1.000000
0.133733 -0.000000 1.000000
0.580010 -0.000000 1.000000
1.000000 -0.000000 1.000000
1.000000 -0.000000 1.000000
1.000000 -0.000000 1.000000
-0.000000 0.133733 1.000000
-0.000000 0.133733 1.000000
-0.000000 0.133733 1.000000
0.133733 0.133733 1.000000
0.580010 0.133733 1.000000
1.000000 0.133733 1.000000
1.000000 0.133733 1.000000
1.000000 0.133733 1.000000
-0.000000 0.580010 1.000000
-0.000000 0.580010 1.000000
-0.000000 0.580010 1.000000
0.133733 0.580010 1.000000
0.580010 0.580010 1.000000
1.000000 0.580010 1.000000
1.000000 0.580010 1.000000
1.000000 0.580010 1.000000
-0.000000 1.000000 1.000000
-0.000000 1.000000 1.000000
-0.000000 1.000000 1.000000
0.133733 1.000000 1.000000
0.580010 1.000000 1.000000
1.000000 1.000000 1.000000
1.000000 1.000000 1.000000
1.000000 1.000000 1.000000
-0.000000 1.000000 1.000000
-0.000000 1.000000 1.000000
-0.000000 1.000000 1.000000
0.133733 1.000000 1.000000
0.580010 1.000000 1.000000
1.000000 1.000000 1.000000
1.000000 1.000000 1.000000
1.000000 1.000000 1.000000
-0.000000 1.000000 1.000000
-0.000000 1.000000 1.000000
-0.000000 1.000000 1.000000
0.133733 1.000000 1.000000
0.580010 1.000000 1.000000
1.000000 1.000000 1.000000
1.000000 1.000000 1.000000
1.000000 1.000000 1.000000
