python/3 - create cube files/cube files/linearize_chromatic.cube
TITLE "cube/linearize_chromatic.cube"
LUT_3D_SIZE 8
DOMAIN_MIN 0.000000 0.000000 0.000000
DOMAIN_MAX 0.903226 0.903226 0.903226
0.000000 0.000000 0.000000
0.000136 0.000000 0.000000
0.217153 0.000000 0.000000
0.432756 0.000000 0.000000
0.788596 0.000000 0.000000
1.000000 0.000000 0.000000
1.000000 0.000000 0.000000
1.000000 0.000000 0.000000
0.000000 0.067481 0.000000
0.000136 0.067481 0.000000
0.217153 0.067481 0.000000
0.432756 0.067481 0.000000
0.788596 0.067481 0.000000
1.000000 0.067481 0.000000
1.000000 0.067481 0.000000
1.000000 0.067481 0.000000
0.000000 0.248255 0.000000
0.000136 0.248255 0.000000
0.217153 0.248255 0.000000
0.432756 0.248255 0.000000
0.788596 0.248255 0.000000
1.000000 0.248255 0.000000
1.000000 0.248255 0.000000
1.000000 0.248255 0.000000
0.000000 0.460103 0.000000
0.000136 0.460103 0.000000
0.217153 0.460103 0.000000
0.432756 0.460103 0.000000
0.788596 0.460103 0.000000
1.000000 0.460103 0.000000
1.000000 0.460103 0.000000
1.000000 0.460103 0.000000
0.000000 0.801680 0.000000
0.000136 0.801680 0.000000
0.217153 0.801680 0.000000
0.432756 0.801680 0.000000
0.788596 0.801680 0.000000
1.000000 0.801680 0.000000
1.000000 0.801680 0.000000
1.000000 0.801680 0.000000
0.000000 1.000000 0.000000
0.000136 1.000000 0.000000
0.217153 1.000000 0.000000
0.432756 1.000000 0.000000
0.788596 1.000000 0.000000
1.000000 1.000000 0.000000
1.000000 1.000000 0.000000
1.000000 1.000000 0.000000
0.000000 1.000000 0.000000
0.000136 1.000000 0.000000
0.217153 1.000000 0.000000
0.432756 1.000000 0.000000
0.788596 1.000000 0.000000
1.000000 1.000000 0.000000
1.000000 1.000000 0.000000
1.000000 1.000000 0.000000
0.000000 1.000000 0.000000
0.000136 1.000000 0.000000
0.217153 1.000000 0.000000
0.432756 1.000000 0.000000
0.788596 1.000000 0.000000
1.000000 1.000000 0.000000
1.000000 1.000000 0.000000
1.000000 1.000000 0.000000
0.000000 0.000000 0.083936
0.000136 0.000000 0.083936
0.217153 0.000000 0.083936
0.432756 0.000000 0.083936
0.788596 0.000000 0.083936
1.000000 0.000000 0.083936
1.000000 0.000000 0.083936
1.000000 0.000000 0.083936
0.000000 0.067481 0.083936
0.000136 0.067481 0.083936
0.217153 0.067481 0.083936
0.432756 0.067481 0.083936
0.788596 0.067481 0.083936
1.000000 0.067481 0.083936
1.000000 0.067481 0.083936
1.000000 0.067481 0.083936
0.000000 0.248255 0.083936
0.000136 0.248255 0.083936
0.217153 0.248255 0.083936
0.432756 0.248255 0.083936
0.788596 0.248255 0.083936
1.000000 0.248255 0.083936
1.000000 0.248255 0.083936
1.000000 0.248255 0.083936
0.000000 0.460103 0.083936
0.000136 0.460103 0.083936
0.217153 0.460103 0.083936
0.432756 0.460103 0.083936
0.788596 0.460103 0.083936
1.000000 0.460103 0.083936
1.000000 0.460103 0.083936
1.000000 0.460103 0.083936
0.000000 0.801680 0.083936
0.000136 0.801680 0.083936
0.217153 0.801680 0.083936
0.432756 0.801680 0.083936
0.788596 0.801680 0.083936
1.000000 0.801680 0.083936
1.000000 0.801680 0.083936
1.000000 0.801680 0.083936
0.000000 1.000000 0.083936
0.000136 1.000000 0.083936
0.217153 1.000000 0.083936
0.432756 1.000000 0.083936
0.788596 1.000000 0.083936
1.000000 1.000000 0.083936
1.000000 1.000000 0.083936
1.000000 1.000000 0.083936
0.000000 1.000000 0.083936
0.000136 1.000000 0.083936
0.217153 1.000000 0.083936
0.432756 1.000000 0.083936
0.788596 1.000000 0.083936
1.000000 1.000000 0.083936
1.000000 1.000000 0.083936
1.000000 1.000000 0.083936
0.000000 1.000000 0.083936
0.000136 1.000000 0.083936
0.217153 1.000000 0.083936
0.432756 1.000000 0.083936
0.788596 1.000000 0.083936
1.000000 1.000000 0.083936
1.000000 1.000000 0.083936
1.000000 1.000000 0.083936
0.000000 0.000000 0.262783
0.000136 0.000000 0.262783
0.217153 0.000000 0.262783
0.432756 0.000000 0.262783
0.788596 0.000000 0.262783
1.000000 0.000000 0.262783
1.000000 0.000000 0.262783
1.000000 0.000000 0.262783
0.000000 0.067481 0.262783
0.000136 0.067481 0.262783
0.217153 0.067481 0.262783
0.432756 0.067481 0.262783
0.788596 0.067481 0.262783
1.000000 0.067481 0.262783
1.000000 0.067481 0.262783
1.000000 0.067481 0.262783
0.000000 0.248255 0.262783
0.000136 0.248255 0.262783
0.217153 0.248255 0.262783
0.432756 0.248255 0.262783
0.788596 0.248255 0.262783
1.000000 0.248255 0.262783
1.000000 0.248255 0.262783
1.000000 0.248255 0.262783
0.000000 0.460103 0.262783
0.000136 0.460103 0.262783
0.217153 0.460103 0.262783
0.432756 0.460103 0.262783
0.788596 0.460103 0.262783
1.000000 0.460103 0.262783
1.000000 0.460103 0.262783
1.000000 0.460103 0.262783
0.000000 0.801680 0.262783
0.000136 0.801680 0.262783
0.217153 0.801680 0.262783
0.432756 0.801680 0.262783
0.788596 0.801680 0.262783
1.000000 0.801680 0.262783
1.000000 0.801680 0.262783
1.000000 0.801680 0.262783
0.000000 1.000000 0.262783
0.000136 1.000000 0.262783
0.217153 1.000000 0.262783
0.432756 1.000000 0.262783
0.788596 1.000000 0.262783
1.000000 1.000000 0.262783
1.000000 1.000000 0.262783
1.000000 1.000000 0.262783
0.000000 1.000000 0.262783
0.000136 1.000000 0.262783
0.217153 1.000000 0.262783
0.432756 1.000000 0.262783
0.788596 1.000000 0.262783
1.000000 1.000000 0.262783
1.000000 1.000000 0.262783
1.000000 1.000000 0.262783
0.000000 1.000000 0.262783
0.000136 1.000000 0.262783
0.217153 1.000000 0.262783
0.432756 1.000000 0.262783
0.788596 1.000000 0.262783
1.000000 1.000000 0.262783
1.000000 1.000000 0.262783
1.000000 1.000000 0.262783
0.000000 0.000000 0.474046
0.000136 0.000000 0.474046
0.217153 0.000000 0.474046
0.432756 0.000000 0.474046
0.788596 0.000000 0.474046
1.000000 0.000000 0.474046
1.000000 0.000000 0.474046
1.000000 0.000000 0.474046
0.000000 0.067481 0.474046
0.000136 0.067481 0.474046
0.217153 0.067481 0.474046
0.432756 0.067481 0.474046
0.788596 0.067481 0.474046
1.000000 0.067481 0.474046
1.000000 0.067481 0.474046
1.000000 0.067481 0.474046
0.000000 0.248255 0.474046
0.000136 0.248255 0.474046
0.217153 0.248255 0.474046
0.432756 0.248255 0.474046
0.788596 0.248255 0.474046
1.000000 0.248255 0.474046
1.000000 0.248255 0.474046
1.000000 0.248255 0.474046
0.000000 0.460103 0.474046
0.000136 0.460103 0.474046
0.217153 0.460103 0.474046
0.432756 0.460103 0.474046
0.788596 0.460103 0.474046
1.000000 0.460103 0.474046
1.000000 0.460103 0.474046
1.000000 0.460103 0.474046
0.000000 0.801680 0.474046
0.000136 0.801680 0.474046
0.217153 0.801680 0.474046
0.432756 0.801680 0.474046
0.788596 0.801680 0.474046
1.000000 0.801680 0.474046
1.000000 0.801680 0.474046
1.000000 0.801680 0.474046
0.000000 1.000000 0.474046
0.000136 1.000000 0.474046
0.217153 1.000000 0.474046
0.432756 1.000000 0.474046
0.788596 1.000000 0.474046
1.000000 1.000000 0.474046
1.000000 1.000000 0.474046
1.000000 1.000000 0.474046
0.000000 1.000000 0.474046
0.000136 1.000000 0.474046
0.217153 1.000000 0.474046
0.432756 1.000000 0.474046
0.788596 1.000000 0.474046
1.000000 1.000000 0.474046
1.000000 1.000000 0.474046
1.000000 1.000000 0.474046
0.000000 1.000000 0.474046
0.000136 1.000000 0.474046
0.217153 1.000000 0.474046
0.432756 1.000000 0.474046
0.788596 1.000000 0.474046
1.000000 1.000000 0.474046
1.000000 1.000000 0.474046
1.000000 1.000000 0.474046
0.000000 0.000000 0.808452
0.000136 0.000000 0.808452
0.217153 0.000000 0.808452
0.432756 0.000000 0.808452
0.788596 0.000000 0.808452
1.000000 0.000000 0.808452
1.000000 0.000000 0.808452
1.000000 0.000000 0.808452
0.000000 0.067481 0.808452
0.000136 0.067481 0.808452
0.217153 0.067481 0.808452
0.432756 0.067481 0.808452
0.788596 0.067481 0.808452
1.000000 0.067481 0.808452
1.000000 0.067481 0.808452
1.000000 0.067481 0.808452
0.000000 0.248255 0.808452
0.000136 0.248255 0.808452
0.217153 0.248255 0.808452
0.432756 0.248255 0.808452
0.788596 0.248255 0.808452
1.000000 0.248255 0.808452
1.000000 0.248255 0.808452
1.000000 0.248255 0.808452
0.000000 0.460103 0.808452
0.000136 0.460103 0.808452
0.217153 0.460103 0.808452
0.432756 0.460103 0.808452
0.788596 0.460103 0.808452
1.000000 0.460103 0.808452
1.000000 0.460103 0.808452
1.000000 0.460103 0.808452
0.000000 0.801680 0.808452
0.000136 0.801680 0.808452
0.217153 0.801680 0.808452
0.432756 0.801680 0.808452
0.788596 0.801680 0.808452
1.000000 0.801680 0.808452
1.000000 0.801680 0.808452
1.000000 0.801680 0.808452
0.000000 1.000000 0.808452
0.000136 1.000000 0.808452
0.217153 1.000000 0.808452
0.432756 1.000000 0.808452
0.788596 1.000000 0.808452
1.000000 1.000000 0.808452
1.000000 1.000000 0.808452
1.000000 1.000000 0.808452
0.000000 1.000000 0.808452
0.000136 1.000000 0.808452
0.217153 1.000000 0.808452
0.432756 1.000000 0.808452
0.788596 1.000000 0.808452
1.000000 1.000000 0.808452
1.000000 1.000000 0.808452
1.000000 1.000000 0.808452
0.000000 1.000000 0.808452
0.000136 1.000000 0.808452
0.217153 1.000000 0.808452
0.432756 1.000000 0.808452
0.788596 1.000000 0.808452
1.000000 1.000000 0.808452
1.000000 1.000000 0.808452
1.000000 1.000000 0.808452
0.000000 0.000000 1.000000
0.000136 0.000000 1.000000
0.217153 0.000000 1.000000
0.432756 0.000000 1.000000
0.788596 0.000000 1.000000
1.000000 0.000000 1.000000
1.000000 0.000000 1.000000
1.000000 0.000000 1.000000
0.000000 0.067481 1.000000
0.000136 0.067481 1.000000
0.217153 0.067481 1.000000
0.432756 0.067481 1.000000
0.788596 0.067481 1.000000
1.000000 0.067481 1.000000
1.000000 0.067481 1.000000
1.000000 0.067481 1.000000
0.000000 0.248255 1.000000
0.000136 0.248255 1.000000
0.217153 0.248255 1.000000
0.432756 0.248255 1.000000
0.788596 0.248255 1.000000
1.000000 0.248255 1.000000
1.000000 0.248255 1.000000
1.000000 0.248255 1.000000
0.000000 0.460103 1.000000
0.000136 0.460103 1.000000
0.217153 0.460103 1.000000
0.432756 0.460103 1.000000
0.788596 0.460103 1.000000
1.000000 0.460103 1.000000
1.000000 0.460103 1.000000
1.000000 0.460103 1.000000
0.000000 0.801680 1.000000
0.000136 0.801680 1.000000
0.217153 0.801680 1.000000
0.432756 0.801680 1.000000
0.788596 0.801680 1.000000
1.000000 0.801680 1.000000
1.000000 0.801680 1.000000
1.000000 0.801680 1.000000
0.000000 1.000000 1.000000
0.000136 1.000000 1.000000
0.217153 1.000000 1.000000
0.432756 1.000000 1.000000
0.788596 1.000000 1.000000
1.000000 1.000000 1.000000
1.000000 1.000000 1.000000
1.000000 1.000000 1.000000
0.000000 1.000000 1.000000
0.000136 1.000000 1.000000
0.217153 1.000000 1.000000
0.432756 1.000000 1.000000
0.788596 1.000000 1.000000
1.000000 1.000000 1.000000
1.000000 1.000000 1.000000
1.000000 1.000000 1.000000
0.000000 1.000000 1.000000
0.000136 1.000000 1.000000
0.217153 1.000000 1.000000
0.432756 1.000000 1.000000
0.788596 1.000000 1.000000
1.000000 1.000000 1.000000
1.000000 1.000000 1.000000
1.000000 1.000000 1.000000
0.000000 0.000000 1.000000
0.000136 0.000000 1.000000
0.217153 0.000000 1.000000
0.432756 0.000000 1.000000
0.788596 0.000000 1.000000
1.000000 0.000000 1.000000
1.000000 0.000000 1.000000
1.000000 0.000000 1.000000
0.000000 0.067481 1.000000
0.000136 0.067481 1.000000
0.217153 0.067481 1.000000
0.432756 0.067481 1.000000
0.788596 0.067481 1.000000
1.000000 0.067481 1.000000
1.000000 0.067481 1.000000
1.000000 0.067481 1.000000
0.000000 0.248255 1.000000
0.000136 0.248255 1.000000
0.217153 0.248255 1.000000
0.432756 0.248255 1.000000
0.788596 0.248255 1.000000
1.000000 0.248255 1.000000
1.000000 0.248255 1.000000
1.000000 0.248255 1.000000
0.000000 0.460103 1.000000
0.000136 0.460103 1.000000
0.217153 0.460103 1.000000
0.432756 0.460103 1.000000
0.788596 0.460103 1.000000
1.000000 0.460103 1.000000
1.000000 0.460103 1.000000
1.000000 0.460103 1.000000
0.000000 0.801680 1.000000
0.000136 0.801680 1.000000
0.217153 0.801680 1.000000
0.432756 0.801680 1.000000
0.788596 0.801680 1.000000
1.000000 0.801680 1.000000
1.000000 0.801680 1.000000
1.000000 0.801680 1.000000
0.000000 1.000000 1.000000
0.000136 1.000000 1.000000
0.217153 1.000000 1.000000
0.432756 1.000000 1.000000
0.788596 1.000000 1.000000
1.000000 1.000000 1.000000
1.000000 1.000000 1.000000
1.000000 1.000000 1.000000
0.000000 1.000000 1.000000
0.000136 1.000000 1.000000
0.217153 1.000000 1.000000
0.432756 1.000000 1.000000
0.788596 1.000000 1.000000
1.000000 1.000000 1.000000
1.000000 1.000000 1.000000
1.000000 1.000000 1.000000
0.000000 1.000000 1.000000
0.000136 1.000000 1.000000
0.217153 1.000000 1.000000
0.432756 1.000000 1.000000
0.788596 1.000000 1.000000
1.000000 1.000000 1.000000
1.000000 1.000000 1.000000
1.000000 1.000000 1.000000
0.000000 0.000000 1.000000
0.000136 0.000000 1.000000
0.217153 0.000000 1.000000
0.432756 0.000000 1.000000
0.788596 0.000000 1.000000
1.000000 0.000000 1.000000
1.000000 0.000000 1.000000
1.000000 0.000000 1.000000
0.000000 0.067481 1.000000
0.000136 0.067481 1.000000
0.217153 0.067481 1.000000
0.432756 0.067481 1.000000
0.788596 0.067481 1.000000
1.000000 0.067481 1.000000
1.000000 0.067481 1.000000
1.000000 0.067481 1.000000
0.000000 0.248255 1.000000
0.000136 0.248255 1.000000
0.217153 0.248255 1.000000
0.432756 0.248255 1.000000
0.788596 0.248255 1.000000
1.000000 0.248255 1.000000
1.000000 0.248255 1.000000
1.000000 0.248255 1.000000
0.000000 0.460103 1.000000
0.000136 0.460103 1.000000
0.217153 0.460103 1.000000
0.432756 0.460103 1.000000
0.788596 0.460103 1.000000
1.000000 0.460103 1.000000
1.000000 0.460103 1.000000
1.000000 0.460103 1.000000
0.000000 0.801680 1.000000
0.000136 0.801680 1.000000
0.217153 0.801680 1.000000
0.432756 0.801680 1.000000
0.788596 0.801680 1.000000
1.000000 0.801680 1.000000
1.000000 0.801680 1.000000
1.000000 0.801680 1.000000
0.000000 1.000000 1.000000
0.000136 1.000000 1.000000
0.217153 1.000000 1.000000
0.432756 1.000000 1.000000
0.788596 1.000000 1.000000
1.000000 1.000000 1.000000
1.000000 1.000000 1.000000
1.000000 1.000000 1.000000
0.000000 1.000000 1.000000
0.000136 1.000000 1.000000
0.217153 1.000000 1.000000
0.432756 1.000000 1.000000
0.788596 1.000000 1.000000
1.000000 1.000000 1.000000
1.000000 1.000000 1.000000
1.000000 1.000000 1.000000
0.000000 1.000000 1.000000
0.000136 1.000000 1.000000
0.217153 1.000000 1.000000
0.432756 1.000000 1.000000
0.788596 1.000000 1.000000
1.000000 1.000000 1.000000
1.000000 1.000000 1.000000
1.000000 1.000000 1.000000
