python/3 - create cube files/cube files/linearize_chromatic.cube
TITLE "cube/linearize_chromatic.cube"
LUT_3D_SIZE 32
DOMAIN_MIN 0.0 0.0 0.0
DOMAIN_MAX 1.0 1.0 1.0
0.000000 0.000000 0.000000
0.000000 0.000000 0.000000
0.000000 0.000000 0.000000
0.000000 0.000000 0.000000
0.000136 0.000000 0.000000
0.077119 0.000000 0.000000
0.129888 0.000000 0.000000
0.173085 0.000000 0.000000
0.217153 0.000000 0.000000
0.264057 0.000000 0.000000
0.313309 0.000000 0.000000
0.369971 0.000000 0.000000
0.432756 0.000000 0.000000
0.504563 0.000000 0.000000
0.587180 0.000000 0.000000
0.679762 0.000000 0.000000
0.788596 0.000000 0.000000
0.911667 0.000000 0.000000
1.051960 0.000000 0.000000
1.000000 0.000000 0.000000
1.000000 0.000000 0.000000
1.000000 0.000000 0.000000
1.000000 0.000000 0.000000
1.000000 0.000000 0.000000
1.000000 0.000000 0.000000
1.000000 0.000000 0.000000
1.000000 0.000000 0.000000
1.000000 0.000000 0.000000
1.000000 0.000000 0.000000
1.000000 0.000000 0.000000
1.000000 0.000000 0.000000
1.000000 0.000000 0.000000
0.000000 0.000000 0.000000
0.000000 0.000000 0.000000
0.000000 0.000000 0.000000
0.000000 0.000000 0.000000
0.000136 0.000000 0.000000
0.077119 0.000000 0.000000
0.129888 0.000000 0.000000
0.173085 0.000000 0.000000
0.217153 0.000000 0.000000
0.264057 0.000000 0.000000
0.313309 0.000000 0.000000
0.369971 0.000000 0.000000
0.432756 0.000000 0.000000
0.504563 0.000000 0.000000
0.587180 0.000000 0.000000
0.679762 0.000000 0.000000
0.788596 0.000000 0.000000
0.911667 0.000000 0.000000
1.051960 0.000000 0.000000
1.000000 0.000000 0.000000
1.000000 0.000000 0.000000
1.000000 0.000000 0.000000
1.000000 0.000000 0.000000
1.000000 0.000000 0.000000
1.000000 0.000000 0.000000
1.000000 0.000000 0.000000
1.000000 0.000000 0.000000
1.000000 0.000000 0.000000
1.000000 0.000000 0.000000
1.000000 0.000000 0.000000
1.000000 0.000000 0.000000
1.000000 0.000000 0.000000
0.000000 0.000000 0.000000
0.000000 0.000000 0.000000
0.000000 0.000000 0.000000
0.000000 0.000000 0.000000
0.000136 0.000000 0.000000
0.077119 0.000000 0.000000
0.129888 0.000000 0.000000
0.173085 0.000000 0.000000
0.217153 0.000000 0.000000
0.264057 0.000000 0.000000
0.313309 0.000000 0.000000
0.369971 0.000000 0.000000
0.432756 0.000000 0.000000
0.504563 0.000000 0.000000
0.587180 0.000000 0.000000
0.679762 0.000000 0.000000
0.788596 0.000000 0.000000
0.911667 0.000000 0.000000
1.051960 0.000000 0.000000
1.000000 0.000000 0.000000
1.000000 0.000000 0.000000
1.000000 0.000000 0.000000
1.000000 0.000000 0.000000
1.000000 0.000000 0.000000
1.000000 0.000000 0.000000
1.000000 0.000000 0.000000
1.000000 0.000000 0.000000
1.000000 0.000000 0.000000
1.000000 0.000000 0.000000
1.000000 0.000000 0.000000
1.000000 0.000000 0.000000
1.000000 0.000000 0.000000
0.000000 0.000000 0.000000
0.000000 0.000000 0.000000
0.000000 0.000000 0.000000
0.000000 0.000000 0.000000
0.000136 0.000000 0.000000
0.077119 0.000000 0.000000
0.129888 0.000000 0.000000
0.173085 0.000000 0.000000
0.217153 0.000000 0.000000
0.264057 0.000000 0.000000
0.313309 0.000000 0.000000
0.369971 0.000000 0.000000
0.432756 0.000000 0.000000
0.504563 0.000000 0.000000
0.587180 0.000000 0.000000
0.679762 0.000000 0.000000
0.788596 0.000000 0.000000
0.911667 0.000000 0.000000
1.051960 0.000000 0.000000
1.000000 0.000000 0.000000
1.000000 0.000000 0.000000
1.000000 0.000000 0.000000
1.000000 0.000000 0.000000
1.000000 0.000000 0.000000
1.000000 0.000000 0.000000
1.000000 0.000000 0.000000
1.000000 0.000000 0.000000
1.000000 0.000000 0.000000
1.000000 0.000000 0.000000
1.000000 0.000000 0.000000
1.000000 0.000000 0.000000
1.000000 0.000000 0.000000
0.000000 0.067481 0.000000
0.000000 0.067481 0.000000
0.000000 0.067481 0.000000
0.000000 0.067481 0.000000
0.000136 0.067481 0.000000
0.077119 0.067481 0.000000
0.129888 0.067481 0.000000
0.173085 0.067481 0.000000
0.217153 0.067481 0.000000
0.264057 0.067481 0.000000
0.313309 0.067481 0.000000
0.369971 0.067481 0.000000
0.432756 0.067481 0.000000
0.504563 0.067481 0.000000
0.587180 0.067481 0.000000
0.679762 0.067481 0.000000
0.788596 0.067481 0.000000
0.911667 0.067481 0.000000
1.051960 0.067481 0.000000
1.000000 0.067481 0.000000
1.000000 0.067481 0.000000
1.000000 0.067481 0.000000
1.000000 0.067481 0.000000
1.000000 0.067481 0.000000
1.000000 0.067481 0.000000
1.000000 0.067481 0.000000
1.000000 0.067481 0.000000
1.000000 0.067481 0.000000
1.000000 0.067481 0.000000
1.000000 0.067481 0.000000
1.000000 0.067481 0.000000
1.000000 0.067481 0.000000
0.000000 0.126759 0.000000
0.000000 0.126759 0.000000
0.000000 0.126759 0.000000
0.000000 0.126759 0.000000
0.000136 0.126759 0.000000
0.077119 0.126759 0.000000
0.129888 0.126759 0.000000
0.173085 0.126759 0.000000
0.217153 0.126759 0.000000
0.264057 0.126759 0.000000
0.313309 0.126759 0.000000
0.369971 0.126759 0.000000
0.432756 0.126759 0.000000
0.504563 0.126759 0.000000
0.587180 0.126759 0.000000
0.679762 0.126759 0.000000
0.788596 0.126759 0.000000
0.911667 0.126759 0.000000
1.051960 0.126759 0.000000
1.000000 0.126759 0.000000
1.000000 0.126759 0.000000
1.000000 0.126759 0.000000
1.000000 0.126759 0.000000
1.000000 0.126759 0.000000
1.000000 0.126759 0.000000
1.000000 0.126759 0.000000
1.000000 0.126759 0.000000
1.000000 0.126759 0.000000
1.000000 0.126759 0.000000
1.000000 0.126759 0.000000
1.000000 0.126759 0.000000
1.000000 0.126759 0.000000
0.000000 0.164298 0.000000
0.000000 0.164298 0.000000
0.000000 0.164298 0.000000
0.000000 0.164298 0.000000
0.000136 0.164298 0.000000
0.077119 0.164298 0.000000
0.129888 0.164298 0.000000
0.173085 0.164298 0.000000
0.217153 0.164298 0.000000
0.264057 0.164298 0.000000
0.313309 0.164298 0.000000
0.369971 0.164298 0.000000
0.432756 0.164298 0.000000
0.504563 0.164298 0.000000
0.587180 0.164298 0.000000
0.679762 0.164298 0.000000
0.788596 0.164298 0.000000
0.911667 0.164298 0.000000
1.051960 0.164298 0.000000
1.000000 0.164298 0.000000
1.000000 0.164298 0.000000
1.000000 0.164298 0.000000
1.000000 0.164298 0.000000
1.000000 0.164298 0.000000
1.000000 0.164298 0.000000
1.000000 0.164298 0.000000
1.000000 0.164298 0.000000
1.000000 0.164298 0.000000
1.000000 0.164298 0.000000
1.000000 0.164298 0.000000
1.000000 0.164298 0.000000
1.000000 0.164298 0.000000
0.000000 0.205420 0.000000
0.000000 0.205420 0.000000
0.000000 0.205420 0.000000
0.000000 0.205420 0.000000
0.000136 0.205420 0.000000
0.077119 0.205420 0.000000
0.129888 0.205420 0.000000
0.173085 0.205420 0.000000
0.217153 0.205420 0.000000
0.264057 0.205420 0.000000
0.313309 0.205420 0.000000
0.369971 0.205420 0.000000
0.432756 0.205420 0.000000
0.504563 0.205420 0.000000
0.587180 0.205420 0.000000
0.679762 0.205420 0.000000
0.788596 0.205420 0.000000
0.911667 0.205420 0.000000
1.051960 0.205420 0.000000
1.000000 0.205420 0.000000
1.000000 0.205420 0.000000
1.000000 0.205420 0.000000
1.000000 0.205420 0.000000
1.000000 0.205420 0.000000
1.000000 0.205420 0.000000
1.000000 0.205420 0.000000
1.000000 0.205420 0.000000
1.000000 0.205420 0.000000
1.000000 0.205420 0.000000
1.000000 0.205420 0.000000
1.000000 0.205420 0.000000
1.000000 0.205420 0.000000
0.000000 0.248255 0.000000
0.000000 0.248255 0.000000
0.000000 0.248255 0.000000
0.000000 0.248255 0.000000
0.000136 0.248255 0.000000
0.077119 0.248255 0.000000
0.129888 0.248255 0.000000
0.173085 0.248255 0.000000
0.217153 0.248255 0.000000
0.264057 0.248255 0.000000
0.313309 0.248255 0.000000
0.369971 0.248255 0.000000
0.432756 0.248255 0.000000
0.504563 0.248255 0.000000
0.587180 0.248255 0.000000
0.679762 0.248255 0.000000
0.788596 0.248255 0.000000
0.911667 0.248255 0.000000
1.051960 0.248255 0.000000
1.000000 0.248255 0.000000
1.000000 0.248255 0.000000
1.000000 0.248255 0.000000
1.000000 0.248255 0.000000
1.000000 0.248255 0.000000
1.000000 0.248255 0.000000
1.000000 0.248255 0.000000
1.000000 0.248255 0.000000
1.000000 0.248255 0.000000
1.000000 0.248255 0.000000
1.000000 0.248255 0.000000
1.000000 0.248255 0.000000
1.000000 0.248255 0.000000
0.000000 0.294446 0.000000
0.000000 0.294446 0.000000
0.000000 0.294446 0.000000
0.000000 0.294446 0.000000
0.000136 0.294446 0.000000
0.077119 0.294446 0.000000
0.129888 0.294446 0.000000
0.173085 0.294446 0.000000
0.217153 0.294446 0.000000
0.264057 0.294446 0.000000
0.313309 0.294446 0.000000
0.369971 0.294446 0.000000
0.432756 0.294446 0.000000
0.504563 0.294446 0.000000
0.587180 0.294446 0.000000
0.679762 0.294446 0.000000
0.788596 0.294446 0.000000
0.911667 0.294446 0.000000
1.051960 0.294446 0.000000
1.000000 0.294446 0.000000
1.000000 0.294446 0.000000
1.000000 0.294446 0.000000
1.000000 0.294446 0.000000
1.000000 0.294446 0.000000
1.000000 0.294446 0.000000
1.000000 0.294446 0.000000
1.000000 0.294446 0.000000
1.000000 0.294446 0.000000
1.000000 0.294446 0.000000
1.000000 0.294446 0.000000
1.000000 0.294446 0.000000
1.000000 0.294446 0.000000
0.000000 0.342972 0.000000
0.000000 0.342972 0.000000
0.000000 0.342972 0.000000
0.000000 0.342972 0.000000
0.000136 0.342972 0.000000
0.077119 0.342972 0.000000
0.129888 0.342972 0.000000
0.173085 0.342972 0.000000
0.217153 0.342972 0.000000
0.264057 0.342972 0.000000
0.313309 0.342972 0.000000
0.369971 0.342972 0.000000
0.432756 0.342972 0.000000
0.504563 0.342972 0.000000
0.587180 0.342972 0.000000
0.679762 0.342972 0.000000
0.788596 0.342972 0.000000
0.911667 0.342972 0.000000
1.051960 0.342972 0.000000
1.000000 0.342972 0.000000
1.000000 0.342972 0.000000
1.000000 0.342972 0.000000
1.000000 0.342972 0.000000
1.000000 0.342972 0.000000
1.000000 0.342972 0.000000
1.000000 0.342972 0.000000
1.000000 0.342972 0.000000
1.000000 0.342972 0.000000
1.000000 0.342972 0.000000
1.000000 0.342972 0.000000
1.000000 0.342972 0.000000
1.000000 0.342972 0.000000
0.000000 0.398682 0.000000
0.000000 0.398682 0.000000
0.000000 0.398682 0.000000
0.000000 0.398682 0.000000
0.000136 0.398682 0.000000
0.077119 0.398682 0.000000
0.129888 0.398682 0.000000
0.173085 0.398682 0.000000
0.217153 0.398682 0.000000
0.264057 0.398682 0.000000
0.313309 0.398682 0.000000
0.369971 0.398682 0.000000
0.432756 0.398682 0.000000
0.504563 0.398682 0.000000
0.587180 0.398682 0.000000
0.679762 0.398682 0.000000
0.788596 0.398682 0.000000
0.911667 0.398682 0.000000
1.051960 0.398682 0.000000
1.000000 0.398682 0.000000
1.000000 0.398682 0.000000
1.000000 0.398682 0.000000
1.000000 0.398682 0.000000
1.000000 0.398682 0.000000
1.000000 0.398682 0.000000
1.000000 0.398682 0.000000
1.000000 0.398682 0.000000
1.000000 0.398682 0.000000
1.000000 0.398682 0.000000
1.000000 0.398682 0.000000
1.000000 0.398682 0.000000
1.000000 0.398682 0.000000
0.000000 0.460103 0.000000
0.000000 0.460103 0.000000
0.000000 0.460103 0.000000
0.000000 0.460103 0.000000
0.000136 0.460103 0.000000
0.077119 0.460103 0.000000
0.129888 0.460103 0.000000
0.173085 0.460103 0.000000
0.217153 0.460103 0.000000
0.264057 0.460103 0.000000
0.313309 0.460103 0.000000
0.369971 0.460103 0.000000
0.432756 0.460103 0.000000
0.504563 0.460103 0.000000
0.587180 0.460103 0.000000
0.679762 0.460103 0.000000
0.788596 0.460103 0.000000
0.911667 0.460103 0.000000
1.051960 0.460103 0.000000
1.000000 0.460103 0.000000
1.000000 0.460103 0.000000
1.000000 0.460103 0.000000
1.000000 0.460103 0.000000
1.000000 0.460103 0.000000
1.000000 0.460103 0.000000
1.000000 0.460103 0.000000
1.000000 0.460103 0.000000
1.000000 0.460103 0.000000
1.000000 0.460103 0.000000
1.000000 0.460103 0.000000
1.000000 0.460103 0.000000
1.000000 0.460103 0.000000
0.000000 0.529923 0.000000
0.000000 0.529923 0.000000
0.000000 0.529923 0.000000
0.000000 0.529923 0.000000
0.000136 0.529923 0.000000
0.077119 0.529923 0.000000
0.129888 0.529923 0.000000
0.173085 0.529923 0.000000
0.217153 0.529923 0.000000
0.264057 0.529923 0.000000
0.313309 0.529923 0.000000
0.369971 0.529923 0.000000
0.432756 0.529923 0.000000
0.504563 0.529923 0.000000
0.587180 0.529923 0.000000
0.679762 0.529923 0.000000
0.788596 0.529923 0.000000
0.911667 0.529923 0.000000
1.051960 0.529923 0.000000
1.000000 0.529923 0.000000
1.000000 0.529923 0.000000
1.000000 0.529923 0.000000
1.000000 0.529923 0.000000
1.000000 0.529923 0.000000
1.000000 0.529923 0.000000
1.000000 0.529923 0.000000
1.000000 0.529923 0.000000
1.000000 0.529923 0.000000
1.000000 0.529923 0.000000
1.000000 0.529923 0.000000
1.000000 0.529923 0.000000
1.000000 0.529923 0.000000
0.000000 0.609660 0.000000
0.000000 0.609660 0.000000
0.000000 0.609660 0.000000
0.000000 0.609660 0.000000
0.000136 0.609660 0.000000
0.077119 0.609660 0.000000
0.129888 0.609660 0.000000
0.173085 0.609660 0.000000
0.217153 0.609660 0.000000
0.264057 0.609660 0.000000
0.313309 0.609660 0.000000
0.369971 0.609660 0.000000
0.432756 0.609660 0.000000
0.504563 0.609660 0.000000
0.587180 0.609660 0.000000
0.679762 0.609660 0.000000
0.788596 0.609660 0.000000
0.911667 0.609660 0.000000
1.051960 0.609660 0.000000
1.000000 0.609660 0.000000
1.000000 0.609660 0.000000
1.000000 0.609660 0.000000
1.000000 0.609660 0.000000
1.000000 0.609660 0.000000
1.000000 0.609660 0.000000
1.000000 0.609660 0.000000
1.000000 0.609660 0.000000
1.000000 0.609660 0.000000
1.000000 0.609660 0.000000
1.000000 0.609660 0.000000
1.000000 0.609660 0.000000
1.000000 0.609660 0.000000
0.000000 0.698318 0.000000
0.000000 0.698318 0.000000
0.000000 0.698318 0.000000
0.000000 0.698318 0.000000
0.000136 0.698318 0.000000
0.077119 0.698318 0.000000
0.129888 0.698318 0.000000
0.173085 0.698318 0.000000
0.217153 0.698318 0.000000
0.264057 0.698318 0.000000
0.313309 0.698318 0.000000
0.369971 0.698318 0.000000
0.432756 0.698318 0.000000
0.504563 0.698318 0.000000
0.587180 0.698318 0.000000
0.679762 0.698318 0.000000
0.788596 0.698318 0.000000
0.911667 0.698318 0.000000
1.051960 0.698318 0.000000
1.000000 0.698318 0.000000
1.000000 0.698318 0.000000
1.000000 0.698318 0.000000
1.000000 0.698318 0.000000
1.000000 0.698318 0.000000
1.000000 0.698318 0.000000
1.000000 0.698318 0.000000
1.000000 0.698318 0.000000
1.000000 0.698318 0.000000
1.000000 0.698318 0.000000
1.000000 0.698318 0.000000
1.000000 0.698318 0.000000
1.000000 0.698318 0.000000
0.000000 0.801680 0.000000
0.000000 0.801680 0.000000
0.000000 0.801680 0.000000
0.000000 0.801680 0.000000
0.000136 0.801680 0.000000
0.077119 0.801680 0.000000
0.129888 0.801680 0.000000
0.173085 0.801680 0.000000
0.217153 0.801680 0.000000
0.264057 0.801680 0.000000
0.313309 0.801680 0.000000
0.369971 0.801680 0.000000
0.432756 0.801680 0.000000
0.504563 0.801680 0.000000
0.587180 0.801680 0.000000
0.679762 0.801680 0.000000
0.788596 0.801680 0.000000
0.911667 0.801680 0.000000
1.051960 0.801680 0.000000
1.000000 0.801680 0.000000
1.000000 0.801680 0.000000
1.000000 0.801680 0.000000
1.000000 0.801680 0.000000
1.000000 0.801680 0.000000
1.000000 0.801680 0.000000
1.000000 0.801680 0.000000
1.000000 0.801680 0.000000
1.000000 0.801680 0.000000
1.000000 0.801680 0.000000
1.000000 0.801680 0.000000
1.000000 0.801680 0.000000
1.000000 0.801680 0.000000
0.000000 0.917512 0.000000
0.000000 0.917512 0.000000
0.000000 0.917512 0.000000
0.000000 0.917512 0.000000
0.000136 0.917512 0.000000
0.077119 0.917512 0.000000
0.129888 0.917512 0.000000
0.173085 0.917512 0.000000
0.217153 0.917512 0.000000
0.264057 0.917512 0.000000
0.313309 0.917512 0.000000
0.369971 0.917512 0.000000
0.432756 0.917512 0.000000
0.504563 0.917512 0.000000
0.587180 0.917512 0.000000
0.679762 0.917512 0.000000
0.788596 0.917512 0.000000
0.911667 0.917512 0.000000
1.051960 0.917512 0.000000
1.000000 0.917512 0.000000
1.000000 0.917512 0.000000
1.000000 0.917512 0.000000
1.000000 0.917512 0.000000
1.000000 0.917512 0.000000
1.000000 0.917512 0.000000
1.000000 0.917512 0.000000
1.000000 0.917512 0.000000
1.000000 0.917512 0.000000
1.000000 0.917512 0.000000
1.000000 0.917512 0.000000
1.000000 0.917512 0.000000
1.000000 0.917512 0.000000
0.000000 1.048557 0.000000
0.000000 1.048557 0.000000
0.000000 1.048557 0.000000
0.000000 1.048557 0.000000
0.000136 1.048557 0.000000
0.077119 1.048557 0.000000
0.129888 1.048557 0.000000
0.173085 1.048557 0.000000
0.217153 1.048557 0.000000
0.264057 1.048557 0.000000
0.313309 1.048557 0.000000
0.369971 1.048557 0.000000
0.432756 1.048557 0.000000
0.504563 1.048557 0.000000
0.587180 1.048557 0.000000
0.679762 1.048557 0.000000
0.788596 1.048557 0.000000
0.911667 1.048557 0.000000
1.051960 1.048557 0.000000
1.000000 1.048557 0.000000
1.000000 1.048557 0.000000
1.000000 1.048557 0.000000
1.000000 1.048557 0.000000
1.000000 1.048557 0.000000
1.000000 1.048557 0.000000
1.000000 1.048557 0.000000
1.000000 1.048557 0.000000
1.000000 1.048557 0.000000
1.000000 1.048557 0.000000
1.000000 1.048557 0.000000
1.000000 1.048557 0.000000
1.000000 1.048557 0.000000
0.000000 1.000000 0.000000
0.000000 1.000000 0.000000
0.000000 1.000000 0.000000
0.000000 1.000000 0.000000
0.000136 1.000000 0.000000
0.077119 1.000000 0.000000
0.129888 1.000000 0.000000
0.173085 1.000000 0.000000
0.217153 1.000000 0.000000
0.264057 1.000000 0.000000
0.313309 1.000000 0.000000
0.369971 1.000000 0.000000
0.432756 1.000000 0.000000
0.504563 1.000000 0.000000
0.587180 1.000000 0.000000
0.679762 1.000000 0.000000
0.788596 1.000000 0.000000
0.911667 1.000000 0.000000
1.051960 1.000000 0.000000
1.000000 1.000000 0.000000
1.000000 1.000000 0.000000
1.000000 1.000000 0.000000
1.000000 1.000000 0.000000
1.000000 1.000000 0.000000
1.000000 1.000000 0.000000
1.000000 1.000000 0.000000
1.000000 1.000000 0.000000
1.000000 1.000000 0.000000
1.000000 1.000000 0.000000
1.000000 1.000000 0.000000
1.000000 1.000000 0.000000
1.000000 1.000000 0.000000
0.000000 1.000000 0.000000
0.000000 1.000000 0.000000
0.000000 1.000000 0.000000
0.000000 1.000000 0.000000
0.000136 1.000000 0.000000
0.077119 1.000000 0.000000
0.129888 1.000000 0.000000
0.173085 1.000000 0.000000
0.217153 1.000000 0.000000
0.264057 1.000000 0.000000
0.313309 1.000000 0.000000
0.369971 1.000000 0.000000
0.432756 1.000000 0.000000
0.504563 1.000000 0.000000
0.587180 1.000000 0.000000
0.679762 1.000000 0.000000
0.788596 1.000000 0.000000
0.911667 1.000000 0.000000
1.051960 1.000000 0.000000
1.000000 1.000000 0.000000
1.000000 1.000000 0.000000
1.000000 1.000000 0.000000
1.000000 1.000000 0.000000
1.000000 1.000000 0.000000
1.000000 1.000000 0.000000
1.000000 1.000000 0.000000
1.000000 1.000000 0.000000
1.000000 1.000000 0.000000
1.000000 1.000000 0.000000
1.000000 1.000000 0.000000
1.000000 1.000000 0.000000
1.000000 1.000000 0.000000
0.000000 1.000000 0.000000
0.000000 1.000000 0.000000
0.000000 1.000000 0.000000
0.000000 1.000000 0.000000
0.000136 1.000000 0.000000
0.077119 1.000000 0.000000
0.129888 1.000000 0.000000
0.173085 1.000000 0.000000
0.217153 1.000000 0.000000
0.264057 1.000000 0.000000
0.313309 1.000000 0.000000
0.369971 1.000000 0.000000
0.432756 1.000000 0.000000
0.504563 1.000000 0.000000
0.587180 1.000000 0.000000
0.679762 1.000000 0.000000
0.788596 1.000000 0.000000
0.911667 1.000000 0.000000
1.051960 1.000000 0.000000
1.000000 1.000000 0.000000
1.000000 1.000000 0.000000
1.000000 1.000000 0.000000
1.000000 1.000000 0.000000
1.000000 1.000000 0.000000
1.000000 1.000000 0.000000
1.000000 1.000000 0.000000
1.000000 1.000000 0.000000
1.000000 1.000000 0.000000
1.000000 1.000000 0.000000
1.000000 1.000000 0.000000
1.000000 1.000000 0.000000
1.000000 1.000000 0.000000
0.000000 1.000000 0.000000
0.000000 1.000000 0.000000
0.000000 1.000000 0.000000
0.000000 1.000000 0.000000
0.000136 1.000000 0.000000
0.077119 1.000000 0.000000
0.129888 1.000000 0.000000
0.173085 1.000000 0.000000
0.217153 1.000000 0.000000
0.264057 1.000000 0.000000
0.313309 1.000000 0.000000
0.369971 1.000000 0.000000
0.432756 1.000000 0.000000
0.504563 1.000000 0.000000
0.587180 1.000000 0.000000
0.679762 1.000000 0.000000
0.788596 1.000000 0.000000
0.911667 1.000000 0.000000
1.051960 1.000000 0.000000
1.000000 1.000000 0.000000
1.000000 1.000000 0.000000
1.000000 1.000000 0.000000
1.000000 1.000000 0.000000
1.000000 1.000000 0.000000
1.000000 1.000000 0.000000
1.000000 1.000000 0.000000
1.000000 1.000000 0.000000
1.000000 1.000000 0.000000
1.000000 1.000000 0.000000
1.000000 1.000000 0.000000
1.000000 1.000000 0.000000
1.000000 1.000000 0.000000
0.000000 1.000000 0.000000
0.000000 1.000000 0.000000
0.000000 1.000000 0.000000
0.000000 1.000000 0.000000
0.000136 1.000000 0.000000
0.077119 1.000000 0.000000
0.129888 1.000000 0.000000
0.173085 1.000000 0.000000
0.217153 1.000000 0.000000
0.264057 1.000000 0.000000
0.313309 1.000000 0.000000
0.369971 1.000000 0.000000
0.432756 1.000000 0.000000
0.504563 1.000000 0.000000
0.587180 1.000000 0.000000
0.679762 1.000000 0.000000
0.788596 1.000000 0.000000
0.911667 1.000000 0.000000
1.051960 1.000000 0.000000
1.000000 1.000000 0.000000
1.000000 1.000000 0.000000
1.000000 1.000000 0.000000
1.000000 1.000000 0.000000
1.000000 1.000000 0.000000
1.000000 1.000000 0.000000
1.000000 1.000000 0.000000
1.000000 1.000000 0.000000
1.000000 1.000000 0.000000
1.000000 1.000000 0.000000
1.000000 1.000000 0.000000
1.000000 1.000000 0.000000
1.000000 1.000000 0.000000
0.000000 1.000000 0.000000
0.000000 1.000000 0.000000
0.000000 1.000000 0.000000
0.000000 1.000000 0.000000
0.000136 1.000000 0.000000
0.077119 1.000000 0.000000
0.129888 1.000000 0.000000
0.173085 1.000000 0.000000
0.217153 1.000000 0.000000
0.264057 1.000000 0.000000
0.313309 1.000000 0.000000
0.369971 1.000000 0.000000
0.432756 1.000000 0.000000
0.504563 1.000000 0.000000
0.587180 1.000000 0.000000
0.679762 1.000000 0.000000
0.788596 1.000000 0.000000
0.911667 1.000000 0.000000
1.051960 1.000000 0.000000
1.000000 1.000000 0.000000
1.000000 1.000000 0.000000
1.000000 1.000000 0.000000
1.000000 1.000000 0.000000
1.000000 1.000000 0.000000
1.000000 1.000000 0.000000
1.000000 1.000000 0.000000
1.000000 1.000000 0.000000
1.000000 1.000000 0.000000
1.000000 1.000000 0.000000
1.000000 1.000000 0.000000
1.000000 1.000000 0.000000
1.000000 1.000000 0.000000
0.000000 1.000000 0.000000
0.000000 1.000000 0.000000
0.000000 1.000000 0.000000
0.000000 1.000000 0.000000
0.000136 1.000000 0.000000
0.077119 1.000000 0.000000
0.129888 1.000000 0.000000
0.173085 1.000000 0.000000
0.217153 1.000000 0.000000
0.264057 1.000000 0.000000
0.313309 1.000000 0.000000
0.369971 1.000000 0.000000
0.432756 1.000000 0.000000
0.504563 1.000000 0.000000
0.587180 1.000000 0.000000
0.679762 1.000000 0.000000
0.788596 1.000000 0.000000
0.911667 1.000000 0.000000
1.051960 1.000000 0.000000
1.000000 1.000000 0.000000
1.000000 1.000000 0.000000
1.000000 1.000000 0.000000
1.000000 1.000000 0.000000
1.000000 1.000000 0.000000
1.000000 1.000000 0.000000
1.000000 1.000000 0.000000
1.000000 1.000000 0.000000
1.000000 1.000000 0.000000
1.000000 1.000000 0.000000
1.000000 1.000000 0.000000
1.000000 1.000000 0.000000
1.000000 1.000000 0.000000
0.000000 1.000000 0.000000
0.000000 1.000000 0.000000
0.000000 1.000000 0.000000
0.000000 1.000000 0.000000
0.000136 1.000000 0.000000
0.077119 1.000000 0.000000
0.129888 1.000000 0.000000
0.173085 1.000000 0.000000
0.217153 1.000000 0.000000
0.264057 1.000000 0.000000
0.313309 1.000000 0.000000
0.369971 1.000000 0.000000
0.432756 1.000000 0.000000
0.504563 1.000000 0.000000
0.587180 1.000000 0.000000
0.679762 1.000000 0.000000
0.788596 1.000000 0.000000
0.911667 1.000000 0.000000
1.051960 1.000000 0.000000
1.000000 1.000000 0.000000
1.000000 1.000000 0.000000
1.000000 1.000000 0.000000
1.000000 1.000000 0.000000
1.000000 1.000000 0.000000
1.000000 1.000000 0.000000
1.000000 1.000000 0.000000
1.000000 1.000000 0.000000
1.000000 1.000000 0.000000
1.000000 1.000000 0.000000
1.000000 1.000000 0.000000
1.000000 1.000000 0.000000
1.000000 1.000000 0.000000
0.000000 1.000000 0.000000
0.000000 1.000000 0.000000
0.000000 1.000000 0.000000
0.000000 1.000000 0.000000
0.000136 1.000000 0.000000
0.077119 1.000000 0.000000
0.129888 1.000000 0.000000
0.173085 1.000000 0.000000
0.217153 1.000000 0.000000
0.264057 1.000000 0.000000
0.313309 1.000000 0.000000
0.369971 1.000000 0.000000
0.432756 1.000000 0.000000
0.504563 1.000000 0.000000
0.587180 1.000000 0.000000
0.679762 1.000000 0.000000
0.788596 1.000000 0.000000
0.911667 1.000000 0.000000
1.051960 1.000000 0.000000
1.000000 1.000000 0.000000
1.000000 1.000000 0.000000
