python/3 - create cube files/cube files/linearize_chromatic.cube
TITLE "cube/linearize_chromatic.cube"
LUT_3D_SIZE 5
DOMAIN_MIN 0.000000 0.000000 0.000000
DOMAIN_MAX 0.903226 0.903226 0.903226
0.000000 0.000000 0.000000
0.173085 0.000000 0.000000
0.587180 0.000000 0.000000
1.000000 0.000000 0.000000
1.000000 0.000000 0.000000
0.000000 0.205420 0.000000
0.173085 0.205420 0.000000
0.587180 0.205420 0.000000
1.000000 0.205420 0.000000
1.000000 0.205420 0.000000
0.000000 0.609660 0.000000
0.173085 0.609660 0.000000
0.587180 0.609660 0.000000
1.000000 0.609660 0.000000
1.000000 0.609660 0.000000
0.000000 1.000000 0.000000
0.173085 1.000000 0.000000
0.587180 1.000000 0.000000
1.000000 1.000000 0.000000
1.000000 1.000000 0.000000
0.000000 1.000000 0.000000
0.173085 1.000000 0.000000
0.587180 1.000000 0.000000
1.000000 1.000000 0.000000
1.000000 1.000000 0.000000
0.000000 0.000000 0.219662
0.173085 0.000000 0.219662
0.587180 0.000000 0.219662
1.000000 0.000000 0.219662
1.000000 0.000000 0.219662
0.000000 0.205420 0.219662
0.173085 0.205420 0.219662
0.587180 0.205420 0.219662
1.000000 0.205420 0.219662
1.000000 0.205420 0.219662
0.000000 0.609660 0.219662
0.173085 0.609660 0.219662
0.587180 0.609660 0.219662
1.000000 0.609660 0.219662
1.000000 0.609660 0.219662
0.000000 1.000000 0.219662
0.173085 1.000000 0.219662
0.587180 1.000000 0.219662
1.000000 1.000000 0.219662
1.000000 1.000000 0.219662
0.000000 1.000000 0.219662
0.173085 1.000000 0.219662
0.587180 1.000000 0.219662
1.000000 1.000000 0.219662
1.000000 1.000000 0.219662
0.000000 0.000000 0.621264
0.173085 0.000000 0.621264
0.587180 0.000000 0.621264
1.000000 0.000000 0.621264
1.000000 0.000000 0.621264
0.000000 0.205420 0.621264
0.173085 0.205420 0.621264
0.587180 0.205420 0.621264
1.000000 0.205420 0.621264
1.000000 0.205420 0.621264
0.000000 0.609660 0.621264
0.173085 0.609660 0.621264
0.587180 0.609660 0.621264
1.000000 0.609660 0.621264
1.000000 0.609660 0.621264
0.000000 1.000000 0.621264
0.173085 1.000000 0.621264
0.587180 1.000000 0.621264
1.000000 1.000000 0.621264
1.000000 1.000000 0.621264
0.000000 1.000000 0.621264
0.173085 1.000000 0.621264
0.587180 1.000000 0.621264
1.000000 1.000000 0.621264
1.000000 1.000000 0.621264
0.000000 0.000000 1.000000
0.173085 0.000000 1.000000
0.587180 0.000000 1.000000
1.000000 0.000000 1.000000
1.000000 0.000000 1.000000
0.000000 0.205420 1.000000
0.173085 0.205420 1.000000
0.587180 0.205420 1.000000
1.000000 0.205420 1.000000
1.000000 0.205420 1.000000
0.000000 0.609660 1.000000
0.173085 0.609660 1.000000
0.587180 0.609660 1.000000
1.000000 0.609660 1.000000
1.000000 0.609660 1.000000
0.000000 1.000000 1.000000
0.173085 1.000000 1.000000
0.587180 1.000000 1.000000
1.000000 1.000000 1.000000
1.000000 1.000000 1.000000
0.000000 1.000000 1.000000
0.173085 1.000000 1.000000
0.587180 1.000000 1.000000
1.000000 1.000000 1.000000
1.000000 1.000000 1.000000
0.000000 0.000000 1.000000
0.173085 0.000000 1.000000
0.587180 0.000000 1.000000
1.000000 0.000000 1.000000
1.000000 0.000000 1.000000
0.000000 0.205420 1.000000
0.173085 0.205420 1.000000
0.587180 0.205420 1.000000
1.000000 0.205420 1.000000
1.000000 0.205420 1.000000
0.000000 0.609660 1.000000
0.173085 0.609660 1.000000
0.587180 0.609660 1.000000
1.000000 0.609660 1.000000
1.000000 0.609660 1.000000
0.000000 1.000000 1.000000
0.173085 1.000000 1.000000
0.587180 1.000000 1.000000
1.000000 1.000000 1.000000
1.000000 1.000000 1.000000
0.000000 1.000000 1.000000
0.173085 1.000000 1.000000
0.587180 1.000000 1.000000
1.000000 1.000000 1.000000
1.000000 1.000000 1.000000
